; generated by PrusaSlicer 2.7.0+win64 on 2023-12-01 at 23:40:51 UTC
;FLAVOR:Marlin
;TIME:559
;Filament used: 1.173660
;Layer height: 0.20
;MINX:0.000
;MINY:0.000
;MINZ:0.000
;MAXX:0.000
;MAXY:0.000
;MAXZ:0.000
;POSTPROCESSED
;Header generated for The Ender3v2 Professional Firmware
;https://github.com/mriscoc/Marlin_Ender3v2



;
;

;
;
; 

; external perimeters extrusion width = 0.42mm
; perimeters extrusion width = 0.44mm
; infill extrusion width = 0.44mm
; solid infill extrusion width = 0.44mm
; top infill extrusion width = 0.40mm
; first layer extrusion width = 0.42mm

M73 P0 R9

EXCLUDE_OBJECT_DEFINE NAME=Erics_Rail_mount_1_stl CENTER=110.000,111.263 POLYGON=[[115.500,98.000],[115.500,99.000],[113.000,99.000],[113.000,101.000],[117.500,101.000],[117.500,125.000],[102.500,125.000],[102.500,101.000],[107.000,101.000],[107.000,99.000],[104.500,99.000],[104.500,98.000],[107.500,95.000],[112.500,95.000]]

M190 S60 ; set bed temperature and wait for it to be reached
M104 S202 ; set temperature
;TYPE:Custom
START_PRINT
M109 S202 ; set temperature and wait for it to be reached
G21 ; set units to millimeters
G90 ; use absolute coordinates
M82 ; use absolute distances for extrusion
G92 E0
; Filament gcode
M107
;LAYER_CHANGE
;Z:0.32
;HEIGHT:0.32
;BEFORE_LAYER_CHANGE
;0.32


G1 E-2 F4800
G92 E0
G1 Z.32 F9000
;AFTER_LAYER_CHANGE
;0.32
G1 X102.13 Y95.63
G1 E2 F4800
;TYPE:Skirt/Brim
;WIDTH:0.42
G1 F1800
G1 X105.13 Y92.63 E2.1983
G1 X106.524 Y91.794 E2.27428
G1 X107.5 Y91.649 E2.3204
G1 X112.5 Y91.649 E2.5541
G1 X114.077 Y92.043 E2.63008
G1 X114.87 Y92.63 E2.6762
G1 X117.87 Y95.63 E2.8745
G1 X118.288 Y96.141 E2.90536
G1 X120.288 Y99.141 E3.07389
G1 X120.851 Y101 E3.16468
G1 X120.851 Y125 E4.28646
G1 X120.457 Y126.577 E4.36244
G1 X119.368 Y127.783 E4.43839
G1 X117.5 Y128.351 E4.52965
G1 X102.5 Y128.351 E5.23076
G1 X100.923 Y127.957 E5.30674
G1 X99.717 Y126.868 E5.38269
G1 X99.149 Y125 E5.47395
G1 X99.149 Y101 E6.59573
G1 X99.712 Y99.141 E6.68652
G1 X101.712 Y96.141 E6.85505
G1 X102.092 Y95.677 E6.88308
EXCLUDE_OBJECT_START NAME=Erics_Rail_mount_1_stl
;WIPE_START
G1 F7200
G1 X102.13 Y95.63 E6.8448
G1 X104.32 Y93.44 E4.88308
;WIPE_END
G92 E0
G1 Z.52 F9000
G1 X116.726 Y102.541
G1 Z.32
G1 E2 F4800
;TYPE:Solid infill
;WIDTH:0.421455
G1 F1800
G1 X116.117 Y101.932 E2.04042
G1 X115.618 Y101.932 E2.06384
G1 X116.568 Y102.882 E2.1269
G1 X116.568 Y103.381 E2.15032
G1 X115.119 Y101.932 E2.2465
G1 X114.621 Y101.932 E2.26987
G1 X116.568 Y103.879 E2.3991
G1 X116.568 Y104.378 E2.42252
G1 X114.122 Y101.932 E2.58487
G1 X113.623 Y101.932 E2.60829
G1 X116.568 Y104.877 E2.80376
G1 X116.568 Y105.376 E2.82718
G1 X112.966 Y101.774 E3.06626
;WIPE_START
G1 F7200
G1 X115.199 Y104.007 E1.06626
;WIPE_END
G92 E0
G1 Z.52 F9000
G1 X114.407 Y98.226
G1 Z.32
G1 E2 F4800
G1 F1800
G1 X112.113 Y95.932 E2.15226
G1 X111.614 Y95.932 E2.17568
M73 P1 R9
G1 X113.75 Y98.068 E2.31746
G1 X113.251 Y98.068 E2.34088
G1 X111.115 Y95.932 E2.48266
G1 X110.616 Y95.932 E2.50608
G1 X112.777 Y98.093 E2.64952
G1 X112.406 Y98.221 E2.66794
G1 X110.117 Y95.932 E2.81987
G1 X109.618 Y95.932 E2.84329
G1 X112.17 Y98.484 E3.01268
G1 X112.094 Y98.659 E3.02163
G1 X112.068 Y98.881 E3.03212
G1 X109.119 Y95.932 E3.22786
G1 X108.621 Y95.932 E3.25123
G1 X112.069 Y99.38 E3.48009
G1 X112.069 Y99.88 E3.50356
G1 X108.122 Y95.932 E3.76558
G1 X107.886 Y95.932 E3.77666
G1 X107.754 Y96.063 E3.78539
G1 X112.07 Y100.379 E4.07187
G1 X112.07 Y100.878 E4.09529
G1 X107.505 Y96.313 E4.39829
G1 X107.255 Y96.562 E4.41485
G1 X116.568 Y105.875 E5.033
G1 X116.568 Y106.374 E5.05642
G1 X107.006 Y96.812 E5.6911
G1 X106.757 Y97.061 E5.70763
G1 X116.568 Y106.873 E6.35887
G1 X116.568 Y107.372 E6.38229
G1 X106.507 Y97.311 E7.05009
G1 X106.258 Y97.56 E7.06662
G1 X106.766 Y98.068 E7.10034
G1 X106.267 Y98.068 E7.12376
G1 X106.008 Y97.81 E7.14092
G1 X105.759 Y98.059 E7.15745
G1 X105.926 Y98.226 E7.16853
;WIPE_START
G1 F7200
G1 X105.759 Y98.059 E7.01895
G1 X106.008 Y97.81 E6.79593
G1 X106.267 Y98.068 E6.5644
G1 X106.766 Y98.068 E6.24837
G1 X106.258 Y97.56 E5.79337
G1 X106.507 Y97.311 E5.57035
G1 X106.956 Y97.76 E5.16853
;WIPE_END
G92 E0
G1 Z.52 F9000
G1 X107.774 Y99.076
G1 Z.32
G1 E2 F4800
G1 F1800
G1 X116.568 Y107.871 E2.58374
G1 X116.568 Y108.37 E2.60716
G1 X107.931 Y99.732 E3.18048
G1 X107.93 Y100.231 E3.2039
G1 X116.568 Y108.869 E3.77725
G1 X116.568 Y109.367 E3.80062
G1 X107.93 Y100.729 E4.37397
G1 X107.926 Y101.224 E4.3972
G1 X116.568 Y109.866 E4.97081
G1 X116.568 Y110.365 E4.99423
M73 P2 R9
G1 X107.786 Y101.583 E5.57714
G1 X107.65 Y101.744 E5.58703
G1 X107.525 Y101.821 E5.59392
G1 X116.568 Y110.864 E6.19415
G1 X116.568 Y111.363 E6.21757
G1 X107.137 Y101.932 E6.84355
G1 X106.638 Y101.932 E6.86697
G1 X116.568 Y111.862 E7.52608
G1 X116.568 Y112.361 E7.5495
G1 X106.139 Y101.932 E8.24173
G1 X105.64 Y101.932 E8.26515
G1 X116.568 Y112.86 E8.9905
G1 X116.568 Y113.359 E9.01392
G1 X105.141 Y101.932 E9.77239
G1 X104.642 Y101.932 E9.79581
G1 X116.568 Y113.858 E10.5874
G1 X116.568 Y114.357 E10.61082
G1 X104.143 Y101.932 E11.43553
G1 X103.645 Y101.932 E11.4589
G1 X116.568 Y114.855 E12.31667
G1 X116.568 Y115.354 E12.34009
G1 X103.432 Y102.218 E13.21199
G1 X103.432 Y102.717 E13.23541
M73 P3 R9
G1 X116.568 Y115.853 E14.10731
G1 X116.568 Y116.352 E14.13073
G1 X103.432 Y103.216 E15.00263
G1 X103.432 Y103.715 E15.02605
G1 X116.568 Y116.851 E15.89795
G1 X116.568 Y117.35 E15.92137
G1 X103.432 Y104.214 E16.79327
G1 X103.432 Y104.713 E16.81669
G1 X116.568 Y117.849 E17.68859
G1 X116.568 Y118.348 E17.71201
M73 P3 R8
G1 X103.432 Y105.212 E18.58391
G1 X103.432 Y105.71 E18.60728
G1 X116.568 Y118.847 E19.47922
G1 X116.568 Y119.346 E19.50264
G1 X103.432 Y106.209 E20.37458
G1 X103.432 Y106.708 E20.398
G1 X116.568 Y119.845 E21.26994
G1 X116.568 Y120.343 E21.29331
M73 P4 R8
G1 X103.432 Y107.207 E22.16521
G1 X103.432 Y107.706 E22.18863
G1 X116.568 Y120.842 E23.06053
G1 X116.568 Y121.341 E23.08395
G1 X103.432 Y108.205 E23.95585
G1 X103.432 Y108.704 E23.97927
G1 X116.568 Y121.84 E24.85117
G1 X116.568 Y122.339 E24.87459
G1 X103.432 Y109.203 E25.74649
G1 X103.432 Y109.702 E25.76991
G1 X116.568 Y122.838 E26.64181
G1 X116.568 Y123.337 E26.66523
G1 X103.432 Y110.201 E27.53713
G1 X103.432 Y110.7 E27.56055
G1 X116.568 Y123.836 E28.43245
G1 X116.568 Y124.068 E28.44334
M73 P5 R8
G1 X116.302 Y124.068 E28.45582
G1 X103.432 Y111.198 E29.31007
G1 X103.432 Y111.697 E29.33349
G1 X115.803 Y124.068 E30.15462
G1 X115.304 Y124.068 E30.17804
G1 X103.432 Y112.196 E30.96605
G1 X103.432 Y112.695 E30.98947
G1 X114.805 Y124.068 E31.74435
G1 X114.306 Y124.068 E31.76777
G1 X103.432 Y113.194 E32.48953
G1 X103.432 Y113.693 E32.51295
G1 X113.807 Y124.068 E33.20159
G1 X113.308 Y124.068 E33.22501
G1 X103.432 Y114.192 E33.88053
G1 X103.432 Y114.691 E33.90395
G1 X112.809 Y124.068 E34.52635
G1 X112.31 Y124.068 E34.54977
G1 X103.432 Y115.19 E35.13905
G1 X103.432 Y115.689 E35.16247
G1 X111.811 Y124.068 E35.71863
G1 X111.312 Y124.068 E35.74205
G1 X103.432 Y116.188 E36.26509
G1 X103.432 Y116.686 E36.28846
G1 X110.814 Y124.068 E36.77844
M73 P6 R8
G1 X110.315 Y124.068 E36.80186
G1 X103.432 Y117.185 E37.25872
G1 X103.432 Y117.684 E37.28214
G1 X109.816 Y124.068 E37.70588
G1 X109.317 Y124.068 E37.7293
G1 X103.432 Y118.183 E38.11992
G1 X103.432 Y118.682 E38.14334
G1 X108.818 Y124.068 E38.50084
G1 X108.319 Y124.068 E38.52426
G1 X103.432 Y119.181 E38.84864
G1 X103.432 Y119.68 E38.87206
G1 X107.82 Y124.068 E39.16331
G1 X107.321 Y124.068 E39.18673
G1 X103.432 Y120.179 E39.44486
G1 X103.432 Y120.678 E39.46828
G1 X106.822 Y124.068 E39.69329
G1 X106.323 Y124.068 E39.71671
G1 X103.432 Y121.177 E39.9086
G1 X103.432 Y121.676 E39.93202
G1 X105.824 Y124.068 E40.09079
G1 X105.326 Y124.068 E40.11416
G1 X103.432 Y122.174 E40.23987
G1 X103.432 Y122.673 E40.26329
G1 X104.827 Y124.068 E40.35588
G1 X104.328 Y124.068 E40.3793
G1 X103.432 Y123.172 E40.43877
G1 X103.432 Y123.671 E40.46219
G1 X103.987 Y124.226 E40.49903
;WIPE_START
G1 F7200
G1 X103.432 Y123.671 E40.00193
G1 X103.432 Y123.172 E39.6859
G1 X104.328 Y124.068 E38.88338
G1 X104.827 Y124.068 E38.56735
G1 X104.751 Y123.992 E38.49903
;WIPE_END
G92 E0
G1 Z.52 F9000
G1 X116.839 Y124.339
G1 Z.32
G1 E2 F4800
;TYPE:Perimeter
;WIDTH:0.42
G1 F1800
G1 X103.161 Y124.339 E2.63932
G1 X103.161 Y101.661 E3.69931
G1 X107.134 Y101.661 E3.88501
G1 X107.393 Y101.594 E3.89751
G1 X107.588 Y101.403 E3.91027
G1 X107.661 Y101.134 E3.9233
G1 X107.661 Y98.866 E4.02931
G1 X107.582 Y98.588 E4.04282
G1 X107.459 Y98.451 E4.05143
G1 X107.134 Y98.339 E4.0675
G1 X105.161 Y98.339 E4.15972
G1 X105.161 Y98.274 E4.16276
G1 X107.774 Y95.661 E4.33548
G1 X112.226 Y95.661 E4.54357
G1 X114.825 Y98.261 E4.7154
G1 X114.839 Y98.339 E4.7191
G1 X112.866 Y98.339 E4.81132
G1 X112.541 Y98.451 E4.82739
G1 X112.418 Y98.588 E4.836
G1 X112.339 Y98.866 E4.84951
G1 X112.339 Y101.134 E4.95552
G1 X112.412 Y101.403 E4.96855
G1 X112.607 Y101.594 E4.98131
G1 X112.866 Y101.661 E4.99381
G1 X116.839 Y101.661 E5.17951
G1 X116.839 Y105.634 E5.36521
G1 X116.839 Y124.279 E6.23669
;WIPE_START
G1 F7200
M73 P7 R8
G1 X116.839 Y124.339 E6.19869
G1 X113.741 Y124.339 E4.23669
;WIPE_END
G92 E0
G1 Z.52 F9000
G1 X117.19 Y124.69
G1 Z.32
G1 E2 F4800
;TYPE:External perimeter
G1 F1800
G1 X102.81 Y124.69 E2.67213
G1 X102.81 Y101.31 E3.76493
G1 X107.134 Y101.31 E3.96704
G1 X107.248 Y101.269 E3.9727
G1 X107.31 Y101.134 E3.97964
G1 X107.31 Y98.866 E4.08565
G1 X107.284 Y98.773 E4.09016
G1 X107.134 Y98.69 E4.09817
G1 X104.81 Y98.69 E4.2068
G1 X104.81 Y98.128 E4.23307
G1 X107.628 Y95.31 E4.41934
G1 X112.372 Y95.31 E4.64108
G1 X115.19 Y98.128 E4.82735
G1 X115.19 Y98.69 E4.85362
G1 X112.866 Y98.69 E4.96225
G1 X112.757 Y98.727 E4.96763
G1 X112.69 Y98.866 E4.97484
G1 X112.69 Y101.134 E5.08085
G1 X112.734 Y101.251 E5.08669
G1 X112.866 Y101.31 E5.09345
G1 X117.19 Y101.31 E5.29556
G1 X117.19 Y105.634 E5.49767
G1 X117.19 Y124.63 E6.38556
EXCLUDE_OBJECT_END NAME=Erics_Rail_mount_1_stl
M106 S255
;LAYER_CHANGE
;Z:0.52
;HEIGHT:0.2
;BEFORE_LAYER_CHANGE
;0.52


;WIPE_START
G1 F7200
G1 X117.19 Y124.69 E6.34756
G1 X114.092 Y124.69 E4.38556
;WIPE_END
G92 E0
G1 Z.52 F9000
;AFTER_LAYER_CHANGE
;0.52
M104 S205 ; set temperature
EXCLUDE_OBJECT_START NAME=Erics_Rail_mount_1_stl
G1 Z.72
G1 X107.833 Y95.804
G1 Z.52
G1 E2 F4800
;TYPE:Solid infill
;WIDTH:0.38292
G1 F7200
G1 X105.609 Y98.027 E2.0889
G1 X105.547 Y98.152 E2.09284
;WIDTH:0.439999
G1 X105.96 Y98.097 E2.1066
G1 X108.155 Y95.903 E2.20907
G1 X108.716 Y95.903 E2.22759
G1 X106.522 Y98.097 E2.33004
G1 X107.075 Y98.106 E2.3483
G1 X109.278 Y95.903 E2.45117
G1 X109.839 Y95.903 E2.46969
G1 X107.496 Y98.246 E2.57909
G1 X107.777 Y98.527 E2.59221
G1 X110.401 Y95.903 E2.71473
G1 X110.963 Y95.903 E2.73329
G1 X107.902 Y98.964 E2.87622
G1 X107.902 Y99.525 E2.89474
G1 X111.524 Y95.903 E3.06386
G1 X112.086 Y95.903 E3.08242
G1 X107.901 Y100.087 E3.27781
G1 X107.9 Y100.65 E3.2964
G1 X112.387 Y96.163 E3.50591
G1 X112.667 Y96.444 E3.51901
G1 X107.861 Y101.251 E3.74344
G1 X107.758 Y101.391 E3.74918
;WIDTH:0.41146
G1 X107.655 Y101.532 E3.75453
;WIDTH:0.38292
G1 X107.524 Y101.669 E3.75989
;WIPE_START
G1 X107.655 Y101.532 E3.63984
;WIPE_END
G1 E1.75989 F4800
G92 E0
G1 Z.72 F9000
G1 X103.839 Y101.903
G1 Z.52
G1 E2 F4800
;WIDTH:0.439999
G1 F7200
G1 X103.403 Y102.339 E2.02036
G1 X103.403 Y102.901 E2.03892
G1 X104.401 Y101.903 E2.08552
G1 X104.963 Y101.903 E2.10408
G1 X103.403 Y103.463 E2.17692
G1 X103.403 Y104.024 E2.19544
G1 X105.524 Y101.903 E2.29448
G1 X106.086 Y101.903 E2.31304
G1 X103.403 Y104.586 E2.43832
G1 X103.403 Y105.147 E2.45684
G1 X106.647 Y101.903 E2.60831
G1 X107.243 Y101.869 E2.62802
G1 X103.403 Y105.709 E2.80732
G1 X103.36 Y105.864 E2.81263
;WIDTH:0.41146
G1 X103.317 Y106.02 E2.81759
;WIDTH:0.38292
G1 X103.276 Y106.031 E2.81879
G1 X103.256 Y105.959 E2.8209
G1 X103.328 Y105.979 E2.82301
;WIDTH:0.439999
G1 X103.263 Y106.453 E2.83881
;WIDTH:0.38292
G1 X103.222 Y106.464 E2.84001
G1 X103.203 Y106.393 E2.84209
G1 X103.274 Y106.412 E2.84417
;WIDTH:0.41146
G1 X103.339 Y106.341 E2.84712
;WIDTH:0.439999
G1 X112.948 Y96.725 E3.29596
G1 X113.229 Y97.006 E3.30908
G1 X103.403 Y106.832 E3.76789
G1 X103.36 Y106.987 E3.7732
;WIDTH:0.41146
G1 X103.317 Y107.143 E3.77816
;WIDTH:0.38292
G1 X103.276 Y107.154 E3.77936
G1 X103.256 Y107.083 E3.78145
G1 X103.328 Y107.102 E3.78356
;WIPE_START
G1 X103.256 Y107.083 E3.7364
G1 X103.276 Y107.154 E3.68968
G1 X103.317 Y107.143 E3.6628
;WIPE_END
G1 E1.78356 F4800
G92 E0
G1 Z.72 F9000
G1 X112.426 Y98.419
G1 Z.52
G1 E2 F4800
G1 F7200
G1 X112.337 Y98.33 E2.00356
;WIDTH:0.41146
G1 X112.477 Y98.254 E2.00844
;WIDTH:0.439999
G1 X112.618 Y98.179 E2.01371
G1 X113.51 Y97.287 E2.05536
G1 X113.79 Y97.567 E2.06843
G1 X113.261 Y98.097 E2.09315
;WIPE_START
G1 X113.79 Y97.567 E1.61889
G1 X113.51 Y97.287 E1.3681
G1 X112.618 Y98.179 E.56916
G1 X112.477 Y98.254 E.46801
;WIPE_END
G1 E.09315 F4800
G92 E0
G1 Z.72 F9000
G1 X114.125 Y98.047
G1 Z.52
G1 E2 F4800
;WIDTH:0.646364
G1 F7200
G1 X114.052 Y98.067 E2.0038
G1 X113.998 Y98.014 E2.0076
G1 X114.018 Y97.941 E2.0114
G1 X114.091 Y97.921 E2.0152
G1 X114.144 Y97.974 E2.01896
;WIPE_START
G1 X114.091 Y97.921 E1.97149
G1 X114.018 Y97.941 E1.92355
G1 X113.998 Y98.014 E1.87561
G1 X114.052 Y98.067 E1.82769
G1 X114.125 Y98.047 E1.77975
;WIPE_END
G1 E.01896 F4800
G92 E0
G1 Z.72 F9000
G1 X112.186 Y98.61
G1 Z.52
G1 E2 F4800
;WIDTH:0.439999
G1 F7200
G1 X103.403 Y107.393 E2.41011
G1 X103.403 Y107.955 E2.42867
G1 X112.098 Y99.26 E2.83467
G1 X112.098 Y99.821 E2.85319
G1 X103.403 Y108.517 E3.25921
G1 X103.403 Y109.078 E3.27773
M73 P8 R8
G1 X112.099 Y100.382 E3.68378
G1 X112.1 Y100.943 E3.7023
G1 X103.403 Y109.64 E4.10839
G1 X103.403 Y110.201 E4.12691
G1 X112.191 Y101.413 E4.53725
G1 X112.448 Y101.718 E4.55042
G1 X103.403 Y110.763 E4.97276
G1 X103.403 Y111.324 E4.99128
G1 X112.835 Y101.892 E5.43169
G1 X113.568 Y101.722 E5.45653
;WIDTH:0.38292
G1 X113.496 Y101.703 E5.45864
G1 X113.515 Y101.774 E5.46072
G1 X113.557 Y101.763 E5.46195
;WIDTH:0.41146
G1 X113.471 Y101.833 E5.46535
;WIDTH:0.439999
G1 X103.403 Y111.886 E5.93511
G1 X103.403 Y112.447 E5.95363
G1 X113.947 Y101.903 E6.44597
G1 X114.509 Y101.903 E6.46453
G1 X103.403 Y113.009 E6.98311
G1 X103.403 Y113.57 E7.00163
G1 X115.07 Y101.903 E7.5464
G1 X115.632 Y101.903 E7.56496
G1 X103.403 Y114.132 E8.13597
G1 X103.403 Y114.694 E8.15453
G1 X116.194 Y101.903 E8.75179
G1 X116.74 Y101.79 E8.7702
;WIDTH:0.38292
G1 X116.669 Y101.771 E8.77228
G1 X116.688 Y101.842 E8.77436
G1 X116.729 Y101.831 E8.77556
;WIDTH:0.41146
G1 X116.663 Y101.946 E8.77962
;WIDTH:0.439999
G1 X116.597 Y102.061 E8.784
G1 X103.403 Y115.255 E9.40007
G1 X103.403 Y115.817 E9.41863
G1 X116.597 Y102.622 E10.03473
G1 X116.597 Y103.184 E10.05329
G1 X103.403 Y116.378 E10.66936
G1 X103.403 Y116.94 E10.68792
G1 X116.597 Y103.745 E11.30402
G1 X116.597 Y104.307 E11.32258
G1 X103.403 Y117.501 E11.93865
G1 X103.403 Y118.063 E11.95721
G1 X116.597 Y104.869 E12.57328
G1 X116.597 Y105.43 E12.5918
G1 X103.403 Y118.624 E13.20787
G1 X103.403 Y119.186 E13.22643
G1 X116.597 Y105.992 E13.8425
G1 X116.597 Y106.553 E13.86102
G1 X103.403 Y119.748 E14.47712
G1 X103.403 Y120.309 E14.49564
G1 X116.597 Y107.115 E15.11171
G1 X116.597 Y107.676 E15.13023
G1 X103.403 Y120.871 E15.74633
G1 X103.403 Y121.432 E15.76485
G1 X116.597 Y108.238 E16.38092
G1 X116.597 Y108.799 E16.39944
G1 X103.403 Y121.994 E17.01554
G1 X103.403 Y122.555 E17.03406
G1 X116.597 Y109.361 E17.65013
G1 X116.597 Y109.923 E17.66869
G1 X103.403 Y123.117 E18.28476
G1 X103.403 Y123.678 E18.30328
G1 X116.597 Y110.484 E18.91935
