; generated by PrusaSlicer 2.7.0+win64 on 2023-12-07 at 19:56:32 UTC
;FLAVOR:Marlin
;TIME:1882
;Filament used: 2.994290
;Layer height: 0.20
;MINX:0.000
;MINY:0.000
;MINZ:0.000
;MAXX:0.000
;MAXY:0.000
;MAXZ:0.000
;POSTPROCESSED
;Header generated for The Ender3v2 Professional Firmware
;https://github.com/mriscoc/Marlin_Ender3v2



;
;

;
;
; 

; external perimeters extrusion width = 0.42mm
; perimeters extrusion width = 0.44mm
; infill extrusion width = 0.44mm
; solid infill extrusion width = 0.44mm
; top infill extrusion width = 0.40mm
; first layer extrusion width = 0.42mm

M73 P0 R31

EXCLUDE_OBJECT_DEFINE NAME=Juntar CENTER=104.940,111.828 POLYGON=[[121.440,156.828],[88.440,156.828],[88.440,66.828],[121.440,66.828]]

M190 S60 ; set bed temperature and wait for it to be reached
M104 S202 ; set temperature
;TYPE:Custom
START_PRINT
M109 S202 ; set temperature and wait for it to be reached
G21 ; set units to millimeters
G90 ; use absolute coordinates
M82 ; use absolute distances for extrusion
G92 E0
; Filament gcode
M107
;LAYER_CHANGE
;Z:0.32
;HEIGHT:0.32
;BEFORE_LAYER_CHANGE
;0.32


G1 E-1 F3600
G92 E0
G1 Z.32 F9000
;AFTER_LAYER_CHANGE
;0.32
G1 X85.531 Y65.252
G1 E1 F3600
;TYPE:Skirt/Brim
;WIDTH:0.42
G1 F1800
G1 X86.62 Y64.046 E1.07595
G1 X88.488 Y63.477 E1.16722
G1 X121.392 Y63.477 E2.70518
G1 X122.969 Y63.871 E2.78116
G1 X124.175 Y64.96 E2.85711
G1 X124.743 Y66.828 E2.94837
G1 X124.743 Y156.828 E7.15504
G1 X124.349 Y158.405 E7.23102
G1 X123.26 Y159.611 E7.30697
G1 X121.392 Y160.18 E7.39824
G1 X88.488 Y160.18 E8.9362
G1 X86.912 Y159.786 E9.01213
G1 X85.706 Y158.696 E9.08811
G1 X85.137 Y156.828 E9.17938
G1 X85.137 Y66.828 E13.38605
G1 X85.516 Y65.31 E13.45918
EXCLUDE_OBJECT_START NAME=Juntar
;WIPE_START
G1 F7200
G1 X85.531 Y65.252 E13.43072
G1 X86.62 Y64.046 E12.65888
G1 X87.022 Y63.923 E12.45918
;WIPE_END
G92 E0
G1 Z.52 F9000
G1 X119.907 Y67.602
G1 Z.32
G1 E1 F3600
;TYPE:Solid infill
;WIDTH:0.420405
G1 F1800
G1 X120.46 Y68.155 E1.0366
G1 X120.46 Y68.652 E1.05986
G1 X119.568 Y67.76 E1.11889
G1 X119.071 Y67.76 E1.14215
G1 X120.46 Y69.15 E1.2341
G1 X120.46 Y69.647 E1.25736
G1 X118.573 Y67.76 E1.38224
G1 X118.076 Y67.76 E1.4055
G1 X120.46 Y70.145 E1.5633
G1 X120.46 Y70.642 E1.58656
G1 X117.578 Y67.76 E1.77728
G1 X117.081 Y67.76 E1.80054
G1 X120.46 Y71.14 E2.02419
G1 X120.46 Y71.637 E2.04745
G1 X116.583 Y67.76 E2.30402
G1 X116.086 Y67.76 E2.32728
G1 X120.46 Y72.134 E2.61674
G1 X120.46 Y72.632 E2.64004
G1 X115.589 Y67.76 E2.96242
G1 X115.091 Y67.76 E2.98572
G1 X120.46 Y73.129 E3.34103
G1 X120.46 Y73.627 E3.36433
G1 X114.594 Y67.76 E3.75256
G1 X114.096 Y67.76 E3.77586
G1 X120.46 Y74.124 E4.19701
G1 X120.46 Y74.622 E4.22031
G1 X113.599 Y67.76 E4.67439
G1 X113.101 Y67.76 E4.69769
G1 X120.46 Y75.119 E5.18469
G1 X120.46 Y75.616 E5.20795
G1 X112.604 Y67.76 E5.72784
G1 X112.107 Y67.76 E5.7511
G1 X120.46 Y76.114 E6.30391
G1 X120.46 Y76.611 E6.32717
G1 X111.609 Y67.76 E6.91291
G1 X111.112 Y67.76 E6.93617
G1 X120.46 Y77.109 E7.55483
G1 X120.46 Y77.606 E7.57809
G1 X110.614 Y67.76 E8.22967
G1 X110.117 Y67.76 E8.25293
G1 X120.46 Y78.104 E8.93744
G1 X120.46 Y78.601 E8.9607
G1 X109.62 Y67.76 E9.6781
G1 X109.122 Y67.76 E9.7014
G1 X120.46 Y79.098 E10.45172
G1 X120.46 Y79.596 E10.47502
G1 X108.625 Y67.76 E11.25826
G1 X108.127 Y67.76 E11.28156
G1 X120.46 Y80.093 E12.09773
G1 X120.46 Y80.591 E12.12103
G1 X107.63 Y67.76 E12.97012
G1 X107.132 Y67.76 E12.99342
G1 X120.46 Y81.088 E13.87543
G1 X120.46 Y81.586 E13.89873
M73 P1 R31
G1 X106.635 Y67.76 E14.81367
G1 X106.138 Y67.76 E14.83693
G1 X120.46 Y82.083 E15.78476
G1 X120.46 Y82.58 E15.80802
G1 X105.64 Y67.76 E16.78877
G1 X105.143 Y67.76 E16.81203
G1 X120.46 Y83.078 E17.8257
G1 X120.46 Y83.575 E17.84896
G1 X104.645 Y67.76 E18.89556
G1 X104.148 Y67.76 E18.91882
G1 X120.46 Y84.073 E19.99834
G1 X120.46 Y84.57 E20.0216
M73 P1 R30
G1 X103.65 Y67.76 E21.13405
G1 X103.153 Y67.76 E21.15731
G1 X120.46 Y85.067 E22.30265
G1 X120.46 Y85.565 E22.32595
G1 X102.656 Y67.76 E23.50421
G1 X102.158 Y67.76 E23.52751
G1 X120.46 Y86.062 E24.73869
G1 X120.46 Y86.56 E24.76199
G1 X101.661 Y67.76 E26.0061
G1 X101.163 Y67.76 E26.0294
G1 X120.46 Y87.057 E27.30643
G1 X120.46 Y87.555 E27.32973
G1 X100.666 Y67.76 E28.63968
G1 X100.168 Y67.76 E28.66298
G1 X120.46 Y88.052 E30.00586
G1 X120.46 Y88.549 E30.02912
G1 X99.671 Y67.76 E31.40489
G1 X99.174 Y67.76 E31.42815
G1 X120.46 Y89.047 E32.83684
G1 X120.46 Y89.544 E32.8601
G1 X98.676 Y67.76 E34.30171
G1 X98.179 Y67.76 E34.32497
G1 X120.46 Y90.042 E35.79951
G1 X120.46 Y90.539 E35.82277
G1 X97.681 Y67.76 E37.33023
G1 X97.184 Y67.76 E37.35349
G1 X120.46 Y91.037 E38.89387
G1 X120.46 Y91.534 E38.91713
G1 X96.686 Y67.76 E40.49044
G1 X96.189 Y67.76 E40.5137
M73 P2 R30
G1 X120.46 Y92.031 E42.1199
G1 X120.46 Y92.529 E42.1432
G1 X95.692 Y67.76 E43.78232
G1 X95.194 Y67.76 E43.80562
G1 X120.46 Y93.026 E45.47766
G1 X120.46 Y93.524 E45.50096
G1 X94.697 Y67.76 E47.20593
G1 X94.199 Y67.76 E47.22923
G1 X120.46 Y94.021 E48.96712
G1 X120.46 Y94.519 E48.99042
G1 X93.702 Y67.76 E50.76123
G1 X93.205 Y67.76 E50.78449
G1 X120.46 Y95.016 E52.58819
G1 X120.46 Y95.513 E52.61145
G1 X92.707 Y67.76 E54.44808
G1 X92.21 Y67.76 E54.47134
G1 X120.46 Y96.011 E56.34089
G1 X120.46 Y96.508 E56.36415
G1 X91.712 Y67.76 E58.26662
G1 X91.215 Y67.76 E58.28988
G1 X120.46 Y97.006 E60.22528
G1 X120.46 Y97.503 E60.24854
G1 X90.717 Y67.76 E62.21686
G1 X90.22 Y67.76 E62.24012
G1 X120.46 Y98.001 E64.24136
G1 X120.46 Y98.498 E64.26462
G1 X89.723 Y67.76 E66.29875
G1 X89.42 Y67.76 E66.31293
G1 X89.42 Y67.955 E66.32205
G1 X120.46 Y98.995 E68.3762
G1 X120.46 Y99.493 E68.3995
M73 P3 R30
G1 X89.42 Y68.452 E70.45368
G1 X89.42 Y68.95 E70.47698
G1 X120.46 Y99.99 E72.53113
G1 X120.46 Y100.488 E72.55443
G1 X89.42 Y69.447 E74.60861
G1 X89.42 Y69.945 E74.63191
G1 X120.46 Y100.985 E76.68606
G1 X120.46 Y101.482 E76.70932
G1 X89.42 Y70.442 E78.76347
G1 X89.42 Y70.94 E78.78677
G1 X120.46 Y101.98 E80.84092
G1 X120.46 Y102.477 E80.86418
G1 X89.42 Y71.437 E82.91833
G1 X89.42 Y71.934 E82.94159
G1 X120.46 Y102.975 E84.99577
G1 X120.46 Y103.472 E85.01903
G1 X89.42 Y72.432 E87.07318
G1 X89.42 Y72.929 E87.09644
G1 X120.46 Y103.97 E89.15062
G1 X120.46 Y104.467 E89.17388
G1 X89.42 Y73.427 E91.22803
G1 X89.42 Y73.924 E91.25129
G1 X120.46 Y104.964 E93.30544
G1 X120.46 Y105.462 E93.32874
M73 P4 R30
G1 X89.42 Y74.422 E95.38289
G1 X89.42 Y74.919 E95.40615
G1 X120.46 Y105.959 E97.4603
G1 X120.46 Y106.457 E97.4836
G1 X89.42 Y75.416 E99.53778
G1 X89.42 Y75.914 E99.56108
G1 X120.46 Y106.954 E101.61523
G1 X120.46 Y107.452 E101.63853
G1 X89.42 Y76.411 E103.69271
G1 X89.42 Y76.909 E103.71601
M73 P4 R29
G1 X120.46 Y107.949 E105.77016
G1 X120.46 Y108.446 E105.79342
G1 X89.42 Y77.406 E107.84757
G1 X89.42 Y77.904 E107.87087
G1 X120.46 Y108.944 E109.92502
G1 X120.46 Y109.441 E109.94828
G1 X89.42 Y78.401 E112.00243
G1 X89.42 Y78.898 E112.02569
G1 X120.46 Y109.939 E114.07987
G1 X120.46 Y110.436 E114.10313
G1 X89.42 Y79.396 E116.15728
G1 X89.42 Y79.893 E116.18054
G1 X120.46 Y110.934 E118.23472
G1 X120.46 Y111.431 E118.25798
G1 X89.42 Y80.391 E120.31213
G1 X89.42 Y80.888 E120.33539
M73 P5 R29
G1 X120.46 Y111.928 E122.38954
G1 X120.46 Y112.426 E122.41284
G1 X89.42 Y81.386 E124.46699
G1 X89.42 Y81.883 E124.49025
G1 X120.46 Y112.923 E126.5444
G1 X120.46 Y113.421 E126.5677
G1 X89.42 Y82.38 E128.62188
G1 X89.42 Y82.878 E128.64518
G1 X120.46 Y113.918 E130.69933
G1 X120.46 Y114.416 E130.72263
G1 X89.42 Y83.375 E132.77681
G1 X89.42 Y83.873 E132.80011
G1 X120.46 Y114.913 E134.85426
G1 X120.46 Y115.41 E134.87752
G1 X89.42 Y84.37 E136.93167
G1 X89.42 Y84.867 E136.95493
G1 X120.46 Y115.908 E139.00911
G1 X120.46 Y116.405 E139.03237
G1 X89.42 Y85.365 E141.08652
G1 X89.42 Y85.862 E141.10978
G1 X120.46 Y116.903 E143.16396
G1 X120.46 Y117.4 E143.18722
G1 X89.42 Y86.36 E145.24137
G1 X89.42 Y86.857 E145.26463
G1 X120.46 Y117.897 E147.31878
G1 X120.46 Y118.395 E147.34208
M73 P6 R29
G1 X89.42 Y87.355 E149.39623
G1 X89.42 Y87.852 E149.41949
G1 X120.46 Y118.892 E151.47364
G1 X120.46 Y119.39 E151.49694
G1 X89.42 Y88.349 E153.55112
G1 X89.42 Y88.847 E153.57442
G1 X120.46 Y119.887 E155.62857
G1 X120.46 Y120.385 E155.65187
G1 X89.42 Y89.344 E157.70605
G1 X89.42 Y89.842 E157.72935
G1 X120.46 Y120.882 E159.7835
G1 X120.46 Y121.379 E159.80676
G1 X89.42 Y90.339 E161.86091
G1 X89.42 Y90.837 E161.88421
G1 X120.46 Y121.877 E163.93836
G1 X120.46 Y122.374 E163.96162
G1 X89.42 Y91.334 E166.01577
G1 X89.42 Y91.831 E166.03903
G1 X120.46 Y122.872 E168.09321
G1 X120.46 Y123.369 E168.11647
G1 X89.42 Y92.329 E170.17062
G1 X89.42 Y92.826 E170.19388
G1 X120.46 Y123.867 E172.24806
G1 X120.46 Y124.364 E172.27132
M73 P7 R29
G1 X89.42 Y93.324 E174.32547
G1 X89.42 Y93.821 E174.34873
G1 X120.46 Y124.861 E176.40288
G1 X120.46 Y125.359 E176.42618
G1 X89.42 Y94.319 E178.48033
G1 X89.42 Y94.816 E178.50359
G1 X120.46 Y125.856 E180.55774
G1 X120.46 Y126.354 E180.58104
G1 X89.42 Y95.313 E182.63522
G1 X89.42 Y95.811 E182.65852
G1 X120.46 Y126.851 E184.71267
G1 X120.46 Y127.349 E184.73597
G1 X89.42 Y96.308 E186.79015
G1 X89.42 Y96.806 E186.81345
G1 X120.46 Y127.846 E188.8676
G1 X120.46 Y128.343 E188.89086
M73 P7 R28
G1 X89.42 Y97.303 E190.94501
G1 X89.42 Y97.801 E190.96831
G1 X120.46 Y128.841 E193.02246
G1 X120.46 Y129.338 E193.04572
G1 X89.42 Y98.298 E195.09987
G1 X89.42 Y98.795 E195.12313
G1 X120.46 Y129.836 E197.17731
G1 X120.46 Y130.333 E197.20057
G1 X89.42 Y99.293 E199.25472
G1 X89.42 Y99.79 E199.27798
M73 P8 R28
G1 X120.46 Y130.831 E201.33216
G1 X120.46 Y131.328 E201.35542
G1 X89.42 Y100.288 E203.40957
G1 X89.42 Y100.785 E203.43283
G1 X120.46 Y131.825 E205.48698
G1 X120.46 Y132.323 E205.51028
G1 X89.42 Y101.282 E207.56446
G1 X89.42 Y101.78 E207.58776
G1 X120.46 Y132.82 E209.64191
G1 X120.46 Y133.318 E209.66521
G1 X89.42 Y102.277 E211.71939
G1 X89.42 Y102.775 E211.74269
G1 X120.46 Y133.815 E213.79684
G1 X120.46 Y134.312 E213.8201
G1 X89.42 Y103.272 E215.87425
G1 X89.42 Y103.77 E215.89755
G1 X120.46 Y134.81 E217.9517
G1 X120.46 Y135.307 E217.97496
G1 X89.42 Y104.267 E220.02911
G1 X89.42 Y104.764 E220.05237
G1 X120.46 Y135.805 E222.10655
G1 X120.46 Y136.302 E222.12981
G1 X89.42 Y105.262 E224.18396
G1 X89.42 Y105.759 E224.20722
G1 X120.46 Y136.8 E226.2614
G1 X120.46 Y137.297 E226.28466
M73 P9 R28
G1 X89.42 Y106.257 E228.33881
G1 X89.42 Y106.754 E228.36207
G1 X120.46 Y137.794 E230.41622
G1 X120.46 Y138.292 E230.43952
G1 X89.42 Y107.252 E232.49367
G1 X89.42 Y107.749 E232.51693
G1 X120.46 Y138.789 E234.57108
G1 X120.46 Y139.287 E234.59438
G1 X89.42 Y108.246 E236.64856
G1 X89.42 Y108.744 E236.67186
G1 X120.46 Y139.784 E238.72601
G1 X120.46 Y140.282 E238.74931
G1 X89.42 Y109.241 E240.80349
G1 X89.42 Y109.739 E240.82679
G1 X120.46 Y140.779 E242.88094
G1 X120.46 Y141.276 E242.9042
G1 X89.42 Y110.236 E244.95835
G1 X89.42 Y110.734 E244.98165
G1 X120.46 Y141.774 E247.0358
G1 X120.46 Y142.271 E247.05906
G1 X89.42 Y111.231 E249.11321
G1 X89.42 Y111.728 E249.13647
G1 X120.46 Y142.769 E251.19065
G1 X120.46 Y143.266 E251.21391
G1 X89.42 Y112.226 E253.26806
G1 X89.42 Y112.723 E253.29132
M73 P10 R28
G1 X120.46 Y143.764 E255.3455
G1 X120.46 Y144.261 E255.36876
G1 X89.42 Y113.221 E257.42291
G1 X89.42 Y113.718 E257.44617
G1 X120.46 Y144.758 E259.50032
G1 X120.46 Y145.256 E259.52362
G1 X89.42 Y114.215 E261.5778
G1 X89.42 Y114.713 E261.6011
G1 X120.46 Y145.753 E263.65525
G1 X120.46 Y146.251 E263.67855
G1 X89.42 Y115.21 E265.73273
G1 X89.42 Y115.708 E265.75603
G1 X120.46 Y146.748 E267.81018
G1 X120.46 Y147.246 E267.83348
G1 X89.42 Y116.205 E269.88766
G1 X89.42 Y116.703 E269.91096
G1 X120.46 Y147.743 E271.96511
G1 X120.46 Y148.24 E271.98837
M73 P10 R27
G1 X89.42 Y117.2 E274.04252
G1 X89.42 Y117.697 E274.06578
G1 X120.46 Y148.738 E276.11996
G1 X120.46 Y149.235 E276.14322
G1 X89.42 Y118.195 E278.19737
G1 X89.42 Y118.692 E278.22063
M73 P11 R27
G1 X120.46 Y149.733 E280.27481
G1 X120.46 Y150.23 E280.29807
G1 X89.42 Y119.19 E282.35222
G1 X89.42 Y119.687 E282.37548
G1 X120.46 Y150.727 E284.42963
G1 X120.46 Y151.225 E284.45293
G1 X89.42 Y120.185 E286.50708
G1 X89.42 Y120.682 E286.53034
G1 X120.46 Y151.722 E288.58449
G1 X120.46 Y152.22 E288.60779
G1 X89.42 Y121.179 E290.66197
G1 X89.42 Y121.677 E290.68527
G1 X120.46 Y152.717 E292.73942
G1 X120.46 Y153.215 E292.76272
G1 X89.42 Y122.174 E294.8169
G1 X89.42 Y122.672 E294.8402
G1 X120.46 Y153.712 E296.89435
G1 X120.46 Y154.209 E296.91761
G1 X89.42 Y123.169 E298.97176
G1 X89.42 Y123.667 E298.99506
G1 X120.46 Y154.707 E301.04921
G1 X120.46 Y155.204 E301.07247
G1 X89.42 Y124.164 E303.12662
G1 X89.42 Y124.661 E303.14988
G1 X120.46 Y155.702 E305.20406
G1 X120.46 Y155.896 E305.21314
M73 P12 R27
G1 X120.158 Y155.896 E305.22727
G1 X89.42 Y125.159 E307.2614
G1 X89.42 Y125.656 E307.28466
G1 X119.66 Y155.896 E309.28587
G1 X119.163 Y155.896 E309.30913
G1 X89.42 Y126.154 E311.27742
G1 X89.42 Y126.651 E311.30068
G1 X118.665 Y155.896 E313.23604
G1 X118.168 Y155.896 E313.2593
G1 X89.42 Y127.149 E315.16174
G1 X89.42 Y127.646 E315.185
G1 X117.671 Y155.896 E317.05455
G1 X117.173 Y155.896 E317.07785
G1 X89.42 Y128.143 E318.91448
G1 X89.42 Y128.641 E318.93778
G1 X116.676 Y155.896 E320.74148
G1 X116.178 Y155.896 E320.76478
G1 X89.42 Y129.138 E322.53556
G1 X89.42 Y129.636 E322.55886
G1 X115.681 Y155.896 E324.29672
G1 X115.183 Y155.896 E324.32002
G1 X89.42 Y130.133 E326.02495
G1 X89.42 Y130.63 E326.04821
G1 X114.686 Y155.896 E327.72025
G1 X114.189 Y155.896 E327.74351
G1 X89.42 Y131.128 E329.38263
G1 X89.42 Y131.625 E329.40589
G1 X113.691 Y155.896 E331.01209
G1 X113.194 Y155.896 E331.03535
M73 P13 R27
G1 X89.42 Y132.123 E332.60862
G1 X89.42 Y132.62 E332.63188
G1 X112.696 Y155.896 E334.17223
G1 X112.199 Y155.896 E334.19549
G1 X89.42 Y133.118 E335.70292
G1 X89.42 Y133.615 E335.72618
G1 X111.701 Y155.896 E337.20068
G1 X111.204 Y155.896 E337.22394
G1 X89.42 Y134.112 E338.66555
G1 X89.42 Y134.61 E338.68885
G1 X110.707 Y155.896 E340.09754
G1 X110.209 Y155.896 E340.12084
G1 X89.42 Y135.107 E341.49661
G1 X89.42 Y135.605 E341.51991
G1 X109.712 Y155.896 E342.86275
G1 X109.214 Y155.896 E342.88605
G1 X89.42 Y136.102 E344.19597
G1 X89.42 Y136.6 E344.21927
G1 X108.717 Y155.896 E345.49627
G1 X108.219 Y155.896 E345.51957
G1 X89.42 Y137.097 E346.76364
G1 X89.42 Y137.594 E346.7869
G1 X107.722 Y155.896 E347.99808
G1 X107.225 Y155.896 E348.02134
G1 X89.42 Y138.092 E349.1996
G1 X89.42 Y138.589 E349.22286
G1 X106.727 Y155.896 E350.3682
G1 X106.23 Y155.896 E350.39146
G1 X89.42 Y139.087 E351.50387
G1 X89.42 Y139.584 E351.52713
G1 X105.732 Y155.896 E352.60662
G1 X105.235 Y155.896 E352.62988
G1 X89.42 Y140.082 E353.67645
G1 X89.42 Y140.579 E353.69971
G1 X104.738 Y155.896 E354.71338
G1 X104.24 Y155.896 E354.73668
G1 X89.42 Y141.076 E355.71743
G1 X89.42 Y141.574 E355.74073
G1 X103.743 Y155.896 E356.68856
G1 X103.245 Y155.896 E356.71186
M73 P13 R26
G1 X89.42 Y142.071 E357.62676
G1 X89.42 Y142.569 E357.65006
M73 P14 R26
G1 X102.748 Y155.896 E358.53204
G1 X102.25 Y155.896 E358.55534
G1 X89.42 Y143.066 E359.4044
G1 X89.42 Y143.564 E359.4277
G1 X101.753 Y155.896 E360.24383
G1 X101.256 Y155.896 E360.26709
G1 X89.42 Y144.061 E361.05033
G1 X89.42 Y144.558 E361.07359
G1 X100.758 Y155.896 E361.82391
G1 X100.261 Y155.896 E361.84717
G1 X89.42 Y145.056 E362.56457
G1 X89.42 Y145.553 E362.58783
G1 X99.763 Y155.896 E363.2723
G1 X99.266 Y155.896 E363.29556
G1 X89.42 Y146.051 E363.94711
G1 X89.42 Y146.548 E363.97037
G1 X98.768 Y155.896 E364.589
G1 X98.271 Y155.896 E364.61226
G1 X89.42 Y147.045 E365.198
G1 X89.42 Y147.543 E365.2213
G1 X97.774 Y155.896 E365.77411
G1 X97.276 Y155.896 E365.79741
