; generated by PrusaSlicer 2.7.0+win64 on 2023-11-24 at 19:38:26 UTC
;FLAVOR:Marlin
;TIME:2541
;Filament used: 4.713520
;Layer height: 0.20
;MINX:0.000
;MINY:0.000
;MINZ:0.000
;MAXX:0.000
;MAXY:0.000
;MAXZ:0.000
;POSTPROCESSED
;Header generated for The Ender3v2 Professional Firmware
;https://github.com/mriscoc/Marlin_Ender3v2



;
;

;
;
; 

; external perimeters extrusion width = 0.42mm
; perimeters extrusion width = 0.44mm
; infill extrusion width = 0.44mm
; solid infill extrusion width = 0.44mm
; top infill extrusion width = 0.40mm
; first layer extrusion width = 0.42mm

M73 P0 R42

; printing object PS3_Eye_Camera_Ender2.stl id:0 copy 0
; stop printing object PS3_Eye_Camera_Ender2.stl id:0 copy 0

M190 S60 ; set bed temperature and wait for it to be reached
M104 S205 ; set temperature
;TYPE:Custom
START_PRINT
M109 S205 ; set temperature and wait for it to be reached
G21 ; set units to millimeters
G90 ; use absolute coordinates
M82 ; use absolute distances for extrusion
G92 E0
; Filament gcode
M107
;LAYER_CHANGE
;Z:0.32
;HEIGHT:0.32
;BEFORE_LAYER_CHANGE
;0.32


G1 E-2 F4800
G92 E0
G1 Z.32 F9000
;AFTER_LAYER_CHANGE
;0.32
G1 X100.876 Y73.777
G1 E2 F4800
;TYPE:Skirt/Brim
;WIDTH:0.42
G1 F1800
G1 X102.024 Y72.627 E2.07595
G1 X103.75 Y72.149 E2.15966
G1 X113.75 Y72.149 E2.62707
G1 X115.327 Y72.543 E2.70305
G1 X116.209 Y73.223 E2.75511
G1 X141.209 Y100.223 E4.47502
G1 X141.991 Y101.648 E4.551
G1 X142.101 Y102.5 E4.59115
G1 X142.101 Y144.5 E6.55426
G1 X141.707 Y146.077 E6.63024
G1 X140.618 Y147.283 E6.70619
G1 X138.75 Y147.851 E6.79745
G1 X96.75 Y147.851 E8.76056
G1 X95.173 Y147.457 E8.83654
G1 X93.967 Y146.368 E8.91249
G1 X93.399 Y144.5 E9.00375
G1 X93.399 Y102.5 E10.96686
G1 X94.835 Y84.531 E11.80942
G1 X95.301 Y83.077 E11.88079
G1 X100.845 Y73.828 E12.38481
; printing object PS3_Eye_Camera_Ender2.stl id:0 copy 0
;WIPE_START
G1 F7200
G1 X100.876 Y73.777 E12.34701
G1 X102.024 Y72.627 E11.31789
G1 X103.444 Y72.234 E10.38481
;WIPE_END
G92 E0
G1 Z.52 F9000
G1 X112.976 Y76.984
G1 Z.32
G1 E2 F4800
;TYPE:Solid infill
;WIDTH:0.420004
G1 F1800
G1 X112.424 Y76.432 E2.03649
G1 X111.927 Y76.432 E2.05972
G1 X112.818 Y77.323 E2.11862
G1 X112.818 Y77.82 E2.14185
G1 X111.43 Y76.432 E2.2336
G1 X110.934 Y76.432 E2.25678
G1 X112.818 Y78.316 E2.38132
G1 X112.818 Y78.813 E2.40455
G1 X110.437 Y76.432 E2.56194
G1 X109.94 Y76.432 E2.58517
G1 X112.818 Y79.31 E2.77541
G1 X112.818 Y79.807 E2.79864
G1 X109.443 Y76.432 E3.02173
G1 X108.946 Y76.432 E3.04496
G1 X112.818 Y80.304 E3.30091
G1 X112.818 Y80.801 E3.32414
G1 X108.449 Y76.432 E3.61294
G1 X107.952 Y76.432 E3.63617
G1 X112.818 Y81.298 E3.95782
G1 X112.818 Y81.794 E3.981
G1 X107.456 Y76.432 E4.33544
G1 X106.959 Y76.432 E4.35867
G1 X112.818 Y82.291 E4.74596
G1 X112.818 Y82.788 E4.76919
G1 X106.462 Y76.432 E5.18934
G1 X105.965 Y76.432 E5.21257
G1 X112.818 Y83.285 E5.66557
G1 X112.818 Y83.782 E5.6888
G1 X105.468 Y76.432 E6.17465
G1 X104.971 Y76.432 E6.19788
G1 X112.818 Y84.279 E6.71658
G1 X112.818 Y84.776 E6.73981
G1 X104.682 Y76.639 E7.27765
G1 X104.681 Y77.135 E7.30083
G1 X112.818 Y85.272 E7.8387
G1 X112.818 Y85.769 E7.86193
G1 X104.681 Y77.632 E8.3998
G1 X104.68 Y78.128 E8.42298
G1 X112.818 Y86.266 E8.96092
G1 X112.818 Y86.763 E8.98415
G1 X104.68 Y78.624 E9.52212
G1 X104.679 Y79.121 E9.54535
G1 X112.818 Y87.26 E10.08336
G1 X112.818 Y87.757 E10.10659
G1 X104.679 Y79.617 E10.64463
G1 X104.678 Y80.114 E10.66786
G1 X112.818 Y88.254 E11.20593
G1 X112.818 Y88.75 E11.22911
G1 X104.678 Y80.61 E11.76718
G1 X104.677 Y81.106 E11.79036
G1 X112.818 Y89.247 E12.3285
G1 X112.818 Y89.744 E12.35173
G1 X104.677 Y81.603 E12.88987
G1 X104.676 Y82.099 E12.91305
G1 X112.818 Y90.241 E13.45125
G1 X112.818 Y90.738 E13.47448
G1 X104.676 Y82.595 E14.01272
G1 X104.675 Y83.092 E14.03595
G1 X112.818 Y91.235 E14.57422
G1 X112.818 Y91.732 E14.59745
G1 X104.675 Y83.588 E15.13575
G1 X104.675 Y83.749 E15.14328
G1 X104.589 Y83.999 E15.15564
G1 X112.818 Y92.228 E15.69959
G1 X112.818 Y92.725 E15.72282
G1 X104.358 Y84.265 E16.28204
G1 X104.281 Y84.327 E16.28666
G1 X104.097 Y84.404 E16.29598
G1 X104.011 Y84.415 E16.30003
G1 X112.818 Y93.222 E16.88219
G1 X112.818 Y93.719 E16.90542
G1 X103.532 Y84.433 E17.51924
G1 X103.036 Y84.434 E17.54242
G1 X112.818 Y94.216 E18.18903
G1 X112.818 Y94.713 E18.21226
G1 X103.663 Y85.558 E18.81742
G1 X103.839 Y86.231 E18.84993
G1 X112.818 Y95.21 E19.44346
G1 X112.818 Y95.706 E19.46664
G1 X103.863 Y86.751 E20.05858
G1 X103.865 Y86.978 E20.06919
G1 X103.829 Y87.215 E20.08039
G1 X112.818 Y96.203 E20.67455
G1 X112.818 Y96.7 E20.69778
G1 X103.73 Y87.612 E21.29852
G1 X103.695 Y87.752 E21.30527
M73 P0 R41
G1 X103.6 Y87.979 E21.31677
G1 X112.818 Y97.197 E21.9261
G1 X112.818 Y97.694 E21.94933
G1 X103.425 Y88.3 E22.57026
G1 X103.231 Y88.604 E22.58712
G1 X103.596 Y88.968 E22.61121
G1 X103.099 Y88.968 E22.63444
G1 X102.881 Y88.75 E22.64885
;WIPE_START
G1 F7200
G1 X103.099 Y88.968 E22.45359
G1 X103.596 Y88.968 E22.13882
G1 X103.231 Y88.604 E21.81235
G1 X103.425 Y88.3 E21.58395
G1 X104.469 Y89.344 E20.64885
;WIPE_END
G92 E0
G1 Z.52 F9000
G1 X104.517 Y89.889
G1 Z.32
G1 E2 F4800
G1 F1800
G1 X112.818 Y98.191 E2.54875
G1 X112.818 Y98.688 E2.57198
G1 X104.675 Y90.544 E3.11028
G1 X104.675 Y91.042 E3.13356
G1 X112.818 Y99.184 E3.6718
G1 X112.818 Y99.681 E3.69503
G1 X104.676 Y91.539 E4.23323
G1 X104.676 Y92.036 E4.25646
G1 X112.818 Y100.178 E4.79466
G1 X112.818 Y100.675 E4.81789
G1 X104.676 Y92.533 E5.35609
G1 X104.676 Y93.03 E5.37932
M73 P1 R41
G1 X112.818 Y101.172 E5.91752
G1 X112.818 Y101.669 E5.94075
G1 X104.677 Y93.527 E6.47892
G1 X104.677 Y94.024 E6.50215
G1 X112.976 Y102.324 E7.05076
;WIPE_START
G1 F7200
G1 X110.743 Y100.091 E5.05076
;WIPE_END
G92 E0
G1 Z.52 F9000
G1 X137.279 Y103.274
G1 Z.32
G1 E2 F4800
G1 F1800
G1 X137.818 Y103.813 E2.03563
G1 X137.818 Y104.31 E2.05886
G1 X136.94 Y103.432 E2.1169
G1 X136.443 Y103.432 E2.14013
G1 X137.818 Y104.807 E2.23102
G1 X137.818 Y105.304 E2.25425
G1 X135.946 Y103.432 E2.37799
G1 X135.449 Y103.432 E2.40122
G1 X137.818 Y105.801 E2.55782
G1 X137.818 Y106.298 E2.58105
G1 X134.952 Y103.432 E2.7705
G1 X134.456 Y103.432 E2.79368
G1 X137.818 Y106.794 E3.01592
G1 X137.818 Y107.291 E3.03915
G1 X133.959 Y103.432 E3.29424
G1 X133.462 Y103.432 E3.31747
G1 X137.818 Y107.788 E3.60541
G1 X137.818 Y108.285 E3.62864
G1 X136.331 Y106.798 E3.72693
G1 X136.134 Y106.321 E3.75105
G1 X136.036 Y106.151 E3.76022
G1 X135.624 Y105.626 E3.79141
G1 X135.099 Y105.214 E3.8226
G1 X134.929 Y105.116 E3.83177
G1 X134.452 Y104.919 E3.85589
G1 X132.965 Y103.432 E3.95418
G1 X132.468 Y103.432 E3.97741
G1 X133.841 Y104.805 E4.06817
G1 X133.593 Y104.777 E4.07984
G1 X133.329 Y104.789 E4.09219
G1 X131.971 Y103.432 E4.18192
G1 X131.474 Y103.432 E4.20515
G1 X132.89 Y104.848 E4.29875
G1 X132.697 Y104.898 E4.30807
G1 X132.518 Y104.972 E4.31712
G1 X130.978 Y103.432 E4.41892
G1 X130.481 Y103.432 E4.44215
G1 X132.167 Y105.118 E4.5536
G1 X131.868 Y105.316 E4.57036
G1 X129.984 Y103.432 E4.6949
G1 X129.487 Y103.432 E4.71813
G1 X131.587 Y105.532 E4.85694
G1 X131.345 Y105.786 E4.87334
G1 X128.99 Y103.432 E5.02898
G1 X128.493 Y103.432 E5.05221
G1 X131.129 Y106.067 E5.22642
G1 X130.943 Y106.378 E5.24336
G1 X127.996 Y103.432 E5.43813
G1 X127.5 Y103.432 E5.46131
G1 X130.797 Y106.729 E5.67925
G1 X130.748 Y106.848 E5.68527
G1 X130.687 Y107.116 E5.69812
G1 X127.003 Y103.432 E5.94164
G1 X126.506 Y103.432 E5.96487
G1 X130.635 Y107.561 E6.23781
G1 X130.623 Y107.796 E6.24881
G1 X130.663 Y108.086 E6.26249
G1 X125.851 Y103.274 E6.58057
;WIPE_START
G1 F7200
G1 X128.084 Y105.507 E4.58057
;WIPE_END
G92 E0
G1 Z.52 F9000
G1 X136.267 Y107.231
G1 Z.32
G1 E2 F4800
G1 F1800
G1 X137.818 Y108.782 E2.10252
G1 X137.818 Y109.279 E2.12575
G1 X136.457 Y107.917 E2.21575
G1 X136.402 Y108.36 E2.23662
G1 X137.818 Y109.776 E2.33022
G1 X137.818 Y110.272 E2.3534
G1 X136.278 Y108.732 E2.4552
G1 X136.132 Y109.083 E2.47297
G1 X137.818 Y110.769 E2.58442
G1 X137.818 Y111.266 E2.60765
G1 X135.934 Y109.382 E2.73219
G1 X135.718 Y109.663 E2.74876
G1 X137.818 Y111.763 E2.88757
G1 X137.818 Y112.26 E2.9108
G1 X135.463 Y109.905 E3.06647
G1 X135.179 Y110.118 E3.08306
G1 X137.63 Y112.569 E3.24508
G1 X137.134 Y112.57 E3.26826
G1 X134.869 Y110.304 E3.41801
G1 X134.52 Y110.452 E3.43573
G1 X136.639 Y112.571 E3.5758
G1 X136.143 Y112.572 E3.59898
G1 X134.133 Y110.562 E3.73185
G1 X133.69 Y110.616 E3.75271
G1 X135.647 Y112.573 E3.88207
G1 X135.52 Y112.573 E3.88801
G1 X135.241 Y112.664 E3.90173
G1 X132.975 Y110.397 E4.05155
;WIPE_START
G1 F7200
G1 X135.207 Y112.63 E2.05155
;WIPE_END
G92 E0
G1 Z.52 F9000
G1 X135.089 Y113.009
G1 Z.32
G1 E2 F4800
G1 F1800
G1 X132.496 Y110.416 E2.1714
G1 X132.172 Y110.284 E2.18775
G1 X132.001 Y110.186 E2.19696
G1 X131.478 Y109.777 E2.22799
G1 X131.064 Y109.249 E2.25935
G1 X130.966 Y109.078 E2.26856
G1 X130.837 Y108.756 E2.28477
G1 X125.512 Y103.432 E2.63673
G1 X125.015 Y103.432 E2.65996
G1 X134.829 Y113.245 E3.30865
G1 X134.818 Y113.732 E3.33142
G1 X124.518 Y103.432 E4.01227
G1 X124.022 Y103.432 E4.03545
G1 X134.818 Y114.229 E4.74912
G1 X134.818 Y114.726 E4.77235
G1 X123.525 Y103.432 E5.51887
G1 X123.028 Y103.432 E5.5421
G1 X134.818 Y115.222 E6.32144
G1 X134.819 Y115.719 E6.34467
G1 X122.531 Y103.432 E7.1569
G1 X122.034 Y103.432 E7.18013
G1 X134.819 Y116.216 E8.02521
G1 X134.819 Y116.713 E8.04844
G1 X121.537 Y103.432 E8.92638
G1 X121.04 Y103.432 E8.94961
G1 X128.177 Y110.568 E9.42135
G1 X127.68 Y110.568 E9.44458
G1 X120.544 Y103.432 E9.91628
G1 X120.047 Y103.432 E9.93951
G1 X127.183 Y110.568 E10.41121
G1 X126.686 Y110.568 E10.43444
G1 X119.55 Y103.432 E10.90614
G1 X119.053 Y103.432 E10.92937
G1 X126.189 Y110.568 E11.40107
G1 X125.692 Y110.568 E11.4243
G1 X118.556 Y103.432 E11.896
G1 X118.059 Y103.432 E11.91923
G1 X125.196 Y110.568 E12.39097
G1 X124.699 Y110.568 E12.4142
G1 X117.562 Y103.432 E12.88594
G1 X117.066 Y103.432 E12.90912
G1 X124.202 Y110.568 E13.38082
G1 X123.705 Y110.568 E13.40405
G1 X116.569 Y103.432 E13.87575
G1 X116.072 Y103.432 E13.89898
G1 X123.208 Y110.568 E14.37068
G1 X122.711 Y110.568 E14.39391
G1 X115.575 Y103.432 E14.86561
G1 X115.078 Y103.432 E14.88884
G1 X122.214 Y110.568 E15.36054
G1 X121.718 Y110.568 E15.38372
G1 X114.581 Y103.432 E15.85546
G1 X114.084 Y103.432 E15.87869
G1 X121.221 Y110.568 E16.35043
G1 X120.724 Y110.568 E16.37366
G1 X113.585 Y103.429 E16.84556
G1 X113.45 Y103.415 E16.8519
G1 X113.317 Y103.374 E16.85841
G1 X113.18 Y103.303 E16.86562
G1 X113.032 Y103.179 E16.87464
G1 X112.884 Y102.954 E16.88723
G1 X112.836 Y102.802 E16.89468
G1 X112.821 Y102.665 E16.90112
G1 X104.677 Y94.522 E17.43942
G1 X104.678 Y95.019 E17.46265
G1 X120.227 Y110.568 E18.49047
G1 X120.107 Y110.568 E18.49608
G1 X119.799 Y110.637 E18.51083
G1 X104.678 Y95.516 E19.51036
G1 X104.678 Y96.013 E19.53359
G1 X119.517 Y110.852 E20.51448
G1 X119.436 Y110.946 E20.52028
G1 X119.345 Y111.177 E20.53188
G1 X104.678 Y96.51 E21.5014
G1 X104.679 Y97.007 E21.52463
G1 X119.318 Y111.647 E22.49233
G1 X119.318 Y112.144 E22.51556
G1 X104.679 Y97.504 E23.48326
G1 X104.679 Y98.002 E23.50654
G1 X119.318 Y112.64 E24.47418
G1 X119.318 Y113.137 E24.49741
G1 X104.68 Y98.499 E25.46501
G1 X104.68 Y98.996 E25.48824
G1 X119.318 Y113.634 E26.45584
G1 X119.318 Y114.131 E26.47907
G1 X104.68 Y99.493 E27.44667
G1 X104.68 Y99.99 E27.4699
G1 X119.318 Y114.628 E28.4375
G1 X119.318 Y115.125 E28.46073
G1 X104.681 Y100.487 E29.4283
G1 X104.681 Y100.984 E29.45153
M73 P2 R41
G1 X119.318 Y115.622 E30.4191
G1 X119.318 Y116.118 E30.44228
G1 X104.681 Y101.481 E31.40982
G1 X104.681 Y101.979 E31.4331
G1 X119.318 Y116.615 E32.4006
G1 X119.318 Y117.112 E32.42383
G1 X104.682 Y102.476 E33.3913
G1 X104.664 Y102.806 E33.40675
G1 X104.622 Y102.912 E33.41208
G1 X119.318 Y117.609 E34.38355
G1 X119.318 Y118.106 E34.40678
G1 X104.425 Y103.213 E35.39124
G1 X104.221 Y103.358 E35.40294
G1 X104.107 Y103.392 E35.4085
G1 X119.318 Y118.603 E36.41398
G1 X119.318 Y119.1 E36.43721
G1 X103.645 Y103.426 E37.47326
G1 X103.148 Y103.427 E37.49649
G1 X119.318 Y119.597 E38.56536
G1 X119.318 Y120.093 E38.58854
G1 X102.652 Y103.427 E39.6902
G1 X102.156 Y103.428 E39.71338
G1 X119.318 Y120.59 E40.84782
G1 X119.318 Y121.087 E40.87105
G1 X101.659 Y103.428 E42.03835
G1 X101.163 Y103.429 E42.06153
G1 X102.576 Y104.842 E42.15493
G1 X102.011 Y104.773 E42.18154
G1 X100.666 Y103.429 E42.27041
G1 X100.17 Y103.429 E42.29359
G1 X101.553 Y104.812 E42.38501
G1 X101.286 Y104.847 E42.3976
G1 X101.135 Y104.891 E42.40495
G1 X99.674 Y103.43 E42.50153
G1 X99.177 Y103.43 E42.52476
G1 X100.781 Y105.034 E42.63079
G1 X100.442 Y105.192 E42.64827
G1 X98.681 Y103.431 E42.76468
G1 X98.184 Y103.431 E42.78791
G1 X100.158 Y105.405 E42.9184
G1 X99.88 Y105.624 E42.93494
G1 X97.682 Y103.432 E43.08003
G1 X97.682 Y103.922 E43.10293
G1 X99.661 Y105.902 E43.23378
G1 X99.446 Y106.184 E43.25035
G1 X97.682 Y104.419 E43.36699
G1 X97.682 Y104.916 E43.39022
G1 X99.285 Y106.519 E43.49618
G1 X99.142 Y106.873 E43.51403
G1 X97.682 Y105.413 E43.61054
G1 X97.682 Y105.91 E43.63377
G1 X99.065 Y107.293 E43.72519
G1 X99.019 Y107.67 E43.74294
G1 X99.029 Y107.754 E43.74689
G1 X97.682 Y106.407 E43.83593
G1 X97.682 Y106.904 E43.85916
G1 X99.31 Y108.532 E43.96677
;WIPE_START
G1 F7200
G1 X97.682 Y106.904 E42.50862
G1 X97.682 Y106.407 E42.19385
G1 X97.936 Y106.661 E41.96677
;WIPE_END
G92 E0
G1 Z.52 F9000
G1 X104.58 Y106.846
G1 Z.32
G1 E2 F4800
G1 F1800
G1 X119.318 Y121.584 E2.97421
G1 X119.318 Y122.081 E2.99744
G1 X104.868 Y107.631 E3.95262
G1 X104.88 Y107.739 E3.9577
G1 X104.835 Y108.094 E3.97443
G1 X119.318 Y122.578 E4.93182
G1 X119.318 Y123.075 E4.95505
G1 X104.757 Y108.513 E5.9176
G1 X104.617 Y108.87 E5.93552
G1 X119.318 Y123.571 E6.90729
G1 X119.318 Y124.068 E6.93052
G1 X104.458 Y109.208 E7.9128
G1 X104.241 Y109.488 E7.92936
G1 X119.318 Y124.565 E8.92598
G1 X119.318 Y125.062 E8.94921
G1 X104.019 Y109.763 E9.96051
G1 X103.975 Y109.818 E9.9638
G1 X103.748 Y109.989 E9.97708
G1 X119.318 Y125.559 E11.00629
G1 X119.318 Y126.056 E11.02952
G1 X103.464 Y110.202 E12.0775
G1 X103.406 Y110.246 E12.0809
G1 X103.129 Y110.364 E12.09497
G1 X119.318 Y126.553 E13.1651
G1 X119.318 Y127.049 E13.18828
G1 X102.776 Y110.508 E14.28171
G1 X102.617 Y110.55 E14.2894
G1 X102.353 Y110.581 E14.30182
G1 X119.318 Y127.546 E15.42324
G1 X119.318 Y128.043 E15.44647
G1 X101.903 Y110.628 E16.59764
G1 X101.338 Y110.56 E16.62424
G1 X119.318 Y128.54 E17.81276
G1 X119.318 Y129.037 E17.83599
G1 X97.682 Y107.4 E19.26621
G1 X97.682 Y107.897 E19.28944
G1 X119.318 Y129.534 E20.71966
G1 X119.318 Y130.031 E20.74289
G1 X97.682 Y108.394 E22.17311
G1 X97.682 Y108.891 E22.19634
M73 P3 R41
G1 X119.318 Y130.528 E23.62656
G1 X119.318 Y131.024 E23.64974
G1 X97.682 Y109.388 E25.07993
G1 X97.682 Y109.885 E25.10316
G1 X119.318 Y131.521 E26.53335
G1 X119.318 Y132.018 E26.55658
G1 X97.682 Y110.382 E27.98677
G1 X97.682 Y110.878 E28.00995
G1 X119.318 Y132.515 E29.44017
G1 X119.318 Y133.012 E29.4634
G1 X97.682 Y111.375 E30.89362
G1 X97.682 Y111.872 E30.91685
M73 P3 R40
G1 X119.318 Y133.509 E32.34707
G1 X119.318 Y134.006 E32.3703
G1 X97.682 Y112.369 E33.80052
G1 X97.682 Y112.866 E33.82375
G1 X119.318 Y134.502 E35.25394
G1 X119.318 Y134.999 E35.27717
G1 X97.524 Y113.205 E36.7178
;WIPE_START
G1 F7200
G1 X99.757 Y115.438 E34.7178
;WIPE_END
G92 E0
G1 Z.52 F9000
G1 X129.016 Y111.407
G1 Z.32
G1 E2 F4800
G1 F1800
G1 X134.819 Y117.21 E2.38359
G1 X134.819 Y117.707 E2.40682
G1 X129.174 Y112.063 E2.77993
G1 X129.174 Y112.56 E2.80316
G1 X134.819 Y118.204 E3.17627
G1 X134.819 Y118.701 E3.1995
G1 X129.175 Y113.057 E3.57258
G1 X129.175 Y113.554 E3.59581
