; generated by PrusaSlicer 2.7.0+win64 on 2024-01-29 at 18:57:05 UTC
;FLAVOR:Marlin
;TIME:749
;Filament used: 1.670560
;Layer height: 0.20
;MINX:0.000
;MINY:0.000
;MINZ:0.000
;MAXX:0.000
;MAXY:0.000
;MAXZ:0.000
;POSTPROCESSED
;Header generated for The Ender3v2 Professional Firmware
;https://github.com/mriscoc/Marlin_Ender3v2



;
;

;
;
; 

; external perimeters extrusion width = 0.42mm
; perimeters extrusion width = 0.44mm
; infill extrusion width = 0.44mm
; solid infill extrusion width = 0.44mm
; top infill extrusion width = 0.40mm
; first layer extrusion width = 0.42mm

M73 P0 R12

EXCLUDE_OBJECT_DEFINE NAME=REMIX___20_15mm_rounded_edge_stl CENTER=107.744,108.190 POLYGON=[[141.810,67.990],[142.708,68.154],[143.535,68.544],[144.072,68.972],[144.639,69.687],[145.004,70.525],[145.137,71.429],[145.033,72.337],[144.801,72.983],[144.305,73.750],[138.544,79.907],[131.186,86.356],[130.217,87.304],[128.484,89.383],[127.728,90.506],[127.050,91.679],[125.936,94.146],[125.167,96.740],[124.756,99.416],[124.568,102.904],[124.279,105.060],[123.811,107.217],[123.160,109.354],[122.325,111.448],[121.305,113.474],[120.107,115.411],[118.741,117.238],[117.219,118.935],[115.560,120.486],[113.782,121.877],[110.935,123.642],[108.951,124.598],[106.924,125.374],[104.874,125.975],[102.523,126.536],[99.952,127.455],[97.532,128.715],[95.305,130.292],[93.315,132.159],[91.596,134.280],[90.850,135.422],[85.997,143.848],[80.988,150.827],[80.476,151.304],[79.878,151.670],[79.219,151.907],[78.527,152.010],[77.370,151.872],[76.722,151.606],[76.139,151.218],[75.376,150.340],[75.000,149.486],[74.867,148.330],[75.119,147.194],[75.447,146.575],[78.714,142.155],[81.558,137.726],[84.105,133.122],[86.346,128.360],[88.266,123.460],[89.862,118.446],[91.123,113.335],[92.047,108.155],[92.628,102.924],[92.870,97.532],[93.034,96.881],[93.316,96.424],[93.708,96.057],[94.185,95.808],[99.688,94.450],[104.702,92.856],[109.603,90.935],[114.367,88.698],[118.971,86.150],[123.400,83.306],[127.631,80.177],[131.648,76.776],[135.434,73.120],[139.462,68.744],[140.460,68.190],[141.124,68.023]]

M190 S60 ; set bed temperature and wait for it to be reached
M104 S205 ; set temperature
;TYPE:Custom
START_PRINT
M109 S205 ; set temperature and wait for it to be reached
G21 ; set units to millimeters
G90 ; use absolute coordinates
M82 ; use absolute distances for extrusion
G92 E0
; Filament gcode
M107
;LAYER_CHANGE
;Z:0.32
;HEIGHT:0.32
;BEFORE_LAYER_CHANGE
;0.32


G1 E-1 F4800
G92 E0
G1 Z.32 F9000
;AFTER_LAYER_CHANGE
;0.32
G1 X91.296 Y93.702
G1 E1 F4800
;TYPE:Skirt/Brim
;WIDTH:0.42
G1 F3000
G1 X92.102 Y93.107 E1.04683
G1 X138.119 Y65.607 E3.55251
G1 X139.017 Y65.157 E3.59946
G1 X139.858 Y64.871 E3.64098
G1 X140.745 Y64.694 E3.68326
G1 X141.868 Y64.64 E3.73581
G1 X143.411 Y64.87 E3.80873
G1 X144.257 Y65.156 E3.85047
G1 X145.056 Y65.55 E3.89211
G1 X146.323 Y66.488 E3.96579
G1 X147.335 Y67.683 E4.03898
G1 X148.046 Y69.065 E4.11162
G1 X148.429 Y70.592 E4.1852
G1 X148.454 Y72.165 E4.25873
G1 X148.309 Y73.04 E4.30019
G1 X148.049 Y73.899 E4.34214
G1 X147.595 Y74.869 E4.3922
G1 X124.203 Y115.156 E6.56965
G1 X122.918 Y117.235 E6.68389
G1 X122.082 Y118.406 E6.75114
G1 X120.444 Y120.396 E6.87161
G1 X118.64 Y122.229 E6.99182
G1 X82.41 Y154.041 E9.24539
G1 X81.635 Y154.533 E9.2883
G1 X80.589 Y154.993 E9.34171
G1 X79.479 Y155.273 E9.39522
G1 X78.335 Y155.365 E9.44886
G1 X77.427 Y155.301 E9.49141
G1 X76.311 Y155.051 E9.54487
G1 X75.247 Y154.615 E9.59862
G1 X74.292 Y154.024 E9.65111
G1 X73.586 Y153.426 E9.69436
G1 X72.834 Y152.56 E9.74797
G1 X72.341 Y151.782 E9.79102
G1 X71.889 Y150.755 E9.84347
G1 X71.605 Y149.646 E9.89698
G1 X71.515 Y148.723 E9.94033
G1 X71.547 Y147.811 E9.98298
G1 X71.758 Y146.695 E10.03607
G1 X89.826 Y95.883 E12.55674
G1 X90.184 Y95.095 E12.59719
G1 X90.574 Y94.492 E12.63076
G1 X91.256 Y93.746 E12.678
EXCLUDE_OBJECT_START NAME=REMIX___20_15mm_rounded_edge_stl
;WIPE_START
G1 F7200
G1 X91.296 Y93.702 E12.64034
G1 X92.102 Y93.107 E12.00585
G1 X92.546 Y92.841 E11.678
;WIPE_END
G92 E0
G1 Z.52 F9000
G1 X142.796 Y69.021
G1 Z.32
G1 E1 F4800
;TYPE:Solid infill
;WIDTH:0.421119
G1 F3000
G1 X143.542 Y69.766 E1.04944
G1 X143.748 Y70.026 E1.06499
G1 X143.921 Y70.314 E1.08074
G1 X144.054 Y70.622 E1.09647
G1 X144.116 Y70.839 E1.10705
G1 X142.286 Y69.009 E1.2284
G1 X142.109 Y68.964 E1.23696
G1 X141.71 Y68.931 E1.25573
G1 X144.197 Y71.419 E1.42068
G1 X144.201 Y71.612 E1.42973
G1 X144.169 Y71.888 E1.44276
G1 X141.243 Y68.963 E1.63676
G1 X141.097 Y68.979 E1.64365
G1 X140.843 Y69.061 E1.65617
G1 X144.073 Y72.291 E1.87036
G1 X143.925 Y72.642 E1.88822
G1 X140.489 Y69.205 E2.1161
G1 X140.17 Y69.385 E2.13327
G1 X143.738 Y72.953 E2.36987
G1 X143.516 Y73.23 E2.38652
G1 X139.9 Y69.613 E2.62634
G1 X139.648 Y69.86 E2.64289
G1 X143.276 Y73.487 E2.88344
G1 X143.035 Y73.745 E2.89999
G1 X139.411 Y70.121 E3.1403
G1 X139.173 Y70.382 E3.15686
G1 X142.794 Y74.002 E3.39694
G1 X142.553 Y74.26 E3.41349
G1 X138.936 Y70.643 E3.65334
G1 X138.699 Y70.905 E3.66991
G1 X142.312 Y74.517 E3.90946
G1 X142.071 Y74.775 E3.92601
M73 P1 R12
G1 X138.462 Y71.166 E4.16533
G1 X138.225 Y71.427 E4.18186
G1 X141.83 Y75.032 E4.42091
G1 X141.589 Y75.29 E4.43746
G1 X137.988 Y71.689 E4.67625
G1 X137.751 Y71.95 E4.69278
G1 X141.348 Y75.547 E4.9313
G1 X141.107 Y75.805 E4.94785
G1 X137.514 Y72.211 E5.18614
G1 X137.277 Y72.473 E5.20271
G1 X140.866 Y76.062 E5.4407
G1 X140.625 Y76.32 E5.45725
G1 X137.039 Y72.734 E5.69504
G1 X136.802 Y72.995 E5.71157
G1 X140.384 Y76.577 E5.9491
G1 X140.143 Y76.835 E5.96565
G1 X136.565 Y73.257 E6.20291
G1 X136.328 Y73.518 E6.21944
G1 X139.902 Y77.092 E6.45644
G1 X139.661 Y77.35 E6.47299
G1 X136.091 Y73.779 E6.70976
G1 X135.838 Y74.025 E6.72631
G1 X139.421 Y77.607 E6.96387
G1 X139.18 Y77.865 E6.98042
G1 X135.584 Y74.269 E7.21888
G1 X135.331 Y74.514 E7.23539
G1 X138.939 Y78.122 E7.47464
G1 X138.698 Y78.38 E7.49119
G1 X135.077 Y74.759 E7.73131
G1 X134.824 Y75.004 E7.74782
G1 X138.457 Y78.637 E7.98873
G1 X138.216 Y78.895 E8.00528
G1 X134.57 Y75.249 E8.24705
G1 X134.317 Y75.494 E8.26356
G1 X137.975 Y79.152 E8.50613
G1 X137.718 Y79.394 E8.52268
G1 X134.063 Y75.739 E8.76505
G1 X133.809 Y75.984 E8.7816
G1 X137.453 Y79.627 E9.02321
G1 X137.187 Y79.86 E9.03979
G1 X133.556 Y76.229 E9.28057
G1 X133.302 Y76.474 E9.29712
G1 X136.922 Y80.093 E9.53714
G1 X136.657 Y80.327 E9.55372
G1 X133.049 Y76.718 E9.79301
G1 X132.795 Y76.963 E9.80956
G1 X136.392 Y80.56 E10.04808
G1 X136.127 Y80.793 E10.06463
G1 X132.542 Y77.208 E10.30236
G1 X132.288 Y77.453 E10.31891
G1 X135.862 Y81.027 E10.55591
G1 X135.597 Y81.26 E10.57246
G1 X132.02 Y77.683 E10.80966
G1 X131.75 Y77.912 E10.82626
G1 X135.331 Y81.493 E11.06372
G1 X135.066 Y81.726 E11.08027
G1 X131.48 Y78.14 E11.31806
G1 X131.21 Y78.369 E11.33466
G1 X134.801 Y81.96 E11.57279
G1 X134.536 Y82.193 E11.58934
G1 X130.94 Y78.597 E11.8278
G1 X130.67 Y78.826 E11.8444
G1 X134.271 Y82.426 E12.08316
G1 X134.006 Y82.66 E12.09974
G1 X130.4 Y79.054 E12.33886
G1 X130.13 Y79.283 E12.35546
G1 X133.74 Y82.893 E12.59485
G1 X133.475 Y83.126 E12.6114
G1 X129.86 Y79.511 E12.85112
G1 X129.591 Y79.74 E12.86768
G1 X133.21 Y83.359 E13.10766
G1 X132.945 Y83.593 E13.12424
G1 X129.321 Y79.968 E13.36459
G1 X129.051 Y80.197 E13.38119
G1 X132.68 Y83.826 E13.62184
G1 X132.415 Y84.059 E13.63839
G1 X128.781 Y80.425 E13.87937
G1 X128.511 Y80.654 E13.89597
G1 X132.15 Y84.293 E14.13728
G1 X131.884 Y84.526 E14.15386
G1 X128.241 Y80.882 E14.39547
G1 X127.955 Y81.095 E14.41219
G1 X131.619 Y84.759 E14.65516
G1 X131.351 Y84.989 E14.67172
G1 X127.669 Y81.307 E14.91588
G1 X127.382 Y81.519 E14.93261
G1 X131.082 Y85.219 E15.17796
G1 X130.813 Y85.449 E15.19456
G1 X127.096 Y81.731 E15.44107
G1 X126.809 Y81.943 E15.4578
G1 X130.547 Y85.68 E15.70564
G1 X130.294 Y85.926 E15.72219
G1 X126.523 Y82.155 E15.97225
G1 X126.236 Y82.367 E15.98898
G1 X130.042 Y86.173 E16.24136
G1 X129.79 Y86.419 E16.25787
G1 X125.95 Y82.578 E16.51254
G1 X125.663 Y82.79 E16.52927
G1 X129.538 Y86.666 E16.78626
G1 X129.303 Y86.929 E16.8028
G1 X125.377 Y83.002 E17.06317
G1 X125.09 Y83.214 E17.0799
G1 X129.069 Y87.193 E17.34376
G1 X128.834 Y87.457 E17.36033
G1 X124.803 Y83.426 E17.62763
G1 X124.517 Y83.638 E17.64432
G1 X128.599 Y87.72 E17.91501
G1 X128.38 Y88 E17.93168
G1 X124.23 Y83.85 E18.20687
G1 X123.944 Y84.062 E18.22356
G1 X128.163 Y88.281 E18.50333
G1 X127.945 Y88.561 E18.51997
G1 X123.642 Y84.259 E18.80528
G1 X123.339 Y84.453 E18.82215
G1 X127.727 Y88.842 E19.11316
G1 X127.526 Y89.139 E19.12998
G1 X123.035 Y84.648 E19.42779
G1 X122.731 Y84.843 E19.44472
G1 X127.326 Y89.437 E19.74939
G1 X127.126 Y89.736 E19.76626
G1 X122.428 Y85.038 E20.07779
G1 X122.124 Y85.233 E20.09472
G1 X126.925 Y90.034 E20.41308
G1 X126.743 Y90.35 E20.43018
G1 X121.821 Y85.428 E20.75657
G1 X121.517 Y85.622 E20.77348
G1 X126.56 Y90.666 E21.10792
G1 X126.378 Y90.982 E21.12502
G1 X121.213 Y85.817 E21.46752
G1 X120.91 Y86.012 E21.48442
M73 P2 R12
G1 X126.197 Y91.3 E21.83504
G1 X126.033 Y91.634 E21.85249
G1 X120.606 Y86.207 E22.21236
G1 X120.303 Y86.402 E22.22926
G1 X125.869 Y91.968 E22.59835
G1 X125.705 Y92.302 E22.6158
G1 X119.999 Y86.597 E22.99414
G1 X119.695 Y86.791 E23.01105
G1 X125.547 Y92.643 E23.39911
G1 X125.402 Y92.997 E23.41705
G1 X119.39 Y86.984 E23.81575
G1 X119.069 Y87.162 E23.83296
G1 X125.257 Y93.35 E24.2433
G1 X125.112 Y93.704 E24.26124
G1 X118.748 Y87.339 E24.68328
G1 X118.427 Y87.517 E24.70049
G1 X124.98 Y94.069 E25.135
G1 X124.855 Y94.443 E25.15349
G1 X118.106 Y87.694 E25.60103
G1 X117.785 Y87.872 E25.61824
G1 X124.731 Y94.817 E26.07881
G1 X124.607 Y95.192 E26.09733
G1 X117.464 Y88.049 E26.571
G1 X117.143 Y88.226 E26.58819
G1 X124.504 Y95.588 E27.07635
G1 X124.402 Y95.983 E27.09548
G1 X116.822 Y88.404 E27.59809
G1 X116.501 Y88.581 E27.61528
G1 X124.299 Y96.379 E28.13238
G1 X124.21 Y96.789 E28.15205
G1 X116.18 Y88.759 E28.68453
G1 X115.859 Y88.936 E28.70172
G1 X124.131 Y97.208 E29.25025
G1 X124.052 Y97.628 E29.27029
G1 X115.538 Y89.114 E29.83487
G1 X115.217 Y89.291 E29.85206
G1 X123.981 Y98.055 E30.43322
G1 X123.928 Y98.5 E30.45423
G1 X114.896 Y89.469 E31.05313
G1 X114.563 Y89.634 E31.07056
G1 X123.874 Y98.945 E31.68799
G1 X123.826 Y99.395 E31.70921
G1 X114.224 Y89.793 E32.34594
G1 X113.885 Y89.953 E32.36352
G1 X123.804 Y99.872 E33.02127
G1 X123.782 Y100.348 E33.04361
G1 X113.546 Y90.112 E33.72238
G1 X113.206 Y90.271 E33.73998
G1 X123.761 Y100.825 E34.43987
G1 X123.739 Y101.302 E34.46226
G1 X112.867 Y90.43 E35.1832
G1 X112.528 Y90.59 E35.20078
G1 X123.717 Y101.779 E35.94274
G1 X123.682 Y102.242 E35.96451
G1 X112.189 Y90.749 E36.72663
G1 X111.85 Y90.908 E36.74419
G1 X123.648 Y102.706 E37.52654
G1 X123.601 Y103.158 E37.54785
G1 X111.511 Y91.067 E38.34959
G1 X111.171 Y91.227 E38.36721
G1 X123.55 Y103.606 E39.18809
G1 X123.493 Y104.046 E39.20889
M73 P3 R12
G1 X110.832 Y91.386 E40.04843
G1 X110.493 Y91.545 E40.06599
G1 X123.426 Y104.478 E40.9236
G1 X123.359 Y104.909 E40.94405
G1 X110.154 Y91.704 E41.8197
G1 X109.807 Y91.856 E41.83746
G1 X123.277 Y105.326 E42.73068
G1 X123.196 Y105.743 E42.7506
G1 X109.449 Y91.996 E43.66219
G1 X109.091 Y92.137 E43.68023
G1 X114.641 Y97.686 E44.04823
G1 X113.903 Y97.335 E44.08655
G1 X113.725 Y97.27 E44.09544
G1 X108.733 Y92.277 E44.4265
G1 X108.375 Y92.417 E44.44452
G1 X112.943 Y96.985 E44.74743
G1 X112.267 Y96.808 E44.7802
G1 X108.016 Y92.558 E45.06206
G1 X107.658 Y92.698 E45.08008
G1 X111.635 Y96.674 E45.34377
G1 X111.038 Y96.577 E45.37213
G1 X107.3 Y92.838 E45.62004
G1 X106.942 Y92.978 E45.63806
G1 X110.493 Y96.53 E45.87357
G1 X109.961 Y96.496 E45.89857
G1 X106.584 Y93.119 E46.12251
G1 X106.226 Y93.259 E46.14053
G1 X109.461 Y96.494 E46.35505
G1 X108.987 Y96.519 E46.37731
G1 X105.868 Y93.399 E46.58417
G1 X105.509 Y93.54 E46.60226
G1 X108.527 Y96.557 E46.80236
G1 X108.067 Y96.595 E46.824
G1 X105.151 Y93.68 E47.01733
G1 X104.782 Y93.809 E47.03566
G1 X107.635 Y96.662 E47.22485
G1 X107.21 Y96.736 E47.24508
G1 X104.404 Y93.929 E47.43118
G1 X104.026 Y94.049 E47.44978
G1 X106.809 Y96.833 E47.63436
G1 X106.407 Y96.929 E47.65374
G1 X103.647 Y94.17 E47.83673
G1 X103.269 Y94.29 E47.85533
G1 X106.023 Y97.044 E48.03795
G1 X105.646 Y97.165 E48.05652
G1 X102.891 Y94.41 E48.23921
G1 X102.513 Y94.53 E48.25781
G1 X105.274 Y97.292 E48.44093
G1 X104.919 Y97.435 E48.45888
G1 X102.134 Y94.651 E48.64353
G1 X101.756 Y94.771 E48.66213
G1 X104.564 Y97.578 E48.8483
G1 X104.225 Y97.738 E48.86588
G1 X101.378 Y94.891 E49.05467
G1 X101 Y95.011 E49.07327
G1 X103.89 Y97.902 E49.26494
G1 X103.558 Y98.068 E49.28234
G1 X100.622 Y95.131 E49.47706
G1 X100.243 Y95.252 E49.49571
G1 X103.243 Y98.251 E49.69461
G1 X102.928 Y98.435 E49.71172
G1 X99.86 Y95.366 E49.9152
G1 X99.46 Y95.465 E49.93452
G1 X102.62 Y98.625 E50.14407
G1 X102.323 Y98.827 E50.16091
G1 X99.06 Y95.564 E50.37729
G1 X98.66 Y95.662 E50.3966
G1 X102.027 Y99.029 E50.61987
G1 X101.741 Y99.242 E50.63659
G1 X98.261 Y95.761 E50.86739
G1 X97.861 Y95.86 E50.88671
G1 X101.462 Y99.461 E51.1255
G1 X101.183 Y99.68 E51.14213
G1 X97.461 Y95.959 E51.38891
G1 X97.062 Y96.057 E51.40818
G1 X100.925 Y99.92 E51.66434
G1 X100.667 Y100.161 E51.68089
G1 X96.662 Y96.156 E51.94647
G1 X96.262 Y96.255 E51.96579
G1 X100.385 Y100.378 E52.23919
G1 X100.139 Y100.63 E52.2557
G1 X95.863 Y96.354 E52.53925
G1 X95.463 Y96.452 E52.55856
G1 X99.902 Y100.891 E52.85292
G1 X99.668 Y101.156 E52.8695
G1 X95.063 Y96.551 E53.17487
G1 X94.663 Y96.65 E53.19419
G1 X99.445 Y101.431 E53.51126
G1 X99.222 Y101.706 E53.52786
G1 X94.31 Y96.794 E53.85358
G1 X94.14 Y96.914 E53.86334
G1 X94.046 Y97.029 E53.8703
G1 X99.011 Y101.995 E54.19957
G1 X98.803 Y102.285 E54.2163
G1 X93.865 Y97.347 E54.54375
G1 X93.798 Y97.633 E54.55752
G1 X93.792 Y97.772 E54.56404
G1 X98.604 Y102.584 E54.88313
G1 X98.41 Y102.888 E54.90004
G1 X93.77 Y98.249 E55.20769
G1 X93.749 Y98.726 E55.23008
G1 X98.223 Y103.2 E55.52676
G1 X98.043 Y103.518 E55.54389
G1 X93.727 Y99.203 E55.83006
G1 X93.706 Y99.68 E55.85245
G1 X97.867 Y103.841 E56.12837
G1 X97.702 Y104.175 E56.14584
G1 X93.685 Y100.157 E56.41225
G1 X93.663 Y100.634 E56.43464
G1 X97.541 Y104.512 E56.6918
G1 X97.391 Y104.861 E56.70961
M73 P4 R12
G1 X93.642 Y101.111 E56.95825
G1 X93.62 Y101.588 E56.98064
G1 X97.247 Y105.215 E57.22115
M73 P4 R11
G1 X97.113 Y105.579 E57.23934
G1 X93.599 Y102.065 E57.47236
G1 X93.577 Y102.542 E57.49475
G1 X96.987 Y105.951 E57.72084
G1 X96.868 Y106.331 E57.73951
G1 X93.553 Y103.016 E57.95933
G1 X93.504 Y103.465 E57.98051
G1 X96.762 Y106.723 E58.19655
G1 X96.663 Y107.122 E58.21583
G1 X93.454 Y103.914 E58.42859
G1 X93.404 Y104.362 E58.44973
G1 X96.578 Y107.536 E58.6602
G1 X96.505 Y107.961 E58.68042
G1 X93.355 Y104.811 E58.8893
G1 X93.305 Y105.26 E58.91048
G1 X96.439 Y108.394 E59.1183
G1 X96.395 Y108.849 E59.13973
G1 X93.255 Y105.709 E59.34795
G1 X93.205 Y106.157 E59.36909
G1 X96.364 Y109.316 E59.57857
G1 X96.345 Y109.795 E59.60105
G1 X93.156 Y106.606 E59.81252
G1 X93.106 Y107.055 E59.8337
G1 X96.354 Y110.302 E60.04905
G1 X96.383 Y110.83 E60.07385
G1 X93.056 Y107.503 E60.29447
G1 X93.006 Y107.952 E60.31565
G1 X96.434 Y111.38 E60.54297
G1 X96.521 Y111.965 E60.5707
G1 X92.949 Y108.393 E60.80757
G1 X92.874 Y108.816 E60.82771
G1 X96.655 Y112.598 E61.07847
G1 X96.839 Y113.28 E61.11159
G1 X92.798 Y109.239 E61.37956
G1 X92.723 Y109.663 E61.39975
G1 X97.099 Y114.039 E61.68993
G1 X97.198 Y114.302 E61.70311
G1 X97.49 Y114.928 E61.7355
G1 X92.512 Y109.949 E62.06563
;WIPE_START
G1 F7200
G1 X93.628 Y111.066 E61.06563
;WIPE_END
G92 E0
G1 Z.52 F9000
G1 X118.387 Y101.433
G1 Z.32
G1 E1 F4800
G1 F3000
G1 X123.107 Y106.153 E1.31299
G1 X123.011 Y106.555 E1.33237
G1 X119.193 Y102.737 E1.58555
G1 X119.379 Y103.216 E1.60964
