; generated by PrusaSlicer 2.7.0+win64 on 2023-12-09 at 22:03:02 UTC
;FLAVOR:Marlin
;TIME:1614
;Filament used: 3.351430
;Layer height: 0.20
;MINX:0.000
;MINY:0.000
;MINZ:0.000
;MAXX:0.000
;MAXY:0.000
;MAXZ:0.000
;POSTPROCESSED
;Header generated for The Ender3v2 Professional Firmware
;https://github.com/mriscoc/Marlin_Ender3v2



;
;

;
;
; 

; external perimeters extrusion width = 0.42mm
; perimeters extrusion width = 0.44mm
; infill extrusion width = 0.44mm
; solid infill extrusion width = 0.44mm
; top infill extrusion width = 0.40mm
; first layer extrusion width = 0.42mm

M73 P0 R26

EXCLUDE_OBJECT_DEFINE NAME=Juntar CENTER=104.889,109.698 POLYGON=[[121.389,154.698],[88.389,154.698],[88.389,64.698],[121.389,64.698]]

M190 S60 ; set bed temperature and wait for it to be reached
M104 S205 ; set temperature
;TYPE:Custom
START_PRINT
M109 S205 ; set temperature and wait for it to be reached
G21 ; set units to millimeters
G90 ; use absolute coordinates
M82 ; use absolute distances for extrusion
G92 E0
; Filament gcode
M107
;LAYER_CHANGE
;Z:0.32
;HEIGHT:0.32
;BEFORE_LAYER_CHANGE
;0.32


G1 E-1 F4800
G92 E0
G1 Z.32 F9000
;AFTER_LAYER_CHANGE
;0.32
G1 X85.48 Y63.121
G1 E1 F4800
;TYPE:Skirt/Brim
;WIDTH:0.42
G1 F3000
G1 X86.569 Y61.915 E1.07595
G1 X88.437 Y61.346 E1.16722
G1 X121.341 Y61.346 E2.70518
G1 X122.918 Y61.74 E2.78116
G1 X124.124 Y62.83 E2.85714
G1 X124.693 Y64.698 E2.94841
G1 X124.693 Y154.698 E7.15508
G1 X124.298 Y156.274 E7.23102
G1 X123.209 Y157.48 E7.30697
G1 X121.341 Y158.049 E7.39824
G1 X88.437 Y158.049 E8.9362
G1 X86.861 Y157.655 E9.01213
G1 X85.655 Y156.565 E9.08811
G1 X85.086 Y154.698 E9.17934
G1 X85.086 Y64.698 E13.38601
G1 X85.465 Y63.179 E13.45919
EXCLUDE_OBJECT_START NAME=Juntar
;WIPE_START
G1 F7200
G1 X85.48 Y63.121 E13.42125
G1 X86.498 Y61.994 E12.45919
;WIPE_END
G92 E0
G1 Z.52 F9000
G1 X119.856 Y65.471
G1 Z.32
G1 E1 F4800
;TYPE:Solid infill
;WIDTH:0.420405
G1 F3000
G1 X120.409 Y66.024 E1.0366
G1 X120.409 Y66.522 E1.0599
G1 X119.517 Y65.629 E1.11896
G1 X119.02 Y65.629 E1.14222
G1 X120.409 Y67.019 E1.23417
G1 X120.409 Y67.517 E1.25747
G1 X118.522 Y65.629 E1.38238
G1 X118.025 Y65.629 E1.40564
G1 X120.409 Y68.014 E1.56344
G1 X120.409 Y68.511 E1.5867
G1 X117.527 Y65.629 E1.77742
G1 X117.03 Y65.629 E1.80068
G1 X120.409 Y69.009 E2.02433
G1 X120.409 Y69.506 E2.04759
G1 X116.532 Y65.629 E2.30416
G1 X116.035 Y65.629 E2.32742
G1 X120.409 Y70.004 E2.61691
G1 X120.409 Y70.501 E2.64017
G1 X115.538 Y65.629 E2.96255
G1 X115.04 Y65.629 E2.98585
G1 X120.409 Y70.999 E3.34119
G1 X120.409 Y71.496 E3.36445
G1 X114.543 Y65.629 E3.75268
G1 X114.045 Y65.629 E3.77598
G1 X120.409 Y71.993 E4.19713
G1 X120.409 Y72.491 E4.22043
G1 X113.548 Y65.629 E4.67451
G1 X113.051 Y65.629 E4.69777
G1 X120.409 Y72.988 E5.18474
G1 X120.409 Y73.486 E5.20804
G1 X112.553 Y65.629 E5.72796
G1 X112.056 Y65.629 E5.75122
G1 X120.409 Y73.983 E6.30403
G1 X120.409 Y74.481 E6.32733
G1 X111.558 Y65.629 E6.9131
G1 X111.061 Y65.629 E6.93636
G1 X120.409 Y74.978 E7.55502
G1 X120.409 Y75.475 E7.57828
G1 X110.563 Y65.629 E8.22986
G1 X110.066 Y65.629 E8.25312
G1 X120.409 Y75.973 E8.93763
G1 X120.409 Y76.47 E8.96089
G1 X109.569 Y65.629 E9.67829
G1 X109.071 Y65.629 E9.70159
G1 X120.409 Y76.968 E10.45194
G1 X120.409 Y77.465 E10.4752
G1 X108.574 Y65.629 E11.25844
G1 X108.076 Y65.629 E11.28174
G1 X120.409 Y77.963 E12.09794
G1 X120.409 Y78.46 E12.1212
G1 X107.579 Y65.629 E12.97029
G1 X107.081 Y65.629 E12.99359
G1 X120.409 Y78.957 E13.8756
G1 X120.409 Y79.455 E13.8989
G1 X106.584 Y65.629 E14.81384
G1 X106.087 Y65.629 E14.8371
G1 X120.409 Y79.952 E15.78493
G1 X120.409 Y80.45 E15.80823
G1 X105.589 Y65.629 E16.78901
G1 X105.092 Y65.629 E16.81227
G1 X120.409 Y80.947 E17.82594
G1 X120.409 Y81.445 E17.84924
G1 X104.594 Y65.629 E18.89587
G1 X104.097 Y65.629 E18.91913
G1 X120.409 Y81.942 E19.99865
G1 X120.409 Y82.439 E20.02191
G1 X103.599 Y65.629 E21.13436
G1 X103.102 Y65.629 E21.15762
G1 X120.409 Y82.937 E22.30299
G1 X120.409 Y83.434 E22.32625
G1 X102.605 Y65.629 E23.50451
G1 X102.107 Y65.629 E23.52781
G1 X120.409 Y83.932 E24.73903
G1 X120.409 Y84.429 E24.76229
M73 P1 R26
G1 X101.61 Y65.629 E26.0064
G1 X101.112 Y65.629 E26.0297
G1 X120.409 Y84.926 E27.30673
G1 X120.409 Y85.424 E27.33003
G1 X100.615 Y65.629 E28.63998
G1 X100.117 Y65.629 E28.66328
G1 X120.409 Y85.921 E30.00616
G1 X120.409 Y86.419 E30.02946
G1 X99.62 Y65.629 E31.40526
G1 X99.123 Y65.629 E31.42852
G1 X120.409 Y86.916 E32.83721
G1 X120.409 Y87.414 E32.86051
G1 X98.625 Y65.629 E34.30216
G1 X98.128 Y65.629 E34.32542
G1 X120.409 Y87.911 E35.79996
G1 X120.409 Y88.408 E35.82322
G1 X97.63 Y65.629 E37.33068
G1 X97.133 Y65.629 E37.35394
G1 X120.409 Y88.906 E38.89432
G1 X120.409 Y89.403 E38.91758
G1 X96.636 Y65.629 E40.49085
G1 X96.138 Y65.629 E40.51415
G1 X120.409 Y89.901 E42.12038
G1 X120.409 Y90.398 E42.14364
G1 X95.641 Y65.629 E43.78276
G1 X95.143 Y65.629 E43.80606
G1 X120.409 Y90.896 E45.47814
G1 X120.409 Y91.393 E45.5014
G1 X94.646 Y65.629 E47.20637
G1 X94.148 Y65.629 E47.22967
G1 X120.409 Y91.89 E48.96756
G1 X120.409 Y92.388 E48.99086
G1 X93.651 Y65.629 E50.76167
G1 X93.154 Y65.629 E50.78493
G1 X120.409 Y92.885 E52.58863
G1 X120.409 Y93.383 E52.61193
G1 X92.656 Y65.629 E54.44859
G1 X92.159 Y65.629 E54.47185
G1 X120.409 Y93.88 E56.3414
G1 X120.409 Y94.378 E56.3647
G1 X91.661 Y65.629 E58.26721
G1 X91.164 Y65.629 E58.29047
G1 X120.409 Y94.875 E60.22587
G1 X120.409 Y95.372 E60.24913
G1 X90.666 Y65.629 E62.21745
G1 X90.169 Y65.629 E62.24071
M73 P2 R26
G1 X120.409 Y95.87 E64.24195
G1 X120.409 Y96.367 E64.26521
G1 X89.672 Y65.629 E66.29934
G1 X89.369 Y65.629 E66.31352
G1 X89.369 Y65.824 E66.32264
G1 X120.409 Y96.865 E68.37682
G1 X120.409 Y97.362 E68.40008
G1 X89.369 Y66.322 E70.45423
G1 X89.369 Y66.819 E70.47749
G1 X120.409 Y97.86 E72.53167
G1 X120.409 Y98.357 E72.55493
G1 X89.369 Y67.317 E74.60908
G1 X89.369 Y67.814 E74.63234
G1 X120.409 Y98.854 E76.68649
G1 X120.409 Y99.352 E76.70979
G1 X89.369 Y68.311 E78.76397
G1 X89.369 Y68.809 E78.78727
G1 X120.409 Y99.849 E80.84142
G1 X120.409 Y100.347 E80.86472
G1 X89.369 Y69.306 E82.9189
G1 X89.369 Y69.804 E82.9422
G1 X120.409 Y100.844 E84.99635
G1 X120.409 Y101.341 E85.01961
G1 X89.369 Y70.301 E87.07376
G1 X89.369 Y70.799 E87.09706
G1 X120.409 Y101.839 E89.15121
G1 X120.409 Y102.336 E89.17447
G1 X89.369 Y71.296 E91.22862
G1 X89.369 Y71.793 E91.25188
G1 X120.409 Y102.834 E93.30606
G1 X120.409 Y103.331 E93.32932
G1 X89.369 Y72.291 E95.38347
G1 X89.369 Y72.788 E95.40673
G1 X120.409 Y103.829 E97.46091
G1 X120.409 Y104.326 E97.48417
G1 X89.369 Y73.286 E99.53832
G1 X89.369 Y73.783 E99.56158
M73 P3 R26
G1 X120.409 Y104.823 E101.61573
G1 X120.409 Y105.321 E101.63903
G1 X89.369 Y74.281 E103.69318
G1 X89.369 Y74.778 E103.71644
G1 X120.409 Y105.818 E105.77059
G1 X120.409 Y106.316 E105.79389
G1 X89.369 Y75.275 E107.84807
G1 X89.369 Y75.773 E107.87137
G1 X120.409 Y106.813 E109.92552
G1 X120.409 Y107.311 E109.94882
G1 X89.369 Y76.27 E112.003
G1 X89.369 Y76.768 E112.0263
G1 X120.409 Y107.808 E114.08045
G1 X120.409 Y108.305 E114.10371
G1 X89.369 Y77.265 E116.15786
G1 X89.369 Y77.763 E116.18116
M73 P3 R25
G1 X120.409 Y108.803 E118.23531
G1 X120.409 Y109.3 E118.25857
G1 X89.369 Y78.26 E120.31272
G1 X89.369 Y78.757 E120.33598
G1 X120.409 Y109.798 E122.39016
G1 X120.409 Y110.295 E122.41342
G1 X89.369 Y79.255 E124.46757
G1 X89.369 Y79.752 E124.49083
G1 X120.409 Y110.793 E126.54501
G1 X120.409 Y111.29 E126.56827
G1 X89.369 Y80.25 E128.62242
G1 X89.369 Y80.747 E128.64568
G1 X120.409 Y111.787 E130.69983
G1 X120.409 Y112.285 E130.72313
G1 X89.369 Y81.245 E132.77728
G1 X89.369 Y81.742 E132.80054
G1 X120.409 Y112.782 E134.85469
G1 X120.409 Y113.28 E134.87799
G1 X89.369 Y82.239 E136.93217
G1 X89.369 Y82.737 E136.95547
G1 X120.409 Y113.777 E139.00962
G1 X120.409 Y114.275 E139.03292
M73 P4 R25
G1 X89.369 Y83.234 E141.0871
G1 X89.369 Y83.732 E141.1104
G1 X120.409 Y114.772 E143.16455
G1 X120.409 Y115.269 E143.18781
G1 X89.369 Y84.229 E145.24196
G1 X89.369 Y84.726 E145.26522
G1 X120.409 Y115.767 E147.3194
G1 X120.409 Y116.264 E147.34266
G1 X89.369 Y85.224 E149.39681
G1 X89.369 Y85.721 E149.42007
G1 X120.409 Y116.762 E151.47425
G1 X120.409 Y117.259 E151.49751
G1 X89.369 Y86.219 E153.55166
G1 X89.369 Y86.716 E153.57492
G1 X120.409 Y117.756 E155.62907
G1 X120.409 Y118.254 E155.65237
G1 X89.369 Y87.214 E157.70652
G1 X89.369 Y87.711 E157.72978
G1 X120.409 Y118.751 E159.78393
G1 X120.409 Y119.249 E159.80723
G1 X89.369 Y88.208 E161.86141
G1 X89.369 Y88.706 E161.88471
G1 X120.409 Y119.746 E163.93886
G1 X120.409 Y120.244 E163.96216
G1 X89.369 Y89.203 E166.01634
G1 X89.369 Y89.701 E166.03964
G1 X120.409 Y120.741 E168.09379
G1 X120.409 Y121.238 E168.11705
G1 X89.369 Y90.198 E170.1712
G1 X89.369 Y90.696 E170.1945
G1 X120.409 Y121.736 E172.24865
G1 X120.409 Y122.233 E172.27191
G1 X89.369 Y91.193 E174.32606
G1 X89.369 Y91.69 E174.34932
G1 X120.409 Y122.731 E176.4035
G1 X120.409 Y123.228 E176.42676
M73 P5 R25
G1 X89.369 Y92.188 E178.48091
G1 X89.369 Y92.685 E178.50417
G1 X120.409 Y123.726 E180.55835
G1 X120.409 Y124.223 E180.58161
G1 X89.369 Y93.183 E182.63576
G1 X89.369 Y93.68 E182.65902
G1 X120.409 Y124.72 E184.71317
G1 X120.409 Y125.218 E184.73647
G1 X89.369 Y94.178 E186.79062
G1 X89.369 Y94.675 E186.81388
G1 X120.409 Y125.715 E188.86803
G1 X120.409 Y126.213 E188.89133
G1 X89.369 Y95.172 E190.94551
G1 X89.369 Y95.67 E190.96881
G1 X120.409 Y126.71 E193.02296
G1 X120.409 Y127.208 E193.04626
G1 X89.369 Y96.167 E195.10044
G1 X89.369 Y96.665 E195.12374
G1 X120.409 Y127.705 E197.17789
G1 X120.409 Y128.202 E197.20115
G1 X89.369 Y97.162 E199.2553
G1 X89.369 Y97.66 E199.2786
G1 X120.409 Y128.7 E201.33275
G1 X120.409 Y129.197 E201.35601
G1 X89.369 Y98.157 E203.41016
G1 X89.369 Y98.654 E203.43342
G1 X120.409 Y129.695 E205.4876
G1 X120.409 Y130.192 E205.51086
G1 X89.369 Y99.152 E207.56501
G1 X89.369 Y99.649 E207.58827
G1 X120.409 Y130.69 E209.64245
G1 X120.409 Y131.187 E209.66571
G1 X89.369 Y100.147 E211.71986
G1 X89.369 Y100.644 E211.74312
G1 X120.409 Y131.684 E213.79727
G1 X120.409 Y132.182 E213.82057
M73 P6 R25
G1 X89.369 Y101.141 E215.87475
G1 X89.369 Y101.639 E215.89805
G1 X120.409 Y132.679 E217.9522
G1 X120.409 Y133.177 E217.9755
G1 X89.369 Y102.136 E220.02968
G1 X89.369 Y102.634 E220.05298
G1 X120.409 Y133.674 E222.10713
G1 X120.409 Y134.171 E222.13039
G1 X89.369 Y103.131 E224.18454
G1 X89.369 Y103.629 E224.20784
G1 X120.409 Y134.669 E226.26199
G1 X120.409 Y135.166 E226.28525
G1 X89.369 Y104.126 E228.3394
G1 X89.369 Y104.623 E228.36266
G1 X120.409 Y135.664 E230.41684
G1 X120.409 Y136.161 E230.4401
G1 X89.369 Y105.121 E232.49425
G1 X89.369 Y105.618 E232.51751
G1 X120.409 Y136.659 E234.57169
G1 X120.409 Y137.156 E234.59495
G1 X89.369 Y106.116 E236.6491
G1 X89.369 Y106.613 E236.67236
G1 X120.409 Y137.653 E238.72651
G1 X120.409 Y138.151 E238.74981
G1 X89.369 Y107.111 E240.80396
G1 X89.369 Y107.608 E240.82722
G1 X120.409 Y138.648 E242.88137
G1 X120.409 Y139.146 E242.90467
G1 X89.369 Y108.105 E244.95885
G1 X89.369 Y108.603 E244.98215
G1 X120.409 Y139.643 E247.0363
G1 X120.409 Y140.141 E247.0596
G1 X89.369 Y109.1 E249.11378
G1 X89.369 Y109.598 E249.13708
G1 X120.409 Y140.638 E251.19123
G1 X120.409 Y141.135 E251.21449
M73 P7 R25
G1 X89.369 Y110.095 E253.26864
G1 X89.369 Y110.593 E253.29194
G1 X120.409 Y141.633 E255.34609
G1 X120.409 Y142.13 E255.36935
M73 P7 R24
G1 X89.369 Y111.09 E257.4235
G1 X89.369 Y111.587 E257.44676
G1 X120.409 Y142.628 E259.50094
G1 X120.409 Y143.125 E259.5242
G1 X89.369 Y112.085 E261.57835
G1 X89.369 Y112.582 E261.60161
G1 X120.409 Y143.623 E263.65579
G1 X120.409 Y144.12 E263.67905
G1 X89.369 Y113.08 E265.7332
G1 X89.369 Y113.577 E265.75646
G1 X120.409 Y144.617 E267.81061
G1 X120.409 Y145.115 E267.83391
G1 X89.369 Y114.075 E269.88806
G1 X89.369 Y114.572 E269.91132
G1 X120.409 Y145.612 E271.96547
G1 X120.409 Y146.11 E271.98877
G1 X89.369 Y115.069 E274.04295
G1 X89.369 Y115.567 E274.06625
G1 X120.409 Y146.607 E276.1204
G1 X120.409 Y147.105 E276.1437
G1 X89.369 Y116.064 E278.19788
G1 X89.369 Y116.562 E278.22118
G1 X120.409 Y147.602 E280.27533
G1 X120.409 Y148.099 E280.29859
G1 X89.369 Y117.059 E282.35274
G1 X89.369 Y117.556 E282.376
G1 X120.409 Y148.597 E284.43018
G1 X120.409 Y149.094 E284.45344
G1 X89.369 Y118.054 E286.50759
G1 X89.369 Y118.551 E286.53085
G1 X120.409 Y149.592 E288.58503
G1 X120.409 Y150.089 E288.60829
M73 P8 R24
G1 X89.369 Y119.049 E290.66244
G1 X89.369 Y119.546 E290.6857
G1 X120.409 Y150.586 E292.73985
G1 X120.409 Y151.084 E292.76315
G1 X89.369 Y120.044 E294.8173
G1 X89.369 Y120.541 E294.84056
G1 X120.409 Y151.581 E296.89471
G1 X120.409 Y152.079 E296.91801
G1 X89.369 Y121.038 E298.97219
G1 X89.369 Y121.536 E298.99549
G1 X120.409 Y152.576 E301.04964
G1 X120.409 Y153.074 E301.07294
G1 X89.369 Y122.033 E303.12712
G1 X89.369 Y122.531 E303.15042
G1 X120.409 Y153.571 E305.20457
G1 X120.409 Y153.766 E305.21369
G1 X120.107 Y153.766 E305.22782
G1 X89.369 Y123.028 E307.26199
G1 X89.369 Y123.526 E307.28529
G1 X119.609 Y153.766 E309.2865
G1 X119.112 Y153.766 E309.30976
G1 X89.369 Y124.023 E311.27808
G1 X89.369 Y124.52 E311.30134
G1 X118.614 Y153.766 E313.23674
G1 X118.117 Y153.766 E313.26
G1 X89.369 Y125.018 E315.16247
G1 X89.369 Y125.515 E315.18573
G1 X117.62 Y153.766 E317.05531
G1 X117.122 Y153.766 E317.07861
G1 X89.369 Y126.013 E318.91524
G1 X89.369 Y126.51 E318.9385
G1 X116.625 Y153.766 E320.74224
G1 X116.127 Y153.766 E320.76554
G1 X89.369 Y127.008 E322.53632
G1 X89.369 Y127.505 E322.55958
G1 X115.63 Y153.766 E324.29747
G1 X115.132 Y153.766 E324.32077
G1 X89.369 Y128.002 E326.02574
G1 X89.369 Y128.5 E326.04904
G1 X114.635 Y153.766 E327.72108
G1 X114.138 Y153.766 E327.74434
M73 P9 R24
G1 X89.369 Y128.997 E329.38349
G1 X89.369 Y129.495 E329.40679
G1 X113.64 Y153.766 E331.01299
G1 X113.143 Y153.766 E331.03625
G1 X89.369 Y129.992 E332.60956
G1 X89.369 Y130.489 E332.63282
G1 X112.645 Y153.766 E334.1732
G1 X112.148 Y153.766 E334.19646
G1 X89.369 Y130.987 E335.70392
G1 X89.369 Y131.484 E335.72718
G1 X111.65 Y153.766 E337.20172
G1 X111.153 Y153.766 E337.22498
G1 X89.369 Y131.982 E338.66659
G1 X89.369 Y132.479 E338.68985
G1 X110.656 Y153.766 E340.09857
G1 X110.158 Y153.766 E340.12187
G1 X89.369 Y132.977 E341.49764
G1 X89.369 Y133.474 E341.5209
G1 X109.661 Y153.766 E342.86378
G1 X109.163 Y153.766 E342.88708
G1 X89.369 Y133.971 E344.19703
G1 X89.369 Y134.469 E344.22033
G1 X108.666 Y153.766 E345.49736
G1 X108.169 Y153.766 E345.52062
G1 X89.369 Y134.966 E346.76476
G1 X89.369 Y135.464 E346.78806
G1 X107.671 Y153.766 E347.99924
G1 X107.174 Y153.766 E348.0225
G1 X89.369 Y135.961 E349.20079
G1 X89.369 Y136.459 E349.22409
G1 X106.676 Y153.766 E350.36943
G1 X106.179 Y153.766 E350.39269
G1 X89.369 Y136.956 E351.50514
G1 X89.369 Y137.453 E351.5284
G1 X105.681 Y153.766 E352.60792
G1 X105.184 Y153.766 E352.63118
G1 X89.369 Y137.951 E353.67778
G1 X89.369 Y138.448 E353.70104
G1 X104.687 Y153.766 E354.71475
G1 X104.189 Y153.766 E354.73805
G1 X89.369 Y138.946 E355.7188
G1 X89.369 Y139.443 E355.74206
G1 X103.692 Y153.766 E356.68992
G1 X103.194 Y153.766 E356.71322
G1 X89.369 Y139.941 E357.62812
G1 X89.369 Y140.438 E357.65138
G1 X102.697 Y153.766 E358.53339
G1 X102.199 Y153.766 E358.55669
G1 X89.369 Y140.935 E359.40578
G1 X89.369 Y141.433 E359.42908
G1 X101.702 Y153.766 E360.24525
G1 X101.205 Y153.766 E360.26851
G1 X89.369 Y141.93 E361.05179
G1 X89.369 Y142.428 E361.07509
G1 X100.707 Y153.766 E361.82541
G1 X100.21 Y153.766 E361.84867
G1 X89.369 Y142.925 E362.5661
G1 X89.369 Y143.423 E362.5894
G1 X99.712 Y153.766 E363.27387
G1 X99.215 Y153.766 E363.29713
