; generated by PrusaSlicer 2.7.0+win64 on 2023-12-01 at 00:01:42 UTC
;FLAVOR:Marlin
;TIME:748
;Filament used: 1.797650
;Layer height: 0.20
;MINX:0.000
;MINY:0.000
;MINZ:0.000
;MAXX:0.000
;MAXY:0.000
;MAXZ:0.000
;POSTPROCESSED
;Header generated for The Ender3v2 Professional Firmware
;https://github.com/mriscoc/Marlin_Ender3v2



;
;

;
;
; 

; external perimeters extrusion width = 0.42mm
; perimeters extrusion width = 0.44mm
; infill extrusion width = 0.44mm
; solid infill extrusion width = 0.44mm
; top infill extrusion width = 0.40mm
; support material extrusion width = 0.36mm
; first layer extrusion width = 0.42mm

M73 P0 R12

EXCLUDE_OBJECT_DEFINE NAME=snitch_bottom_stl CENTER=109.986,109.984 POLYGON=[[106.233,95.704],[106.503,95.747],[106.698,95.926],[106.983,95.943],[107.216,96.066],[108.935,95.784],[109.980,95.745],[111.094,95.784],[112.811,96.068],[113.321,95.915],[113.479,95.747],[113.805,95.713],[114.660,96.024],[115.042,96.257],[115.848,97.018],[118.337,98.442],[118.574,98.262],[119.037,98.273],[119.266,98.436],[119.438,98.771],[119.466,99.003],[119.384,99.302],[120.280,100.128],[121.049,100.990],[122.326,102.883],[123.151,104.481],[123.406,104.465],[123.576,104.550],[123.758,104.871],[123.680,105.239],[123.490,105.370],[123.838,106.679],[124.189,108.708],[124.259,110.344],[124.640,110.691],[124.803,111.045],[124.693,111.390],[124.435,111.614],[124.182,111.653],[124.111,112.168],[124.400,112.359],[124.458,112.667],[124.421,112.787],[124.193,112.970],[123.932,113.014],[123.607,114.338],[123.799,114.634],[123.767,114.720],[123.640,114.864],[123.409,114.892],[122.779,116.372],[122.936,116.625],[122.776,116.863],[122.498,116.884],[121.530,118.415],[121.626,118.513],[121.605,118.812],[121.448,118.921],[121.157,118.924],[119.700,120.470],[119.772,120.549],[119.740,120.835],[119.192,120.943],[116.732,122.592],[116.190,123.265],[115.930,123.469],[115.618,123.477],[115.381,123.248],[114.403,123.604],[112.125,124.130],[111.112,124.269],[109.980,124.309],[108.260,124.187],[106.586,123.900],[104.597,123.234],[104.363,123.483],[104.046,123.451],[103.815,123.281],[103.225,122.590],[102.101,121.907],[100.788,120.937],[100.307,120.904],[100.210,120.791],[100.246,120.470],[98.855,118.926],[98.389,118.836],[98.333,118.592],[98.442,118.415],[97.458,116.888],[97.077,116.779],[97.038,116.622],[97.113,116.428],[97.238,116.372],[96.571,114.882],[96.234,114.778],[96.183,114.581],[96.405,114.338],[96.045,113.014],[95.730,112.963],[95.518,112.654],[95.626,112.308],[95.885,112.171],[95.805,111.647],[95.524,111.602],[95.313,111.402],[95.212,111.259],[95.197,111.037],[95.298,110.733],[95.722,110.355],[95.725,109.452],[96.001,107.168],[96.481,105.400],[96.334,105.282],[96.227,105.031],[96.323,104.652],[96.499,104.487],[96.817,104.493],[97.625,102.883],[98.267,101.910],[99.694,100.128],[100.598,99.293],[100.516,99.003],[100.615,98.581],[100.794,98.369],[101.193,98.215],[101.652,98.439],[102.359,97.950],[104.129,97.036],[104.436,96.674],[105.322,96.024],[106.053,95.713]]

M190 S60 ; set bed temperature and wait for it to be reached
M104 S202 ; set temperature
;TYPE:Custom
START_PRINT
M109 S202 ; set temperature and wait for it to be reached
G21 ; set units to millimeters
G90 ; use absolute coordinates
M82 ; use absolute distances for extrusion
G92 E0
; Filament gcode
M107
;LAYER_CHANGE
;Z:0.32
;HEIGHT:0.32
;BEFORE_LAYER_CHANGE
;0.32


G1 E-2 F4800
G92 E0
G1 Z.32 F9000
;AFTER_LAYER_CHANGE
;0.32
G1 X94.985 Y93.577
G1 E2 F4800
;TYPE:Skirt/Brim
;WIDTH:0.42
G1 F1800
G1 X99.604 Y90.085 E2.27065
G1 X101.048 Y89.361 E2.34615
G1 X102.687 Y88.93 E2.42536
G1 X103.864 Y88.854 E2.48049
G1 X114.685 Y88.895 E2.98628
G1 X115.852 Y89.062 E3.04138
G1 X116.907 Y89.384 E3.09294
G1 X118.08 Y89.949 E3.1538
G1 X118.597 Y90.282 E3.18254
G1 X123.664 Y94.427 E3.48852
G1 X127.12 Y98.522 E3.73898
G1 X127.881 Y99.608 E3.80096
G1 X129.705 Y102.562 E3.96323
G1 X132.204 Y107.969 E4.24164
G1 X132.643 Y109.261 E4.30542
G1 X132.779 Y109.919 E4.33683
G1 X132.874 Y111.529 E4.41221
G1 X132.779 Y112.455 E4.45572
G1 X132.285 Y114.211 E4.54098
G1 X129.86 Y120.35 E4.8495
G1 X129.406 Y121.148 E4.89241
G1 X128.731 Y122.029 E4.94429
G1 X125.598 Y125.475 E5.16198
G1 X123.37 Y127.719 E5.30978
G1 X122.259 Y128.596 E5.37594
G1 X120.824 Y129.344 E5.45158
G1 X115.906 Y130.874 E5.69232
G1 X109.722 Y131.928 E5.98553
G1 X108.793 Y131.951 E6.02897
G1 X107.22 Y131.734 E6.10319
G1 X103.176 Y130.503 E6.30077
G1 X102.315 Y130.151 E6.34425
G1 X100.966 Y129.325 E6.41818
G1 X93.999 Y124.384 E6.8174
G1 X93.532 Y123.984 E6.84614
G1 X92.621 Y123.01 E6.90848
G1 X89.998 Y119.556 E7.1112
G1 X89.361 Y118.572 E7.16599
G1 X88.919 Y117.648 E7.21387
G1 X88.57 Y116.552 E7.26763
G1 X88.427 Y115.78 E7.30433
G1 X87.966 Y111.138 E7.52237
G1 X87.958 Y110.11 E7.57042
G1 X88.18 Y107.056 E7.71354
G1 X88.438 Y105.547 E7.7851
G1 X89.992 Y100.239 E8.04361
G1 X90.69 Y98.557 E8.12873
G1 X91.539 Y97.313 E8.19913
G1 X94.945 Y93.621 E8.43391
EXCLUDE_OBJECT_START NAME=snitch_bottom_stl
;WIPE_START
G1 F7200
G1 X94.985 Y93.577 E8.39625
G1 X97.457 Y91.708 E6.43391
;WIPE_END
G92 E0
G1 Z.52 F9000
G1 X104.446 Y92.249
G1 Z.32
G1 E2 F4800
;TYPE:Support material
G1 F1800
G1 X105.285 Y92.475 E2.04061
G1 X106.103 Y92.87 E2.08307
G1 X106.468 Y93.136 E2.10418
G1 X106.665 Y93.104 E2.11351
G1 X107.08 Y92.721 E2.13991
G1 X108.718 Y92.852 E2.21672
G1 X109.815 Y93.204 E2.27057
G1 X110.641 Y93.727 E2.31627
G1 X111.29 Y93.119 E2.35784
G1 X111.91 Y92.772 E2.39105
G1 X113.686 Y92.262 E2.47742
G1 X114.672 Y92.246 E2.52351
G1 X115.213 Y92.351 E2.54927
G1 X115.845 Y92.563 E2.58043
G1 X116.529 Y92.92 E2.61649
G1 X117.229 Y93.468 E2.65804
G1 X117.814 Y94.144 E2.69983
G1 X118.269 Y94.942 E2.74277
G1 X118.435 Y95.443 E2.76744
G1 X119.587 Y95.682 E2.82243
G1 X120.402 Y96.071 E2.86464
G1 X121.138 Y96.629 E2.90781
G1 X121.745 Y97.327 E2.95105
G1 X122.198 Y98.133 E2.99427
G1 X122.499 Y99.221 E3.04703
G1 X122.979 Y99.391 E3.07083
G1 X123.515 Y99.719 E3.1002
G1 X124.077 Y100.152 E3.13336
G1 X124.551 Y100.675 E3.16635
G1 X125.057 Y101.412 E3.20814
G1 X125.436 Y102.497 E3.26186
G1 X125.716 Y102.706 E3.27819
G1 X126.33 Y103.405 E3.32168
G1 X126.789 Y104.214 E3.36516
G1 X127.072 Y105.099 E3.40859
G1 X127.168 Y106.028 E3.45224
G1 X127.008 Y107.151 E3.50526
G1 X127.344 Y107.307 E3.52258
G1 X128.089 Y107.865 E3.56609
G1 X128.703 Y108.563 E3.60954
G1 X129.16 Y109.369 E3.65285
G1 X129.446 Y110.264 E3.69677
G1 X129.541 Y111.185 E3.74005
G1 X129.445 Y112.11 E3.78352
G1 X129.162 Y112.996 E3.82699
G1 X128.703 Y113.806 E3.87051
G1 X128.089 Y114.504 E3.91396
G1 X127.344 Y115.062 E3.95747
G1 X127.001 Y115.222 E3.97516
G1 X127.235 Y115.955 E4.01112
G1 X127.329 Y116.881 E4.05462
G1 X127.232 Y117.807 E4.09814
G1 X126.947 Y118.693 E4.14164
G1 X126.493 Y119.491 E4.18455
G1 X125.86 Y120.208 E4.22925
G1 X125.122 Y120.757 E4.27224
G1 X124.389 Y121.097 E4.31001
G1 X124.192 Y121.711 E4.34015
G1 X123.734 Y122.521 E4.38364
G1 X123.119 Y123.219 E4.42712
G1 X122.374 Y123.777 E4.47063
G1 X122.012 Y123.947 E4.48932
G1 X121.609 Y124.657 E4.52748
G1 X120.994 Y125.356 E4.571
G1 X120.25 Y125.913 E4.61444
G1 X119.407 Y126.307 E4.65793
M73 P1 R12
G1 X118.524 Y126.514 E4.70032
G1 X117.549 Y126.538 E4.74591
G1 X117.183 Y126.471 E4.7633
G1 X116.643 Y126.928 E4.79637
G1 X115.842 Y127.373 E4.8392
G1 X114.617 Y127.714 E4.89863
G1 X113.169 Y127.692 E4.96632
G1 X112.181 Y127.379 E5.01476
G1 X111.39 Y127.972 E5.06097
G1 X110.547 Y128.365 E5.10444
G1 X109.641 Y128.578 E5.14794
G1 X108.711 Y128.6 E5.19142
G1 X107.826 Y128.438 E5.23347
G1 X106.912 Y128.065 E5.27961
G1 X106.149 Y127.549 E5.32266
G1 X105.337 Y127.565 E5.36062
G1 X104.444 Y127.4 E5.40307
G1 X103.583 Y127.048 E5.44655
G1 X102.843 Y126.548 E5.48829
G1 X102.147 Y125.832 E5.53496
G1 X101.645 Y125.039 E5.57883
G1 X101.279 Y124.972 E5.59622
G1 X100.418 Y124.62 E5.6397
G1 X99.647 Y124.099 E5.68319
G1 X99 Y123.432 E5.72662
G1 X98.537 Y122.701 E5.76706
G1 X97.569 Y122.523 E5.81306
G1 X96.708 Y122.171 E5.85654
G1 X95.937 Y121.65 E5.90003
G1 X95.29 Y120.983 E5.94346
G1 X94.816 Y120.233 E5.98493
G1 X94.475 Y119.331 E6.03
G1 X94.373 Y118.835 E6.05367
G1 X93.315 Y118.197 E6.11142
G1 X92.667 Y117.53 E6.15489
G1 X92.193 Y116.78 E6.19636
G1 X91.852 Y115.877 E6.24148
G1 X91.711 Y114.96 E6.28485
G1 X91.76 Y114.033 E6.32824
G1 X92.041 Y113.037 E6.37661
G1 X91.588 Y112.175 E6.42213
G1 X91.442 Y111.726 E6.4442
G1 X91.301 Y110.808 E6.48761
G1 X91.35 Y109.882 E6.53095
G1 X91.662 Y108.813 E6.583
G1 X91.513 Y107.406 E6.64913
G1 X91.655 Y106.489 E6.6925
G1 X91.995 Y105.586 E6.7376
G1 X92.452 Y104.865 E6.7775
G1 X93.355 Y104.002 E6.83588
G1 X93.105 Y103.059 E6.88148
G1 X93.058 Y102.134 E6.92477
G1 X93.208 Y101.18 E6.96991
G1 X93.52 Y100.353 E7.01122
G1 X94.017 Y99.57 E7.05457
G1 X94.643 Y98.926 E7.09655
G1 X95.441 Y98.387 E7.14156
G1 X95.95 Y98.162 E7.16757
G1 X96.269 Y97.328 E7.20931
G1 X96.743 Y96.578 E7.25078
G1 X97.391 Y95.911 E7.29425
G1 X98.161 Y95.39 E7.3377
G1 X99.022 Y95.038 E7.38118
G1 X99.488 Y94.953 E7.40332
G1 X100.092 Y93.98 E7.45685
G1 X100.693 Y93.423 E7.49515
G1 X101.547 Y92.815 E7.54415
G1 X102.434 Y92.413 E7.58967
G1 X103.392 Y92.207 E7.63547
G1 X104.394 Y92.245 E7.68234
;WIPE_START
G1 F7200
G1 X103.392 Y92.207 E7.04728
G1 X102.434 Y92.413 E6.42668
G1 X101.547 Y92.815 E5.80991
G1 X101.383 Y92.932 E5.68234
;WIPE_END
G92 E0
G1 Z.52 F9000
G1 X110.632 Y116.105
G1 Z.32
G1 E2 F4800
G1 F1800
G1 X111.619 Y116.297 E2.047
G1 X112.092 Y116.548 E2.07203
G1 X112.479 Y116.866 E2.09544
G1 X113.041 Y117.699 E2.14241
G1 X113.191 Y118.177 E2.16583
G1 X113.247 Y118.71 E2.19088
G1 X113.059 Y119.688 E2.23743
G1 X112.511 Y120.531 E2.28443
G1 X112.1 Y120.876 E2.30951
G1 X111.661 Y121.115 E2.33287
G1 X110.677 Y121.324 E2.37989
G1 X109.697 Y121.15 E2.42641
G1 X109.22 Y120.906 E2.45145
G1 X108.827 Y120.596 E2.47485
G1 X108.251 Y119.772 E2.52184
G1 X108.093 Y119.297 E2.54524
G1 X108.027 Y118.765 E2.5703
G1 X108.202 Y117.775 E2.61729
G1 X108.426 Y117.327 E2.6407
G1 X108.756 Y116.905 E2.66574
G1 X109.58 Y116.328 E2.71276
G1 X110.054 Y116.171 E2.7361
G1 X110.579 Y116.105 E2.76083
;WIPE_START
G1 F7200
G1 X110.054 Y116.171 E2.42571
G1 X109.58 Y116.328 E2.10947
G1 X108.756 Y116.905 E1.47238
G1 X108.426 Y117.327 E1.1331
G1 X108.202 Y117.775 E.81588
G1 X108.187 Y117.861 E.76083
;WIPE_END
G92 E0
G1 Z.52 F9000
G1 X101.251 Y109.654
G1 Z.32
G1 E2 F4800
G1 F1800
G1 X102.238 Y109.846 E2.047
G1 X102.682 Y110.078 E2.07042
G1 X103.098 Y110.415 E2.09544
G1 X103.661 Y111.249 E2.14247
G1 X103.81 Y111.726 E2.16583
G1 X103.866 Y112.259 E2.19088
G1 X103.678 Y113.237 E2.23743
G1 X103.13 Y114.081 E2.28447
G1 X102.72 Y114.425 E2.30949
G1 X102.28 Y114.665 E2.33292
G1 X101.297 Y114.874 E2.37989
G1 X100.316 Y114.699 E2.42647
G1 X99.839 Y114.456 E2.45149
G1 X99.447 Y114.145 E2.47488
G1 X98.87 Y113.321 E2.5219
G1 X98.704 Y112.811 E2.54697
G1 X98.647 Y112.314 E2.57035
G1 X98.821 Y111.324 E2.61733
G1 X99.065 Y110.847 E2.64237
G1 X99.375 Y110.454 E2.66577
G1 X100.199 Y109.878 E2.71276
G1 X100.674 Y109.72 E2.73616
G1 X101.199 Y109.655 E2.76089
G1 X110.141 Y107.582 F9000
G1 F1800
G1 X111.128 Y107.774 E2.80789
G1 X111.572 Y108.006 E2.83131
G1 X111.988 Y108.343 E2.85633
G1 X112.55 Y109.177 E2.90334
G1 X112.707 Y109.689 E2.92837
G1 X112.756 Y110.187 E2.95176
G1 X112.564 Y111.174 E2.99876
G1 X112.332 Y111.618 E3.02218
G1 X111.995 Y112.034 E3.0472
G1 X111.161 Y112.597 E3.09423
G1 X110.187 Y112.802 E3.14075
G1 X109.653 Y112.755 E3.16581
G1 X109.173 Y112.614 E3.18919
G1 X108.33 Y112.066 E3.23619
G1 X107.76 Y111.249 E3.28275
G1 X107.602 Y110.775 E3.3061
G1 X107.536 Y110.243 E3.33116
G1 X107.711 Y109.252 E3.3782
G1 X107.935 Y108.805 E3.40157
G1 X108.265 Y108.383 E3.42661
G1 X109.089 Y107.806 E3.47363
G1 X109.563 Y107.648 E3.49698
G1 X110.088 Y107.583 E3.52171
G1 X117.565 Y105.798 F9000
G1 F1800
G1 X118.552 Y105.99 E3.56871
G1 X119.025 Y106.242 E3.59376
G1 X119.412 Y106.559 E3.61714
G1 X119.974 Y107.393 E3.66415
G1 X120.131 Y107.905 E3.68918
G1 X120.18 Y108.403 E3.71257
G1 X119.988 Y109.391 E3.75961
G1 X119.737 Y109.864 E3.78464
G1 X119.419 Y110.25 E3.80802
G1 X118.594 Y110.809 E3.8546
G1 X117.611 Y111.018 E3.90157
G1 X117.077 Y110.971 E3.92663
G1 X116.597 Y110.83 E3.95001
G1 X115.761 Y110.289 E3.99655
G1 X115.184 Y109.465 E4.04357
G1 X115.018 Y108.956 E4.06859
G1 X114.961 Y108.459 E4.09197
G1 X115.135 Y107.468 E4.139
G1 X115.378 Y106.991 E4.16402
G1 X115.689 Y106.599 E4.18741
G1 X116.513 Y106.022 E4.23443
G1 X116.988 Y105.864 E4.25783
G1 X117.512 Y105.799 E4.28251
;WIPE_START
G1 F7200
G1 X116.988 Y105.864 E3.9481
G1 X116.513 Y106.022 E3.63106
G1 X115.689 Y106.599 E2.99397
G1 X115.378 Y106.991 E2.67706
G1 X115.135 Y107.468 E2.33802
G1 X115.12 Y107.554 E2.28251
;WIPE_END
G92 E0
G1 Z.52 F9000
G1 X106.44 Y100.385
G1 Z.32
G1 E2 F4800
G1 F1800
G1 X107.427 Y100.576 E2.04699
G1 X107.871 Y100.808 E2.07041
G1 X108.287 Y101.146 E2.09546
G1 X108.85 Y101.979 E2.14245
G1 X108.999 Y102.457 E2.16585
G1 X109.055 Y102.99 E2.1909
G1 X108.867 Y103.968 E2.23745
G1 X108.319 Y104.811 E2.28445
G1 X107.909 Y105.156 E2.3095
G1 X107.469 Y105.395 E2.3329
G1 X106.486 Y105.604 E2.37987
G1 X105.505 Y105.429 E2.42645
G1 X105.028 Y105.186 E2.45147
G1 X104.635 Y104.875 E2.4749
G1 X104.059 Y104.052 E2.52185
G1 X103.893 Y103.542 E2.54692
G1 X103.836 Y103.045 E2.5703
G1 X104.01 Y102.055 E2.61728
G1 X104.253 Y101.577 E2.64234
G1 X104.564 Y101.185 E2.66573
G1 X105.388 Y100.608 E2.71275
G1 X105.863 Y100.45 E2.73615
G1 X106.388 Y100.385 E2.76088
;WIPE_START
G1 F7200
G1 X105.863 Y100.45 E2.42584
G1 X105.388 Y100.608 E2.1088
G1 X104.564 Y101.185 E1.47171
G1 X104.253 Y101.577 E1.1548
G1 X104.01 Y102.055 E.81519
G1 X103.995 Y102.139 E.76088
;WIPE_END
G92 E0
G1 Z.52 F9000
G1 X129.072 Y112.758
G1 Z.32
G1 E2 F4800
G1 F1800
G1 X129.072 Y110.13 E2.12283
G1 X128.869 Y109.497 E2.1539
G1 X128.57 Y108.97 E2.18222
G1 X128.57 Y113.399 E2.38923
G1 X128.068 Y114.049 E2.42762
G1 X128.068 Y108.321 E2.69535
G1 X127.566 Y107.869 E2.72692
G1 X127.566 Y114.5 E3.03686
G1 X127.064 Y114.844 E3.0653
G1 X127.064 Y107.526 E3.40735
G1 X126.623 Y107.319 E3.43012
G1 X126.761 Y106.886 E3.45136
G1 X126.85 Y106.027 E3.49173
G1 X126.761 Y105.165 E3.53223
G1 X126.563 Y104.545 E3.56265
G1 X126.563 Y118.73 E4.22567
G1 X126.061 Y119.509 E4.26899
G1 X126.061 Y103.577 E5.01366
G1 X125.559 Y103.007 E5.04916
M73 P2 R12
G1 X125.559 Y120.038 E5.8452
G1 X125.057 Y120.412 E5.87446
G1 X125.057 Y102.313 E6.72042
G1 X124.775 Y101.559 E6.75805
G1 X124.555 Y101.239 E6.7762
G1 X124.555 Y120.671 E7.68447
G1 X124.13 Y120.868 E7.70637
G1 X124.053 Y121.108 E7.71815
G1 X124.053 Y100.597 E8.67685
G1 X123.551 Y100.146 E8.70839
G1 X123.551 Y122.202 E9.7393
G1 X123.049 Y122.82 E9.77651
G1 X123.049 Y99.804 E10.8523
G1 X122.547 Y99.573 E10.87813
G1 X122.547 Y123.253 E11.98495
G1 X122.046 Y123.582 E12.01296
G1 X122.046 Y98.694 E13.17624
G1 X121.907 Y98.26 E13.19754
G1 X121.544 Y97.613 E13.23222
G1 X121.544 Y124.131 E14.47169
G1 X121.042 Y124.823 E14.51165
G1 X121.042 Y97 E15.81212
G1 X120.54 Y96.572 E15.84295
M73 P3 R12
G1 X120.54 Y125.301 E17.18577
G1 X120.038 Y125.663 E17.2147
G1 X120.038 Y109.98 E17.94774
G1 X119.536 Y110.576 E17.98416
G1 X119.536 Y125.898 E18.70032
G1 X119.034 Y126.07 E18.72512
G1 X119.034 Y110.942 E19.43221
G1 X118.532 Y111.172 E19.45802
G1 X118.532 Y126.187 E20.15983
G1 X118.03 Y126.222 E20.18335
G1 X118.03 Y111.298 E20.88091
G1 X117.528 Y111.334 E20.90443
G1 X117.528 Y126.213 E21.59989
G1 X117.077 Y126.13 E21.62132
G1 X117.027 Y126.18 E21.62463
G1 X117.027 Y111.283 E22.32093
G1 X116.525 Y111.141 E22.34531
G1 X116.525 Y126.622 E23.0689
G1 X116.023 Y126.911 E23.09597
