; generated by PrusaSlicer 2.7.0+win64 on 2023-12-09 at 19:17:02 UTC
;FLAVOR:Marlin
;TIME:1787
;Filament used: 3.001640
;Layer height: 0.20
;MINX:0.000
;MINY:0.000
;MINZ:0.000
;MAXX:0.000
;MAXY:0.000
;MAXZ:0.000
;POSTPROCESSED
;Header generated for The Ender3v2 Professional Firmware
;https://github.com/mriscoc/Marlin_Ender3v2



;
;

;
;
; 

; external perimeters extrusion width = 0.42mm
; perimeters extrusion width = 0.44mm
; infill extrusion width = 0.44mm
; solid infill extrusion width = 0.44mm
; top infill extrusion width = 0.40mm
; first layer extrusion width = 0.60mm

M73 P0 R29

EXCLUDE_OBJECT_DEFINE NAME=stamp_sello_stl CENTER=110.000,110.000 POLYGON=[[126.500,155.000],[93.500,155.000],[93.500,65.000],[126.500,65.000]]

M190 S60 ; set bed temperature and wait for it to be reached
M104 S202 ; set temperature
;TYPE:Custom
START_PRINT
M109 S202 ; set temperature and wait for it to be reached
G21 ; set units to millimeters
G90 ; use absolute coordinates
M82 ; use absolute distances for extrusion
G92 E0
; Filament gcode
M107
;LAYER_CHANGE
;Z:0.32
;HEIGHT:0.32
;BEFORE_LAYER_CHANGE
;0.32


G1 E-1 F3600
G92 E0
G1 Z.32 F9000
;AFTER_LAYER_CHANGE
;0.32
G1 X90.411 Y63.378
G1 E1 F3600
;TYPE:Skirt/Brim
;WIDTH:0.6
G1 F1800
G1 X91.506 Y62.119 E1.11795
G1 X93.548 Y61.469 E1.26943
G1 X126.452 Y61.469 E3.59535
G1 X128.074 Y61.863 E3.71334
G1 X129.333 Y62.958 E3.83129
G1 X129.983 Y65 E3.98277
G1 X129.983 Y155 E10.3447
G1 X129.589 Y156.622 E10.46269
G1 X128.494 Y157.881 E10.58064
G1 X126.452 Y158.531 E10.73212
G1 X93.548 Y158.531 E13.05804
G1 X91.926 Y158.137 E13.17603
G1 X90.667 Y157.042 E13.29398
G1 X90.017 Y155 E13.44546
G1 X90.017 Y65 E19.80739
G1 X90.397 Y63.437 E19.92109
EXCLUDE_OBJECT_START NAME=stamp_sello_stl
;WIPE_START
G1 F7200
G1 X90.411 Y63.378 E19.89229
G1 X91.506 Y62.119 E19.09972
G1 X91.864 Y62.005 E18.92109
;WIPE_END
G92 E0
G1 Z.52 F9000
G1 X124.271 Y66.101
G1 Z.32
G1 E1 F3600
;TYPE:Solid infill
;WIDTH:0.602853
G1 F1800
G1 X125.112 Y66.942 E1.08452
G1 X125.112 Y67.698 E1.13825
G1 X123.754 Y66.34 E1.27474
G1 X122.999 Y66.34 E1.3284
G1 X125.112 Y68.453 E1.54077
G1 X125.112 Y69.209 E1.5945
G1 X122.243 Y66.34 E1.88285
G1 X121.488 Y66.34 E1.93651
G1 X125.112 Y69.964 E2.30074
G1 X125.112 Y70.72 E2.35447
G1 X120.732 Y66.34 E2.79468
G1 X119.977 Y66.34 E2.84834
G1 X125.112 Y71.475 E3.36443
G1 X125.112 Y72.23 E3.41809
G1 X119.222 Y66.34 E4.01006
G1 X118.466 Y66.34 E4.06379
G1 X125.112 Y72.986 E4.73174
G1 X125.112 Y73.741 E4.7854
G1 X117.711 Y66.34 E5.52924
G1 X116.955 Y66.34 E5.58297
G1 X125.112 Y74.497 E6.40279
G1 X125.112 Y75.252 E6.45645
G1 X116.2 Y66.34 E7.35215
G1 X115.444 Y66.34 E7.40588
G1 X125.112 Y76.008 E8.37756
G1 X125.112 Y76.763 E8.43122
G1 X114.689 Y66.34 E9.47878
G1 X113.933 Y66.34 E9.53251
G1 X125.112 Y77.519 E10.65605
G1 X125.112 Y78.274 E10.70971
G1 X113.178 Y66.34 E11.90913
G1 X112.423 Y66.34 E11.96279
G1 X125.112 Y79.029 E13.23809
G1 X125.112 Y79.785 E13.29182
G1 X111.667 Y66.34 E14.64311
G1 X110.912 Y66.34 E14.69677
G1 X125.112 Y80.54 E16.12394
G1 X125.112 Y81.296 E16.17767
G1 X110.156 Y66.34 E17.68082
G1 X109.401 Y66.34 E17.73448
G1 X125.112 Y82.051 E19.31351
G1 X125.112 Y82.807 E19.36724
M73 P1 R29
G1 X108.645 Y66.34 E21.02225
G1 X107.89 Y66.34 E21.07591
G1 X125.112 Y83.562 E22.8068
G1 X125.112 Y84.318 E22.86053
G1 X107.134 Y66.34 E24.6674
G1 X106.379 Y66.34 E24.72106
G1 X125.112 Y85.073 E26.60382
G1 X125.112 Y85.828 E26.65748
G1 X105.624 Y66.34 E28.61612
G1 X104.868 Y66.34 E28.66985
G1 X125.112 Y86.584 E30.70447
G1 X125.112 Y87.339 E30.75813
G1 X104.113 Y66.34 E32.86863
G1 X103.357 Y66.34 E32.92236
G1 X125.112 Y88.095 E35.10884
G1 X125.112 Y88.85 E35.1625
G1 X102.602 Y66.34 E37.42486
G1 X101.846 Y66.34 E37.47859
G1 X125.112 Y89.606 E39.81693
G1 X125.112 Y90.361 E39.87059
G1 X101.091 Y66.34 E42.28481
G1 X100.335 Y66.34 E42.33854
G1 X125.112 Y91.117 E44.82875
G1 X125.112 Y91.872 E44.88241
G1 X99.58 Y66.34 E47.4485
G1 X98.825 Y66.34 E47.50216
G1 X125.112 Y92.627 E50.14413
G1 X125.112 Y93.383 E50.19786
G1 X98.069 Y66.34 E52.91581
G1 X97.314 Y66.34 E52.96947
G1 X125.112 Y94.138 E55.7633
G1 X125.112 Y94.894 E55.81703
G1 X96.558 Y66.34 E58.68684
G1 X95.803 Y66.34 E58.7405
M73 P2 R29
G1 X125.112 Y95.649 E61.68619
G1 X125.112 Y96.405 E61.73992
G1 X95.047 Y66.34 E64.7616
G1 X94.888 Y66.34 E64.7729
G1 X94.888 Y66.937 E64.81533
G1 X125.112 Y97.16 E67.85294
G1 X125.112 Y97.916 E67.90667
G1 X94.888 Y67.692 E70.94433
G1 X94.888 Y68.448 E70.99806
G1 X125.112 Y98.671 E74.03567
G1 X125.112 Y99.426 E74.08933
G1 X94.888 Y69.203 E77.12694
G1 X94.888 Y69.959 E77.18067
G1 X125.112 Y100.182 E80.21828
G1 X125.112 Y100.937 E80.27194
G1 X94.888 Y70.714 E83.30955
G1 X94.888 Y71.47 E83.36328
M73 P2 R28
G1 X125.112 Y101.693 E86.40089
G1 X125.112 Y102.448 E86.45455
G1 X94.888 Y72.225 E89.49216
G1 X94.888 Y72.981 E89.54589
G1 X125.112 Y103.204 E92.5835
G1 X125.112 Y103.959 E92.63716
G1 X94.888 Y73.736 E95.67477
G1 X94.888 Y74.491 E95.72843
M73 P3 R28
G1 X125.112 Y104.715 E98.76609
G1 X125.112 Y105.47 E98.81975
G1 X94.888 Y75.247 E101.85736
G1 X94.888 Y76.002 E101.91102
G1 X125.112 Y106.225 E104.94863
G1 X125.112 Y106.981 E105.00236
G1 X94.888 Y76.758 E108.03997
G1 X94.888 Y77.513 E108.09363
G1 X125.112 Y107.736 E111.13124
G1 X125.112 Y108.492 E111.18497
G1 X94.888 Y78.269 E114.22258
G1 X94.888 Y79.024 E114.27624
G1 X125.112 Y109.247 E117.31385
G1 X125.112 Y110.003 E117.36758
G1 X94.888 Y79.78 E120.40519
G1 X94.888 Y80.535 E120.45885
G1 X125.112 Y110.758 E123.49646
G1 X125.112 Y111.514 E123.55019
G1 X94.888 Y81.29 E126.58785
G1 X94.888 Y82.046 E126.64158
G1 X125.112 Y112.269 E129.67919
G1 X125.112 Y113.024 E129.73285
G1 X94.888 Y82.801 E132.77046
G1 X94.888 Y83.557 E132.82419
M73 P4 R28
G1 X125.112 Y113.78 E135.8618
G1 X125.112 Y114.535 E135.91546
G1 X94.888 Y84.312 E138.95307
G1 X94.888 Y85.068 E139.0068
G1 X125.112 Y115.291 E142.04441
G1 X125.112 Y116.046 E142.09807
G1 X94.888 Y85.823 E145.13568
G1 X94.888 Y86.579 E145.18941
G1 X125.112 Y116.802 E148.22702
G1 X125.112 Y117.557 E148.28068
G1 X94.888 Y87.334 E151.31829
G1 X94.888 Y88.089 E151.37195
G1 X125.112 Y118.313 E154.40961
G1 X125.112 Y119.068 E154.46327
G1 X94.888 Y88.845 E157.50088
G1 X94.888 Y89.6 E157.55454
G1 X125.112 Y119.823 E160.59215
G1 X125.112 Y120.579 E160.64588
G1 X94.888 Y90.356 E163.68349
G1 X94.888 Y91.111 E163.73715
G1 X125.112 Y121.334 E166.77476
G1 X125.112 Y122.09 E166.82849
G1 X94.888 Y91.867 E169.8661
G1 X94.888 Y92.622 E169.91976
G1 X125.112 Y122.845 E172.95737
G1 X125.112 Y123.601 E173.0111
M73 P5 R28
G1 X94.888 Y93.378 E176.04871
G1 X94.888 Y94.133 E176.10237
G1 X125.112 Y124.356 E179.13998
G1 X125.112 Y125.112 E179.19371
G1 X94.888 Y94.888 E182.23137
G1 X94.888 Y95.644 E182.2851
G1 X125.112 Y125.867 E185.32271
G1 X125.112 Y126.622 E185.37637
G1 X94.888 Y96.399 E188.41398
G1 X94.888 Y97.155 E188.46771
G1 X125.112 Y127.378 E191.50532
G1 X125.112 Y128.133 E191.55898
G1 X94.888 Y97.91 E194.59659
G1 X94.888 Y98.666 E194.65032
G1 X125.112 Y128.889 E197.68793
G1 X125.112 Y129.644 E197.74159
G1 X94.888 Y99.421 E200.7792
G1 X94.888 Y100.177 E200.83293
G1 X125.112 Y130.4 E203.87054
G1 X125.112 Y131.155 E203.9242
G1 X94.888 Y100.932 E206.96181
G1 X94.888 Y101.687 E207.01547
G1 X125.112 Y131.911 E210.05313
G1 X125.112 Y132.666 E210.10679
M73 P6 R28
G1 X94.888 Y102.443 E213.1444
G1 X94.888 Y103.198 E213.19806
M73 P6 R27
G1 X125.112 Y133.421 E216.23567
G1 X125.112 Y134.177 E216.2894
G1 X94.888 Y103.954 E219.32701
G1 X94.888 Y104.709 E219.38067
G1 X125.112 Y134.932 E222.41828
G1 X125.112 Y135.688 E222.47201
G1 X94.888 Y105.465 E225.50962
G1 X94.888 Y106.22 E225.56328
G1 X125.112 Y136.443 E228.60089
G1 X125.112 Y137.199 E228.65462
G1 X94.888 Y106.976 E231.69223
G1 X94.888 Y107.731 E231.74589
G1 X125.112 Y137.954 E234.7835
G1 X125.112 Y138.71 E234.83723
G1 X94.888 Y108.486 E237.87489
G1 X94.888 Y109.242 E237.92862
G1 X125.112 Y139.465 E240.96623
G1 X125.112 Y140.22 E241.01989
G1 X94.888 Y109.997 E244.0575
G1 X94.888 Y110.753 E244.11123
G1 X125.112 Y140.976 E247.14884
G1 X125.112 Y141.731 E247.2025
M73 P7 R27
G1 X94.888 Y111.508 E250.24011
G1 X94.888 Y112.264 E250.29384
G1 X125.112 Y142.487 E253.33145
G1 X125.112 Y143.242 E253.38511
G1 X94.888 Y113.019 E256.42272
G1 X94.888 Y113.775 E256.47645
G1 X125.112 Y143.998 E259.51406
G1 X125.112 Y144.753 E259.56772
G1 X94.888 Y114.53 E262.60533
G1 X94.888 Y115.285 E262.65899
G1 X125.112 Y145.509 E265.69665
G1 X125.112 Y146.264 E265.75031
G1 X94.888 Y116.041 E268.78792
G1 X94.888 Y116.796 E268.84158
G1 X125.112 Y147.019 E271.87919
G1 X125.112 Y147.775 E271.93292
G1 X94.888 Y117.552 E274.97053
G1 X94.888 Y118.307 E275.02419
G1 X125.112 Y148.53 E278.0618
G1 X125.112 Y149.286 E278.11553
G1 X94.888 Y119.063 E281.15314
G1 X94.888 Y119.818 E281.2068
G1 X125.112 Y150.041 E284.24441
G1 X125.112 Y150.797 E284.29814
G1 X94.888 Y120.574 E287.33575
G1 X94.888 Y121.329 E287.38941
M73 P8 R27
G1 X125.112 Y151.552 E290.42702
G1 X125.112 Y152.308 E290.48075
G1 X94.888 Y122.084 E293.51841
G1 X94.888 Y122.84 E293.57214
G1 X125.112 Y153.063 E296.60975
G1 X125.112 Y153.66 E296.65218
G1 X124.953 Y153.66 E296.66348
G1 X94.888 Y123.595 E299.68516
G1 X94.888 Y124.351 E299.73889
G1 X124.197 Y153.66 E302.68458
G1 X123.442 Y153.66 E302.73824
G1 X94.888 Y125.106 E305.60805
G1 X94.888 Y125.862 E305.66178
G1 X122.686 Y153.66 E308.45561
G1 X121.931 Y153.66 E308.50927
G1 X94.888 Y126.617 E311.22722
G1 X94.888 Y127.373 E311.28095
G1 X121.175 Y153.66 E313.92292
G1 X120.42 Y153.66 E313.97658
G1 X94.888 Y128.128 E316.54267
G1 X94.888 Y128.883 E316.59633
G1 X119.665 Y153.66 E319.08654
G1 X118.909 Y153.66 E319.14027
G1 X94.888 Y129.639 E321.55449
G1 X94.888 Y130.394 E321.60815
G1 X118.154 Y153.66 E323.94649
G1 X117.398 Y153.66 E324.00022
M73 P9 R27
G1 X94.888 Y131.15 E326.26258
G1 X94.888 Y131.905 E326.31624
G1 X116.643 Y153.66 E328.50272
G1 X115.887 Y153.66 E328.55645
G1 X94.888 Y132.661 E330.66695
G1 X94.888 Y133.416 E330.72061
G1 X115.132 Y153.66 E332.75523
G1 X114.376 Y153.66 E332.80896
G1 X94.888 Y134.172 E334.7676
G1 X94.888 Y134.927 E334.82126
G1 X113.621 Y153.66 E336.70402
G1 X112.866 Y153.66 E336.75768
G1 X94.888 Y135.682 E338.56455
G1 X94.888 Y136.438 E338.61828
M73 P9 R26
G1 X112.11 Y153.66 E340.34917
G1 X111.355 Y153.66 E340.40283
G1 X94.888 Y137.193 E342.05784
G1 X94.888 Y137.949 E342.11157
G1 X110.599 Y153.66 E343.6906
G1 X109.844 Y153.66 E343.74426
G1 X94.888 Y138.704 E345.24741
G1 X94.888 Y139.46 E345.30114
G1 X109.088 Y153.66 E346.72831
G1 X108.333 Y153.66 E346.78197
G1 X94.888 Y140.215 E348.13326
G1 X94.888 Y140.971 E348.18699
G1 X107.577 Y153.66 E349.46229
G1 X106.822 Y153.66 E349.51595
G1 X94.888 Y141.726 E350.71537
G1 X94.888 Y142.481 E350.76903
G1 X106.067 Y153.66 E351.89257
G1 X105.311 Y153.66 E351.9463
G1 X94.888 Y143.237 E352.99386
G1 X94.888 Y143.992 E353.04752
G1 X104.556 Y153.66 E354.0192
G1 X103.8 Y153.66 E354.07293
G1 X94.888 Y144.748 E354.96863
G1 X94.888 Y145.503 E355.02229
G1 X103.045 Y153.66 E355.84211
G1 X102.289 Y153.66 E355.89584
G1 X94.888 Y146.259 E356.63968
G1 X94.888 Y147.014 E356.69334
G1 X101.534 Y153.66 E357.36129
G1 X100.778 Y153.66 E357.41502
G1 X94.888 Y147.77 E358.00699
G1 X94.888 Y148.525 E358.06065
G1 X100.023 Y153.66 E358.57674
G1 X99.268 Y153.66 E358.6304
G1 X94.888 Y149.28 E359.07061
G1 X94.888 Y150.036 E359.12434
G1 X98.512 Y153.66 E359.48857
G1 X97.757 Y153.66 E359.54223
G1 X94.888 Y150.791 E359.83058
G1 X94.888 Y151.547 E359.88431
G1 X97.001 Y153.66 E360.09668
G1 X96.246 Y153.66 E360.15034
G1 X94.888 Y152.302 E360.28683
G1 X94.888 Y153.058 E360.34056
G1 X95.729 Y153.899 E360.42508
;WIPE_START
G1 F7200
G1 X94.888 Y153.058 E359.86014
G1 X94.888 Y152.302 E359.50104
G1 X95.001 Y152.415 E359.42508
;WIPE_END
G92 E0
G1 Z.52 F9000
G1 X125.521 Y154.069
G1 Z.32
M73 P10 R26
G1 E1 F3600
;TYPE:Perimeter
;WIDTH:0.6
G1 F1800
G1 X94.479 Y154.069 E3.1943
G1 X94.479 Y65.931 E9.4246
G1 X125.521 Y65.931 E11.6189
G1 X125.521 Y81.452 E12.71605
G1 X125.521 Y154.009 E17.84496
;WIPE_START
G1 F7200
G1 X125.521 Y154.069 E17.81646
G1 X123.476 Y154.069 E16.84496
;WIPE_END
G92 E0
G1 Z.52 F9000
G1 X126.052 Y154.6
G1 Z.32
G1 E1 F3600
;TYPE:External perimeter
G1 F1800
G1 X93.948 Y154.6 E3.26937
G1 X93.948 Y65.4 E9.57474
G1 X126.052 Y65.4 E11.84411
G1 X126.052 Y81.452 E12.97879
G1 X126.052 Y154.54 E18.14524
EXCLUDE_OBJECT_END NAME=stamp_sello_stl
M106 S255
;LAYER_CHANGE
;Z:0.52
;HEIGHT:0.2
;BEFORE_LAYER_CHANGE
;0.52


;WIPE_START
G1 F7200
G1 X126.052 Y154.6 E18.11674
G1 X124.007 Y154.6 E17.14524
;WIPE_END
G92 E0
G1 Z.52 F9000
;AFTER_LAYER_CHANGE
;0.52
M104 S205 ; set temperature
EXCLUDE_OBJECT_START NAME=stamp_sello_stl
G1 Z.72
G1 X94.637 Y65.935
G1 Z.52
G1 E1 F3600
;TYPE:Solid infill
;WIDTH:0.53634
G1 F7200
G1 X94.593 Y65.891 E1.00255
G1 X94.533 Y65.907 E1.0051
G1 X94.517 Y65.967 E1.00765
G1 X94.561 Y66.011 E1.0102
G1 X94.621 Y65.995 E1.01275
;WIDTH:0.439999
G1 X95.255 Y65.903 E1.0339
G1 X94.529 Y66.629 E1.0678
G1 X94.529 Y67.19 E1.08632
G1 X95.816 Y65.903 E1.14641
G1 X96.378 Y65.903 E1.16497
G1 X94.529 Y67.752 E1.25131
G1 X94.529 Y68.314 E1.26987
G1 X96.94 Y65.903 E1.38245
G1 X97.501 Y65.903 E1.40097
G1 X94.529 Y68.875 E1.53974
G1 X94.529 Y69.437 E1.5583
G1 X98.063 Y65.903 E1.72331
G1 X98.624 Y65.903 E1.74183
G1 X94.529 Y69.998 E1.93304
G1 X94.529 Y70.56 E1.9516
G1 X99.186 Y65.903 E2.16905
G1 X99.747 Y65.903 E2.18757
G1 X94.529 Y71.121 E2.43122
G1 X94.529 Y71.683 E2.44978
G1 X100.309 Y65.903 E2.71967
G1 X100.87 Y65.903 E2.73819
G1 X94.529 Y72.244 E3.03427
G1 X94.529 Y72.806 E3.05283
G1 X101.432 Y65.903 E3.37515
G1 X101.994 Y65.903 E3.39371
G1 X94.529 Y73.368 E3.74228
G1 X94.529 Y73.929 E3.7608
G1 X102.555 Y65.903 E4.13556
G1 X103.117 Y65.903 E4.15412
G1 X94.529 Y74.491 E4.55512
G1 X94.529 Y75.052 E4.57364
G1 X103.678 Y65.903 E5.00084
G1 X104.24 Y65.903 E5.0194
G1 X94.529 Y75.614 E5.47284
G1 X94.529 Y76.175 E5.49136
M73 P11 R26
G1 X104.801 Y65.903 E5.971
G1 X105.363 Y65.903 E5.98956
G1 X94.529 Y76.737 E6.49544
G1 X94.529 Y77.298 E6.51396
G1 X105.924 Y65.903 E7.04603
G1 X106.486 Y65.903 E7.06459
G1 X94.529 Y77.86 E7.6229
G1 X94.529 Y78.422 E7.64146
G1 X107.047 Y65.903 E8.22599
G1 X107.609 Y65.903 E8.24455
G1 X94.529 Y78.983 E8.8553
G1 X94.529 Y79.545 E8.87386
G1 X108.171 Y65.903 E9.51085
G1 X108.732 Y65.903 E9.52937
G1 X94.529 Y80.106 E10.19256
G1 X94.529 Y80.668 E10.21112
G1 X109.294 Y65.903 E10.90055
G1 X109.855 Y65.903 E10.91907
G1 X94.529 Y81.229 E11.63469
G1 X94.529 Y81.791 E11.65325
G1 X110.417 Y65.903 E12.39512
G1 X110.978 Y65.903 E12.41364
G1 X94.529 Y82.352 E13.1817
G1 X94.529 Y82.914 E13.20026
G1 X111.54 Y65.903 E13.99456
G1 X112.101 Y65.903 E14.01308
G1 X94.529 Y83.475 E14.83358
G1 X94.529 Y84.037 E14.85214
G1 X112.663 Y65.903 E15.69888
G1 X113.225 Y65.903 E15.71744
G1 X94.529 Y84.599 E16.59042
G1 X94.529 Y85.16 E16.60894
G1 X113.786 Y65.903 E17.50812
G1 X114.348 Y65.903 E17.52668
G1 X94.529 Y85.722 E18.4521
G1 X94.529 Y86.283 E18.47062
G1 X114.909 Y65.903 E19.42223
G1 X115.471 Y65.903 E19.44079
G1 X94.529 Y86.845 E20.41864
G1 X94.529 Y87.406 E20.43716
G1 X116.032 Y65.903 E21.44121
G1 X116.594 Y65.903 E21.45977
G1 X94.529 Y87.968 E22.49006
G1 X94.529 Y88.529 E22.50858
G1 X117.155 Y65.903 E23.56507
G1 X117.717 Y65.903 E23.58363
G1 X94.529 Y89.091 E24.66636
G1 X94.529 Y89.653 E24.68492
G1 X118.279 Y65.903 E25.79389
G1 X118.84 Y65.903 E25.81241
G1 X94.529 Y90.214 E26.94757
G1 X94.529 Y90.776 E26.96613
G1 X119.402 Y65.903 E28.12754
G1 X119.963 Y65.903 E28.14606
G1 X94.529 Y91.337 E29.33366
G1 X94.529 Y91.899 E29.35222
