; generated by PrusaSlicer 2.7.0+win64 on 2023-12-09 at 19:28:12 UTC
;FLAVOR:Marlin
;TIME:1882
;Filament used: 2.993900
;Layer height: 0.20
;MINX:0.000
;MINY:0.000
;MINZ:0.000
;MAXX:0.000
;MAXY:0.000
;MAXZ:0.000
;POSTPROCESSED
;Header generated for The Ender3v2 Professional Firmware
;https://github.com/mriscoc/Marlin_Ender3v2



;
;

;
;
; 

; external perimeters extrusion width = 0.42mm
; perimeters extrusion width = 0.44mm
; infill extrusion width = 0.44mm
; solid infill extrusion width = 0.44mm
; top infill extrusion width = 0.40mm
; first layer extrusion width = 0.42mm

M73 P0 R31

EXCLUDE_OBJECT_DEFINE NAME=stamp_sello_stl CENTER=110.000,110.000 POLYGON=[[126.499,154.999],[93.501,154.999],[93.501,65.001],[126.499,65.001]]

M190 S60 ; set bed temperature and wait for it to be reached
M104 S205 ; set temperature
;TYPE:Custom
START_PRINT
M109 S205 ; set temperature and wait for it to be reached
G21 ; set units to millimeters
G90 ; use absolute coordinates
M82 ; use absolute distances for extrusion
G92 E0
; Filament gcode
M107
;LAYER_CHANGE
;Z:0.32
;HEIGHT:0.32
;BEFORE_LAYER_CHANGE
;0.32


G1 E-1 F3600
G92 E0
G1 Z.32 F9000
;AFTER_LAYER_CHANGE
;0.32
G1 X90.592 Y63.424
G1 E1 F3600
;TYPE:Skirt/Brim
;WIDTH:0.42
G1 F1800
G1 X91.681 Y62.218 E1.07595
G1 X93.549 Y61.65 E1.16721
G1 X126.451 Y61.65 E2.70508
G1 X128.028 Y62.044 E2.78106
G1 X129.234 Y63.133 E2.85701
G1 X129.802 Y65.001 E2.94827
G1 X129.802 Y154.999 E7.15485
G1 X129.408 Y156.576 E7.23083
G1 X128.319 Y157.782 E7.30678
G1 X126.451 Y158.35 E7.39804
G1 X93.549 Y158.35 E8.93591
G1 X91.972 Y157.956 E9.01189
G1 X90.766 Y156.867 E9.08784
G1 X90.198 Y154.999 E9.1791
G1 X90.198 Y65.001 E13.38568
G1 X90.577 Y63.483 E13.45881
EXCLUDE_OBJECT_START NAME=stamp_sello_stl
;WIPE_START
G1 F7200
G1 X90.592 Y63.424 E13.42989
G1 X91.681 Y62.218 E12.65805
G1 X92.082 Y62.096 E12.45881
;WIPE_END
G92 E0
G1 Z.52 F9000
G1 X124.966 Y65.775
G1 Z.32
G1 E1 F3600
;TYPE:Solid infill
;WIDTH:0.420394
G1 F1800
G1 X125.519 Y66.328 E1.0366
G1 X125.519 Y66.825 E1.05986
G1 X124.627 Y65.933 E1.11889
G1 X124.13 Y65.933 E1.14215
G1 X125.519 Y67.323 E1.2341
G1 X125.519 Y67.82 E1.25736
G1 X123.632 Y65.933 E1.38223
G1 X123.135 Y65.933 E1.40549
G1 X125.519 Y68.317 E1.56325
G1 X125.519 Y68.815 E1.58655
G1 X122.637 Y65.933 E1.77727
G1 X122.14 Y65.933 E1.80053
G1 X125.519 Y69.312 E2.02414
G1 X125.519 Y69.81 E2.04744
G1 X121.643 Y65.933 E2.30397
G1 X121.145 Y65.933 E2.32727
G1 X125.519 Y70.307 E2.61672
G1 X125.519 Y70.804 E2.63998
G1 X120.648 Y65.933 E2.96232
G1 X120.15 Y65.933 E2.98562
G1 X125.519 Y71.302 E3.34092
G1 X125.519 Y71.799 E3.36418
G1 X119.653 Y65.933 E3.75237
G1 X119.156 Y65.933 E3.77563
G1 X125.519 Y72.297 E4.19674
G1 X125.519 Y72.794 E4.22
G1 X118.658 Y65.933 E4.67403
G1 X118.161 Y65.933 E4.69729
G1 X125.519 Y73.291 E5.18421
G1 X125.519 Y73.789 E5.20751
G1 X117.663 Y65.933 E5.72738
G1 X117.166 Y65.933 E5.75064
G1 X125.519 Y74.286 E6.3034
G1 X125.519 Y74.784 E6.3267
G1 X116.668 Y65.933 E6.91242
G1 X116.171 Y65.933 E6.93568
G1 X125.519 Y75.281 E7.55429
G1 X125.519 Y75.778 E7.57755
G1 X115.674 Y65.933 E8.22905
G1 X115.176 Y65.933 E8.25235
G1 X125.519 Y76.276 E8.9368
G1 X125.519 Y76.773 E8.96006
G1 X114.679 Y65.933 E9.6774
G1 X114.181 Y65.933 E9.7007
G1 X125.519 Y77.271 E10.451
G1 X125.519 Y77.768 E10.47426
G1 X113.684 Y65.933 E11.25745
G1 X113.187 Y65.933 E11.28071
G1 X125.519 Y78.266 E12.09682
G1 X125.519 Y78.763 E12.12008
G1 X112.689 Y65.933 E12.96911
G1 X112.192 Y65.933 E12.99237
G1 X125.519 Y79.26 E13.87429
G1 X125.519 Y79.758 E13.89759
M73 P1 R31
G1 X111.694 Y65.933 E14.81247
G1 X111.197 Y65.933 E14.83573
G1 X125.519 Y80.255 E15.7835
G1 X125.519 Y80.753 E15.8068
G1 X110.7 Y65.933 E16.78749
G1 X110.202 Y65.933 E16.81079
G1 X125.519 Y81.25 E17.8244
G1 X125.519 Y81.747 E17.84766
G1 X109.705 Y65.933 E18.89416
G1 X109.207 Y65.933 E18.91746
M73 P1 R30
G1 X125.519 Y82.245 E19.99691
G1 X125.519 Y82.742 E20.02017
G1 X108.71 Y65.933 E21.13251
G1 X108.213 Y65.933 E21.15577
G1 X125.519 Y83.24 E22.30104
G1 X125.519 Y83.737 E22.3243
G1 X107.715 Y65.933 E23.50249
G1 X107.218 Y65.933 E23.52575
G1 X125.519 Y84.234 E24.73683
G1 X125.519 Y84.732 E24.76013
G1 X106.72 Y65.933 E26.00416
G1 X106.223 Y65.933 E26.02742
G1 X125.519 Y85.229 E27.30434
G1 X125.519 Y85.727 E27.32764
G1 X105.725 Y65.933 E28.63752
G1 X105.228 Y65.933 E28.66078
G1 X125.519 Y86.224 E30.00355
G1 X125.519 Y86.721 E30.02681
G1 X104.731 Y65.933 E31.40247
G1 X104.233 Y65.933 E31.42577
G1 X125.519 Y87.219 E32.83438
G1 X125.519 Y87.716 E32.85764
G1 X103.736 Y65.933 E34.29914
G1 X103.238 Y65.933 E34.32244
G1 X125.519 Y88.214 E35.7969
G1 X125.519 Y88.711 E35.82016
G1 X102.741 Y65.933 E37.32751
G1 X102.244 Y65.933 E37.35077
G1 X125.519 Y89.209 E38.89104
G1 X125.519 Y89.706 E38.9143
G1 X101.746 Y65.933 E40.48749
G1 X101.249 Y65.933 E40.51075
M73 P2 R30
G1 X125.519 Y90.203 E42.11683
G1 X125.519 Y90.701 E42.14013
G1 X100.751 Y65.933 E43.77916
G1 X100.254 Y65.933 E43.80242
G1 X125.519 Y91.198 E45.47434
G1 X125.519 Y91.696 E45.49764
G1 X99.757 Y65.933 E47.20249
G1 X99.259 Y65.933 E47.22579
G1 X125.519 Y92.193 E48.96356
G1 X125.519 Y92.69 E48.98682
G1 X98.762 Y65.933 E50.75748
G1 X98.264 Y65.933 E50.78078
G1 X125.519 Y93.188 E52.58439
G1 X125.519 Y93.685 E52.60765
G1 X97.767 Y65.933 E54.44415
G1 X97.27 Y65.933 E54.46741
G1 X125.519 Y94.183 E56.33683
G1 X125.519 Y94.68 E56.36009
G1 X96.772 Y65.933 E58.26244
G1 X96.275 Y65.933 E58.2857
G1 X125.519 Y95.177 E60.22094
G1 X125.519 Y95.675 E60.24424
G1 X95.777 Y65.933 E62.21243
G1 X95.28 Y65.933 E62.23569
G1 X125.519 Y96.172 E64.23677
G1 X125.519 Y96.67 E64.26007
G1 X94.782 Y65.933 E66.29411
G1 X94.481 Y65.933 E66.30819
G1 X94.481 Y66.128 E66.31731
G1 X125.519 Y97.167 E68.3713
M73 P3 R30
G1 X125.519 Y97.664 E68.39456
G1 X94.481 Y66.626 E70.44852
G1 X94.481 Y67.123 E70.47178
G1 X125.519 Y98.162 E72.52577
G1 X125.519 Y98.659 E72.54903
G1 X94.481 Y67.621 E74.60299
G1 X94.481 Y68.118 E74.62625
G1 X125.519 Y99.157 E76.68024
G1 X125.519 Y99.654 E76.7035
G1 X94.481 Y68.615 E78.75749
G1 X94.481 Y69.113 E78.78079
G1 X125.519 Y100.151 E80.83475
G1 X125.519 Y100.649 E80.85805
G1 X94.481 Y69.61 E82.91204
G1 X94.481 Y70.108 E82.93534
G1 X125.519 Y101.146 E84.9893
G1 X125.519 Y101.644 E85.0126
G1 X94.481 Y70.605 E87.06659
G1 X94.481 Y71.103 E87.08989
G1 X125.519 Y102.141 E89.14385
G1 X125.519 Y102.639 E89.16715
G1 X94.481 Y71.6 E91.22114
G1 X94.481 Y72.097 E91.2444
G1 X125.519 Y103.136 E93.29839
G1 X125.519 Y103.633 E93.32165
M73 P4 R30
G1 X94.481 Y72.595 E95.37561
G1 X94.481 Y73.092 E95.39887
G1 X125.519 Y104.131 E97.45286
G1 X125.519 Y104.628 E97.47612
G1 X94.481 Y73.59 E99.53008
G1 X94.481 Y74.087 E99.55334
G1 X125.519 Y105.126 E101.60733
G1 X125.519 Y105.623 E101.63059
G1 X94.481 Y74.584 E103.68458
G1 X94.481 Y75.082 E103.70788
M73 P4 R29
G1 X125.519 Y106.12 E105.76184
G1 X125.519 Y106.618 E105.78514
G1 X94.481 Y75.579 E107.83913
G1 X94.481 Y76.077 E107.86243
G1 X125.519 Y107.115 E109.91639
G1 X125.519 Y107.613 E109.93969
G1 X94.481 Y76.574 E111.99368
G1 X94.481 Y77.071 E112.01694
G1 X125.519 Y108.11 E114.07093
G1 X125.519 Y108.607 E114.09419
G1 X94.481 Y77.569 E116.14815
G1 X94.481 Y78.066 E116.17141
G1 X125.519 Y109.105 E118.2254
G1 X125.519 Y109.602 E118.24866
G1 X94.481 Y78.564 E120.30262
G1 X94.481 Y79.061 E120.32588
M73 P5 R29
G1 X125.519 Y110.1 E122.37987
G1 X125.519 Y110.597 E122.40313
G1 X94.481 Y79.558 E124.45712
G1 X94.481 Y80.056 E124.48042
G1 X125.519 Y111.094 E126.53438
G1 X125.519 Y111.592 E126.55768
G1 X94.481 Y80.553 E128.61167
G1 X94.481 Y81.051 E128.63497
G1 X125.519 Y112.089 E130.68893
G1 X125.519 Y112.587 E130.71223
G1 X94.481 Y81.548 E132.76622
G1 X94.481 Y82.046 E132.78952
G1 X125.519 Y113.084 E134.84348
G1 X125.519 Y113.582 E134.86678
G1 X94.481 Y82.543 E136.92077
G1 X94.481 Y83.04 E136.94403
G1 X125.519 Y114.079 E138.99802
G1 X125.519 Y114.576 E139.02128
G1 X94.481 Y83.538 E141.07524
G1 X94.481 Y84.035 E141.0985
G1 X125.519 Y115.074 E143.15249
G1 X125.519 Y115.571 E143.17575
G1 X94.481 Y84.533 E145.22971
G1 X94.481 Y85.03 E145.25297
G1 X125.519 Y116.069 E147.30696
G1 X125.519 Y116.566 E147.33022
M73 P6 R29
G1 X94.481 Y85.527 E149.38421
G1 X94.481 Y86.025 E149.40751
G1 X125.519 Y117.063 E151.46147
G1 X125.519 Y117.561 E151.48477
G1 X94.481 Y86.522 E153.53876
G1 X94.481 Y87.02 E153.56206
G1 X125.519 Y118.058 E155.61602
G1 X125.519 Y118.556 E155.63932
G1 X94.481 Y87.517 E157.69331
G1 X94.481 Y88.014 E157.71657
G1 X125.519 Y119.053 E159.77056
G1 X125.519 Y119.55 E159.79382
G1 X94.481 Y88.512 E161.84778
G1 X94.481 Y89.009 E161.87104
G1 X125.519 Y120.048 E163.92503
G1 X125.519 Y120.545 E163.94829
G1 X94.481 Y89.507 E166.00225
G1 X94.481 Y90.004 E166.02551
G1 X125.519 Y121.043 E168.0795
G1 X125.519 Y121.54 E168.10276
G1 X94.481 Y90.501 E170.15675
G1 X94.481 Y90.999 E170.18005
G1 X125.519 Y122.037 E172.23401
G1 X125.519 Y122.535 E172.25731
M73 P7 R29
G1 X94.481 Y91.496 E174.3113
G1 X94.481 Y91.994 E174.3346
G1 X125.519 Y123.032 E176.38856
G1 X125.519 Y123.53 E176.41186
G1 X94.481 Y92.491 E178.46585
G1 X94.481 Y92.989 E178.48915
G1 X125.519 Y124.027 E180.54311
G1 X125.519 Y124.525 E180.56641
G1 X94.481 Y93.486 E182.6204
G1 X94.481 Y93.983 E182.64366
G1 X125.519 Y125.022 E184.69765
G1 X125.519 Y125.519 E184.72091
G1 X94.481 Y94.481 E186.77487
G1 X94.481 Y94.978 E186.79813
G1 X125.519 Y126.017 E188.85212
G1 X125.519 Y126.514 E188.87538
M73 P7 R28
G1 X94.481 Y95.476 E190.92934
G1 X94.481 Y95.973 E190.9526
G1 X125.519 Y127.012 E193.00659
G1 X125.519 Y127.509 E193.02985
G1 X94.481 Y96.47 E195.08384
G1 X94.481 Y96.968 E195.10714
G1 X125.519 Y128.006 E197.1611
G1 X125.519 Y128.504 E197.1844
G1 X94.481 Y97.465 E199.23839
G1 X94.481 Y97.963 E199.26169
M73 P8 R28
G1 X125.519 Y129.001 E201.31565
G1 X125.519 Y129.499 E201.33895
G1 X94.481 Y98.46 E203.39294
G1 X94.481 Y98.957 E203.4162
G1 X125.519 Y129.996 E205.47019
G1 X125.519 Y130.493 E205.49345
G1 X94.481 Y99.455 E207.54741
G1 X94.481 Y99.952 E207.57067
G1 X125.519 Y130.991 E209.62466
G1 X125.519 Y131.488 E209.64792
G1 X94.481 Y100.45 E211.70188
G1 X94.481 Y100.947 E211.72514
G1 X125.519 Y131.986 E213.77913
G1 X125.519 Y132.483 E213.80239
G1 X94.481 Y101.444 E215.85638
G1 X94.481 Y101.942 E215.87968
G1 X125.519 Y132.98 E217.93364
G1 X125.519 Y133.478 E217.95694
G1 X94.481 Y102.439 E220.01093
G1 X94.481 Y102.937 E220.03423
G1 X125.519 Y133.975 E222.08819
G1 X125.519 Y134.473 E222.11149
G1 X94.481 Y103.434 E224.16548
G1 X94.481 Y103.932 E224.18878
G1 X125.519 Y134.97 E226.24274
G1 X125.519 Y135.468 E226.26604
M73 P9 R28
G1 X94.481 Y104.429 E228.32003
G1 X94.481 Y104.926 E228.34329
G1 X125.519 Y135.965 E230.39728
G1 X125.519 Y136.462 E230.42054
G1 X94.481 Y105.424 E232.4745
G1 X94.481 Y105.921 E232.49776
G1 X125.519 Y136.96 E234.55175
G1 X125.519 Y137.457 E234.57501
G1 X94.481 Y106.419 E236.62897
G1 X94.481 Y106.916 E236.65223
G1 X125.519 Y137.955 E238.70622
G1 X125.519 Y138.452 E238.72948
G1 X94.481 Y107.413 E240.78347
G1 X94.481 Y107.911 E240.80677
G1 X125.519 Y138.949 E242.86073
G1 X125.519 Y139.447 E242.88403
G1 X94.481 Y108.408 E244.93802
G1 X94.481 Y108.906 E244.96132
G1 X125.519 Y139.944 E247.01528
G1 X125.519 Y140.442 E247.03858
G1 X94.481 Y109.403 E249.09257
G1 X94.481 Y109.9 E249.11583
G1 X125.519 Y140.939 E251.16982
G1 X125.519 Y141.436 E251.19308
G1 X94.481 Y110.398 E253.24704
G1 X94.481 Y110.895 E253.2703
M73 P10 R28
G1 X125.519 Y141.934 E255.32429
G1 X125.519 Y142.431 E255.34755
G1 X94.481 Y111.393 E257.40151
G1 X94.481 Y111.89 E257.42477
G1 X125.519 Y142.929 E259.47876
G1 X125.519 Y143.426 E259.50202
G1 X94.481 Y112.387 E261.55601
G1 X94.481 Y112.885 E261.57931
G1 X125.519 Y143.923 E263.63327
G1 X125.519 Y144.421 E263.65657
G1 X94.481 Y113.382 E265.71056
G1 X94.481 Y113.88 E265.73386
G1 X125.519 Y144.918 E267.78782
G1 X125.519 Y145.416 E267.81112
G1 X94.481 Y114.377 E269.86511
G1 X94.481 Y114.874 E269.88837
G1 X125.519 Y145.913 E271.94236
G1 X125.519 Y146.41 E271.96562
M73 P10 R27
G1 X94.481 Y115.372 E274.01958
G1 X94.481 Y115.869 E274.04284
G1 X125.519 Y146.908 E276.09683
G1 X125.519 Y147.405 E276.12009
G1 X94.481 Y116.367 E278.17405
G1 X94.481 Y116.864 E278.19731
M73 P11 R27
G1 X125.519 Y147.903 E280.2513
G1 X125.519 Y148.4 E280.27456
G1 X94.481 Y117.362 E282.32852
G1 X94.481 Y117.859 E282.35178
G1 X125.519 Y148.898 E284.40577
G1 X125.519 Y149.395 E284.42903
G1 X94.481 Y118.356 E286.48302
G1 X94.481 Y118.854 E286.50632
G1 X125.519 Y149.892 E288.56028
G1 X125.519 Y150.39 E288.58358
G1 X94.481 Y119.351 E290.63757
G1 X94.481 Y119.849 E290.66087
G1 X125.519 Y150.887 E292.71483
G1 X125.519 Y151.385 E292.73813
G1 X94.481 Y120.346 E294.79212
G1 X94.481 Y120.843 E294.81538
G1 X125.519 Y151.882 E296.86937
G1 X125.519 Y152.379 E296.89263
G1 X94.481 Y121.341 E298.94659
G1 X94.481 Y121.838 E298.96985
G1 X125.519 Y152.877 E301.02384
G1 X125.519 Y153.374 E301.0471
G1 X94.481 Y122.336 E303.10106
G1 X94.481 Y122.833 E303.12432
G1 X125.519 Y153.872 E305.17831
G1 X125.519 Y154.067 E305.18743
M73 P12 R27
G1 X125.217 Y154.067 E305.20156
G1 X94.481 Y123.33 E307.23556
G1 X94.481 Y123.828 E307.25886
G1 X124.72 Y154.067 E309.25994
G1 X124.223 Y154.067 E309.2832
G1 X94.481 Y124.325 E311.25139
G1 X94.481 Y124.823 E311.27469
G1 X123.725 Y154.067 E313.20993
G1 X123.228 Y154.067 E313.23319
G1 X94.481 Y125.32 E315.13554
G1 X94.481 Y125.817 E315.1588
G1 X122.73 Y154.067 E317.02822
G1 X122.233 Y154.067 E317.05148
G1 X94.481 Y126.315 E318.88798
G1 X94.481 Y126.812 E318.91124
G1 X121.736 Y154.067 E320.71485
G1 X121.238 Y154.067 E320.73815
G1 X94.481 Y127.31 E322.50881
G1 X94.481 Y127.807 E322.53207
G1 X120.741 Y154.067 E324.26984
G1 X120.243 Y154.067 E324.29314
G1 X94.481 Y128.305 E325.99795
G1 X94.481 Y128.802 E326.02121
G1 X119.746 Y154.067 E327.69313
G1 X119.248 Y154.067 E327.71643
G1 X94.481 Y129.299 E329.35543
G1 X94.481 Y129.797 E329.37873
G1 X118.751 Y154.067 E330.98481
G1 X118.254 Y154.067 E331.00807
M73 P13 R27
G1 X94.481 Y130.294 E332.58126
G1 X94.481 Y130.792 E332.60456
G1 X117.756 Y154.067 E334.14479
G1 X117.259 Y154.067 E334.16805
G1 X94.481 Y131.289 E335.6754
G1 X94.481 Y131.786 E335.69866
G1 X116.761 Y154.067 E337.17308
G1 X116.264 Y154.067 E337.19634
G1 X94.481 Y132.284 E338.63784
G1 X94.481 Y132.781 E338.6611
G1 X115.767 Y154.067 E340.06971
G1 X115.269 Y154.067 E340.09301
G1 X94.481 Y133.279 E341.46867
G1 X94.481 Y133.776 E341.49193
G1 X114.772 Y154.067 E342.8347
G1 X114.274 Y154.067 E342.858
G1 X94.481 Y134.273 E344.16784
G1 X94.481 Y134.771 E344.19114
G1 X113.777 Y154.067 E345.46806
G1 X113.28 Y154.067 E345.49132
G1 X94.481 Y135.268 E346.73535
G1 X94.481 Y135.766 E346.75865
G1 X112.782 Y154.067 E347.96973
G1 X112.285 Y154.067 E347.99299
G1 X94.481 Y136.263 E349.17118
G1 X94.481 Y136.76 E349.19444
G1 X111.787 Y154.067 E350.33971
G1 X111.29 Y154.067 E350.36297
G1 X94.481 Y137.258 E351.47531
G1 X94.481 Y137.755 E351.49857
G1 X110.793 Y154.067 E352.57802
G1 X110.295 Y154.067 E352.60132
G1 X94.481 Y138.253 E353.64782
G1 X94.481 Y138.75 E353.67108
G1 X109.798 Y154.067 E354.68469
G1 X109.3 Y154.067 E354.70799
G1 X94.481 Y139.248 E355.68864
G1 X94.481 Y139.745 E355.7119
M73 P13 R26
G1 X108.803 Y154.067 E356.65967
G1 X108.306 Y154.067 E356.68293
G1 X94.481 Y140.242 E357.59781
G1 X94.481 Y140.74 E357.62111
M73 P14 R26
G1 X107.808 Y154.067 E358.50303
G1 X107.311 Y154.067 E358.52629
G1 X94.481 Y141.237 E359.37532
G1 X94.481 Y141.735 E359.39862
G1 X106.813 Y154.067 E360.2147
G1 X106.316 Y154.067 E360.23796
G1 X94.481 Y142.232 E361.02115
G1 X94.481 Y142.729 E361.04441
G1 X105.818 Y154.067 E361.79467
