; generated by PrusaSlicer 2.7.0+win64 on 2023-11-28 at 19:26:47 UTC
;FLAVOR:Marlin
;TIME:218
;Filament used: 0.245040
;Layer height: 0.20
;MINX:0.000
;MINY:0.000
;MINZ:0.000
;MAXX:0.000
;MAXY:0.000
;MAXZ:0.000
;POSTPROCESSED
;Header generated for The Ender3v2 Professional Firmware
;https://github.com/mriscoc/Marlin_Ender3v2



;
;

;
;
; 

; external perimeters extrusion width = 0.42mm
; perimeters extrusion width = 0.44mm
; infill extrusion width = 0.44mm
; solid infill extrusion width = 0.44mm
; top infill extrusion width = 0.40mm
; first layer extrusion width = 0.42mm

M73 P0 R3

; printing object base_top id:0 copy 0
; stop printing object base_top id:0 copy 0

M190 S60 ; set bed temperature and wait for it to be reached
M104 S202 ; set temperature
;TYPE:Custom
START_PRINT
M109 S202 ; set temperature and wait for it to be reached
G21 ; set units to millimeters
G90 ; use absolute coordinates
M82 ; use absolute distances for extrusion
G92 E0
; Filament gcode
M107
;LAYER_CHANGE
;Z:0.32
;HEIGHT:0.32
;BEFORE_LAYER_CHANGE
;0.32


G1 E-2 F4800
G92 E0
G1 Z.32 F9000
;AFTER_LAYER_CHANGE
;0.32
G1 X93.272 Y97.954
G1 E2 F4800
;TYPE:Skirt/Brim
;WIDTH:0.42
G1 F1800
G1 X95.138 Y96.587 E2.10812
G1 X97.238 Y95.484 E2.21899
G1 X99.224 Y94.776 E2.31754
G1 X101.49 Y94.311 E2.42566
G1 X103.859 Y94.183 E2.53655
G1 X105.479 Y94.3 E2.61247
G1 X107.137 Y94.597 E2.6912
G1 X108.673 Y95.04 E2.76592
G1 X110.442 Y95.771 E2.85539
G1 X126.458 Y103.94 E3.69574
G1 X128.136 Y105.081 E3.79059
G1 X129.489 Y106.391 E3.87862
M73 P1 R3
G1 X130.153 Y107.227 E3.92852
G1 X130.735 Y108.122 E3.97842
G1 X131.335 Y109.296 E4.04004
G1 X131.718 Y110.293 E4.08996
G1 X132.005 Y111.321 E4.13985
G1 X132.195 Y112.372 E4.18977
G1 X132.288 Y113.541 E4.24458
G1 X132.268 Y114.609 E4.29451
G1 X132.148 Y115.67 E4.34442
G1 X131.928 Y116.715 E4.39433
G1 X131.611 Y117.735 E4.44425
G1 X131.09 Y118.946 E4.50587
G1 X130.567 Y119.877 E4.55578
G1 X129.895 Y120.838 E4.61059
G1 X129.2 Y121.648 E4.66048
G1 X128.432 Y122.39 E4.71039
G1 X127.096 Y123.398 E4.78862
G1 X125.759 Y124.139 E4.86007
G1 X124.196 Y124.735 E4.93826
G1 X122.457 Y125.11 E5.02141
G1 X121.34 Y125.205 E5.07381
G1 X104.193 Y125.807 E5.87577
G1 X102.666 Y125.797 E5.94714
G1 X101.076 Y125.63 E6.02187
G1 X99.51 Y125.302 E6.09665
G1 X97.986 Y124.818 E6.17139
G1 X96.518 Y124.183 E6.24615
G1 X95.122 Y123.403 E6.32089
G1 X93.812 Y122.486 E6.39563
G1 X92.601 Y121.442 E6.47036
G1 X91.502 Y120.28 E6.54512
G1 X90.256 Y118.611 E6.64247
G1 X89.107 Y116.507 E6.75452
G1 X88.289 Y114.253 E6.8666
G1 X87.832 Y111.985 E6.97474
M73 P2 R3
G1 X87.712 Y109.616 E7.08561
G1 X87.903 Y107.516 E7.18417
G1 X88.432 Y105.265 E7.29225
G1 X89.185 Y103.323 E7.38961
G1 X90.312 Y101.303 E7.49773
G1 X91.762 Y99.424 E7.60867
G1 X93.229 Y97.996 E7.70436
; printing object base_top id:0 copy 0
;WIPE_START
G1 F7200
G1 X93.272 Y97.954 E7.66629
G1 X95.138 Y96.587 E6.2013
G1 X95.833 Y96.222 E5.70436
;WIPE_END
G92 E0
G1 Z.52 F9000
G1 X126.989 Y109.92
G1 Z.32
G1 E2 F4800
;TYPE:Solid infill
;WIDTH:0.423062
G1 F1800
G1 X125.764 Y108.696 E2.08165
G1 X125.278 Y108.28 E2.11181
G1 X124.54 Y107.779 E2.15387
G1 X124.145 Y107.577 E2.17479
G1 X127.225 Y110.658 E2.38019
G1 X127.428 Y111.054 E2.40117
G1 X127.615 Y111.549 E2.42612
G1 X123.254 Y107.188 E2.7169
G1 X122.705 Y107.017 E2.74401
G1 X122.556 Y106.991 E2.75114
G1 X127.822 Y112.257 E3.10226
G1 X127.936 Y112.872 E3.13175
G1 X121.949 Y106.886 E3.53091
G1 X121.596 Y106.824 E3.54781
G1 X121.373 Y106.811 E3.55834
G1 X127.989 Y113.426 E3.99944
G1 X128.001 Y113.939 E4.02363
M73 P3 R3
G1 X120.84 Y106.778 E4.50111
G1 X120.283 Y106.723 E4.5275
G1 X127.982 Y114.422 E5.04085
G1 X127.933 Y114.874 E5.06229
G1 X119.7 Y106.64 E5.61128
G1 X119.079 Y106.521 E5.64109
G1 X127.854 Y115.296 E6.22618
G1 X127.759 Y115.702 E6.24584
G1 X118.414 Y106.357 E6.86894
G1 X117.689 Y106.134 E6.9047
M73 P4 R3
G1 X127.637 Y116.081 E7.56797
G1 X127.513 Y116.458 E7.58668
G1 X116.879 Y105.825 E8.2957
G1 X116.404 Y105.615 E8.32019
G1 X115.909 Y105.356 E8.34653
G1 X127.358 Y116.805 E9.10992
G1 X127.196 Y117.144 E9.12763
G1 X114.658 Y104.606 E9.96363
G1 X113.847 Y104.001 E10.01133
M73 P5 R3
G1 X113.834 Y104.013 E10.01216
G1 X114.172 Y104.622 E10.045
G1 X121.331 Y111.78 E10.52231
G1 X120.788 Y111.738 E10.54799
G1 X114.592 Y105.542 E10.96112
G1 X114.875 Y106.327 E11.00046
G1 X120.358 Y111.81 E11.36605
G1 X120.013 Y111.966 E11.3839
G1 X115.081 Y107.034 E11.71275
G1 X115.228 Y107.682 E11.74408
G1 X119.687 Y112.141 E12.04139
G1 X119.422 Y112.377 E12.05812
G1 X115.332 Y108.287 E12.33083
G1 X115.4 Y108.856 E12.35785
G1 X119.195 Y112.651 E12.61089
G1 X119.121 Y112.751 E12.61676
G1 X119.018 Y112.975 E12.62838
G1 X115.437 Y109.394 E12.86715
G1 X115.454 Y109.913 E12.89163
G1 X118.885 Y113.344 E13.1204
G1 X118.822 Y113.654 E13.13531
M73 P6 R3
G1 X118.818 Y113.778 E13.14116
G1 X115.294 Y110.254 E13.37613
;WIPE_START
G1 F7200
G1 X117.527 Y112.487 E11.37613
;WIPE_END
G92 E0
G1 Z.52 F9000
G1 X122.809 Y113.258
G1 Z.32
G1 E2 F4800
G1 F1800
G1 X127.014 Y117.463 E2.28038
G1 X126.821 Y117.772 E2.29756
G1 X123.055 Y114.005 E2.5487
G1 X123.044 Y114.219 E2.5588
G1 X122.988 Y114.439 E2.5695
G1 X126.615 Y118.067 E2.81137
G1 X126.536 Y118.179 E2.81783
G1 X126.394 Y118.347 E2.8282
G1 X122.841 Y114.794 E3.06511
G1 X122.76 Y114.969 E3.0742
G1 X122.662 Y115.116 E3.08253
G1 X126.164 Y118.618 E3.31603
G1 X125.909 Y118.864 E3.33274
G1 X122.416 Y115.371 E3.56564
G1 X122.237 Y115.555 E3.57774
G1 X122.151 Y115.607 E3.58248
G1 X125.647 Y119.103 E3.81558
G1 X125.385 Y119.343 E3.83233
G1 X121.836 Y115.793 E4.069
G1 X121.678 Y115.855 E4.077
G1 X121.449 Y115.908 E4.08808
G1 X125.105 Y119.563 E4.33182
G1 X124.811 Y119.771 E4.3488
G1 X120.862 Y115.821 E4.61214
;WIPE_START
G1 F7200
G1 X123.095 Y118.054 E2.61214
;WIPE_END
G92 E0
G1 Z.52 F9000
M73 P7 R3
G1 X124.614 Y120.075
G1 Z.32
G1 E2 F4800
G1 F1800
G1 X120.473 Y115.934 E2.27611
G1 X119.914 Y115.729 E2.30418
G1 X119.539 Y115.467 E2.32575
G1 X119.241 Y115.145 E2.34644
G1 X118.991 Y114.721 E2.36965
G1 X118.869 Y114.33 E2.38896
G1 X115.423 Y110.884 E2.61873
G1 X115.382 Y111.344 E2.6405
G1 X124.18 Y120.142 E3.22713
G1 X123.836 Y120.3 E3.24498
G1 X115.316 Y111.78 E3.81307
G1 X115.249 Y112.214 E3.83377
G1 X123.486 Y120.451 E4.38299
G1 X123.114 Y120.58 E4.40155
G1 X115.162 Y112.627 E4.9318
G1 X115.065 Y113.032 E4.95144
G1 X122.728 Y120.695 E5.46239
G1 X122.318 Y120.786 E5.48219
M73 P8 R3
G1 X114.954 Y113.422 E5.9732
G1 X114.833 Y113.802 E5.992
G1 X121.893 Y120.862 E6.46274
G1 X121.426 Y120.897 E6.48482
G1 X114.705 Y114.175 E6.93299
G1 X114.56 Y114.532 E6.95116
G1 X120.956 Y120.927 E7.3776
G1 X120.432 Y120.905 E7.40233
G1 X114.409 Y114.882 E7.80393
G1 X114.246 Y115.22 E7.82162
G1 X119.872 Y120.846 E8.19675
G1 X119.231 Y120.706 E8.22768
M73 P9 R3
G1 X114.082 Y115.557 E8.571
G1 X113.905 Y115.881 E8.58841
G1 X118.497 Y120.474 E8.89463
G1 X117.714 Y120.191 E8.93388
G1 X113.722 Y116.199 E9.20006
G1 X113.525 Y116.504 E9.21718
G1 X116.957 Y119.936 E9.44602
G1 X116.275 Y119.755 E9.47929
G1 X113.325 Y116.805 E9.67599
G1 X113.111 Y117.092 E9.69287
G1 X115.645 Y119.626 E9.86183
G1 X115.045 Y119.527 E9.8905
G1 X112.897 Y117.379 E10.03372
G1 X112.674 Y117.657 E10.05052
G1 X114.483 Y119.466 E10.17114
G1 X113.948 Y119.433 E10.19641
G1 X112.443 Y117.927 E10.29679
G1 X112.202 Y118.187 E10.3135
G1 X113.434 Y119.42 E10.39568
G1 X112.939 Y119.426 E10.41902
G1 X111.957 Y118.444 E10.4845
G1 X111.697 Y118.685 E10.50121
G1 X112.466 Y119.454 E10.55248
G1 X112.009 Y119.498 E10.57413
G1 X111.436 Y118.925 E10.61234
G1 X111.17 Y119.16 E10.62907
G1 X111.565 Y119.556 E10.65544
G1 X111.136 Y119.627 E10.67594
G1 X110.892 Y119.383 E10.69221
G1 X110.607 Y119.6 E10.7091
G1 X110.854 Y119.847 E10.72557
;WIPE_START
G1 F7200
G1 X110.607 Y119.6 E10.50434
G1 X110.892 Y119.383 E10.27747
G1 X111.136 Y119.627 E10.05893
G1 X111.565 Y119.556 E9.78353
G1 X111.17 Y119.16 E9.42929
G1 X111.436 Y118.925 E9.2045
G1 X111.971 Y119.46 E8.72557
;WIPE_END
G92 E0
G1 Z.52 F9000
G1 X121.561 Y115.599
G1 Z.32
G1 E2 F4800
;TYPE:Perimeter
;WIDTH:0.42
G1 F1800
G1 X121.179 Y115.702 E2.01849
G1 X120.663 Y115.701 E2.04261
G1 X120.145 Y115.537 E2.06801
G1 X119.713 Y115.259 E2.09202
G1 X119.449 Y114.968 E2.11038
G1 X119.232 Y114.595 E2.13055
G1 X119.13 Y114.264 E2.14674
G1 X119.086 Y113.722 E2.17216
G1 X119.189 Y113.241 E2.19515
G1 X119.375 Y112.858 E2.21505
G1 X119.58 Y112.595 E2.23064
G1 X119.946 Y112.294 E2.25279
G1 X120.433 Y112.07 E2.27785
G1 X120.95 Y112.004 E2.30221
G1 X121.452 Y112.071 E2.32588
M73 P10 R3
G1 X121.913 Y112.273 E2.34941
G1 X122.179 Y112.474 E2.36499
G1 X122.467 Y112.796 E2.38518
G1 X122.628 Y113.079 E2.4004
G1 X122.764 Y113.488 E2.42055
G1 X122.79 Y113.975 E2.44335
G1 X122.705 Y114.453 E2.46604
G1 X122.482 Y114.906 E2.48964
G1 X122.136 Y115.282 E2.51352
G1 X121.696 Y115.562 E2.5379
G1 X121.619 Y115.583 E2.54163
;WIPE_START
G1 F7200
G1 X121.561 Y115.599 E2.50352
G1 X121.179 Y115.702 E2.25295
G1 X120.663 Y115.701 E1.92615
G1 X120.145 Y115.537 E1.58203
G1 X119.713 Y115.259 E1.25667
G1 X119.449 Y114.968 E1.00783
G1 X119.232 Y114.595 E.73453
G1 X119.142 Y114.304 E.54163
;WIPE_END
G92 E0
G1 Z.52 F9000
G1 X121.569 Y115.214
G1 Z.32
G1 E2 F4800
;TYPE:External perimeter
G1 F1800
G1 X121.467 Y115.267 E2.00537
G1 X121.043 Y115.366 E2.02572
G1 X120.669 Y115.344 E2.04323
G1 X120.213 Y115.182 E2.06585
G1 X119.805 Y114.85 E2.09044
G1 X119.563 Y114.476 E2.11126
G1 X119.479 Y114.228 E2.1235
G1 X119.435 Y113.759 E2.14552
G1 X119.509 Y113.386 E2.16329
G1 X119.659 Y113.065 E2.17985
G1 X119.816 Y112.856 E2.19207
G1 X120.098 Y112.611 E2.20953
G1 X120.538 Y112.407 E2.2322
G1 X120.933 Y112.356 E2.25082
G1 X121.388 Y112.419 E2.27229
G1 X121.717 Y112.565 E2.28911
G1 X121.924 Y112.715 E2.30106
G1 X122.25 Y113.114 E2.32514
G1 X122.417 Y113.538 E2.34644
G1 X122.439 Y113.953 E2.36586
G1 X122.357 Y114.387 E2.3865
G1 X122.178 Y114.725 E2.40438
G1 X121.841 Y115.073 E2.42702
G1 X121.623 Y115.186 E2.4385
;WIPE_START
G1 F7200
G1 X121.569 Y115.214 E2.39998
G1 X121.467 Y115.267 E2.32718
G1 X121.043 Y115.366 E2.05142
G1 X120.669 Y115.344 E1.81414
G1 X120.213 Y115.182 E1.50766
G1 X119.805 Y114.85 E1.17452
G1 X119.563 Y114.476 E.89239
G1 X119.479 Y114.228 E.72656
G1 X119.437 Y113.776 E.4385
;WIPE_END
G92 E0
G1 Z.52 F9000
G1 X109.249 Y120.291
G1 Z.32
G1 E2 F4800
;TYPE:Perimeter
;WIDTH:0.652597
G1 F1800
G1 X109.305 Y120.232 E2.00632
;WIDTH:0.606349
G1 X109.361 Y120.174 E2.01209
;WIDTH:0.560102
G1 X109.417 Y120.116 E2.01736
;WIDTH:0.513854
G1 X109.473 Y120.058 E2.02214
;WIDTH:0.467607
G1 X109.529 Y119.999 E2.02646
;WIDTH:0.42136
G1 X110.059 Y119.661 E2.05596
;WIDTH:0.42
G1 X110.757 Y119.145 E2.09653
G1 X111.261 Y118.718 E2.12741
G1 X111.755 Y118.264 E2.15877
G1 X112.189 Y117.808 E2.18819
G1 X112.602 Y117.324 E2.21793
G1 X113.16 Y116.573 E2.26166
G1 X113.5 Y116.044 E2.29105
G1 X113.933 Y115.246 E2.33349
G1 X114.232 Y114.625 E2.36571
G1 X114.457 Y114.065 E2.39392
G1 X114.668 Y113.445 E2.42453
G1 X114.916 Y112.491 E2.4706
G1 X115.119 Y111.266 E2.52864
G1 X115.168 Y110.693 E2.55552
G1 X115.188 Y110.057 E2.58526
G1 X115.156 Y109.122 E2.62899
G1 X115.091 Y108.496 E2.65841
G1 X114.994 Y107.875 E2.68779
G1 X114.862 Y107.26 E2.71719
G1 X114.698 Y106.653 E2.74658
G1 X114.447 Y105.916 E2.78297
G1 X114.211 Y105.337 E2.81219
G1 X113.872 Y104.617 E2.84939
G1 X113.566 Y104.067 E2.87881
G1 X113.248 Y103.558 E2.90686
;WIDTH:0.465756
G1 X113.209 Y103.464 E2.91224
;WIDTH:0.511512
G1 X113.17 Y103.369 E2.91829
;WIDTH:0.557268
G1 X113.131 Y103.275 E2.92491
;WIDTH:0.603024
G1 X113.093 Y103.181 E2.93212
;WIDTH:0.64878
G1 X113.054 Y103.087 E2.93997
G1 X113.137 Y103.133 E2.94729
;WIDTH:0.603024
G1 X113.22 Y103.179 E2.95404
;WIDTH:0.557268
G1 X113.303 Y103.224 E2.96018
;WIDTH:0.511512
G1 X113.386 Y103.27 E2.96577
;WIDTH:0.465756
G1 X113.469 Y103.316 E2.97078
;WIDTH:0.42
G1 X114.087 Y103.85 E3.00896
G1 X114.595 Y104.236 E3.03878
G1 X115.26 Y104.679 E3.07613
G1 X115.796 Y104.993 E3.10517
G1 X116.516 Y105.369 E3.14314
G1 X117.1 Y105.626 E3.17296
G1 X117.697 Y105.853 E3.20281
G1 X118.304 Y106.048 E3.23261
G1 X118.921 Y106.211 E3.26244
G1 X119.546 Y106.342 E3.29229
G1 X120.176 Y106.441 E3.3221
G1 X120.806 Y106.506 E3.3517
G1 X121.627 Y106.555 E3.39014
G1 X122.619 Y106.728 E3.43721
G1 X123.209 Y106.882 E3.46571
G1 X123.855 Y107.126 E3.49799
G1 X124.678 Y107.546 E3.54118
G1 X125.442 Y108.065 E3.58435
G1 X125.964 Y108.511 E3.61644
G1 X126.445 Y109.006 E3.6487
G1 X126.876 Y109.545 E3.68096
G1 X127.254 Y110.118 E3.71305
G1 X127.675 Y110.945 E3.75643
G1 X127.873 Y111.466 E3.78248
G1 X128.025 Y111.975 E3.80731
G1 X128.149 Y112.525 E3.83366
G1 X128.234 Y113.097 E3.86069
G1 X128.274 Y113.749 E3.89122
G1 X128.266 Y114.31 E3.91744
G1 X128.191 Y114.997 E3.94974
G1 X128.053 Y115.669 E3.98181
G1 X127.775 Y116.535 E4.02432
G1 X127.487 Y117.179 E4.05729
G1 X127.146 Y117.779 E4.08955
G1 X126.751 Y118.344 E4.12177
G1 X126.309 Y118.864 E4.15367
M73 P11 R3
G1 X125.449 Y119.651 E4.20816
G1 X124.892 Y120.045 E4.24005
G1 X124.293 Y120.389 E4.27234
G1 X123.665 Y120.675 E4.30459
G1 X123.126 Y120.862 E4.33126
G1 X122.571 Y121.016 E4.35818
G1 X121.891 Y121.137 E4.39046
G1 X120.965 Y121.199 E4.43384
G1 X120.399 Y121.175 E4.46032
G1 X119.831 Y121.114 E4.48702
G1 X118.927 Y120.916 E4.53028
G1 X117.086 Y120.254 E4.62172
G1 X116.472 Y120.078 E4.65157
G1 X115.844 Y119.933 E4.6817
G1 X114.907 Y119.779 E4.72608
G1 X114.271 Y119.718 E4.75594
G1 X113.634 Y119.689 E4.78574
G1 X112.996 Y119.694 E4.81556
G1 X112.359 Y119.732 E4.84539
G1 X111.453 Y119.848 E4.88808
G1 X110.842 Y119.965 E4.91716
G1 X110.157 Y120.126 E4.95005
;WIDTH:0.42136
G1 X109.66 Y120.282 E4.97449
;WIDTH:0.467607
G1 X109.578 Y120.283 E4.97884
;WIDTH:0.513854
G1 X109.496 Y120.285 E4.9837
;WIDTH:0.560102
G1 X109.413 Y120.287 E4.98913
;WIDTH:0.606349
G1 X109.331 Y120.289 E4.995
;WIDTH:0.652597
G1 X109.309 Y120.289 E4.99671
;WIPE_START
G1 F7200
G1 X109.249 Y120.291 E4.95869
G1 X109.305 Y120.232 E4.90717
;WIPE_END
G1 E2.99671 F4800
G92 E0
G1 Z.52 F9000
G1 X103.447 Y122.159
G1 Z.32
G1 E2 F4800
;TYPE:External perimeter
;WIDTH:0.42
G1 F1800
G1 X102.833 Y122.14 E2.02871
G1 X102.22 Y122.089 E2.05746
G1 X101.611 Y122.008 E2.08618
G1 X101.008 Y121.896 E2.11485
G1 X100.111 Y121.67 E2.15809
G1 X99.527 Y121.483 E2.18675
G1 X98.953 Y121.266 E2.21543
G1 X98.11 Y120.886 E2.25865
G1 X97.568 Y120.599 E2.28732
G1 X97.04 Y120.284 E2.31606
G1 X96.528 Y119.943 E2.34481
G1 X96.035 Y119.577 E2.37351
G1 X95.56 Y119.186 E2.40227
G1 X95.107 Y118.772 E2.43095
G1 X94.466 Y118.108 E2.47409
G1 X93.878 Y117.398 E2.51718
G1 X93.345 Y116.646 E2.56026
G1 X92.871 Y115.855 E2.60336
G1 X92.458 Y115.031 E2.64644
G1 X92.108 Y114.177 E2.68958
G1 X91.825 Y113.3 E2.73265
G1 X91.613 Y112.426 E2.77469
G1 X91.502 Y111.799 E2.80445
G1 X91.4 Y110.882 E2.84758
G1 X91.368 Y109.96 E2.8907
G1 X91.406 Y109.039 E2.93378
G1 X91.514 Y108.123 E2.97689
G1 X91.691 Y107.219 E3.01995
G1 X91.936 Y106.33 E3.06305
G1 X92.247 Y105.462 E3.10615
G1 X92.623 Y104.62 E3.14925
G1 X93.062 Y103.809 E3.19235
G1 X93.561 Y103.034 E3.23543
G1 X94.118 Y102.299 E3.27853
G1 X94.729 Y101.608 E3.32164
G1 X95.39 Y100.966 E3.36471
G1 X96.098 Y100.375 E3.40782
G1 X96.848 Y99.84 E3.45088
G1 X97.637 Y99.363 E3.49397
G1 X98.461 Y98.947 E3.53711
G1 X99.313 Y98.595 E3.5802
G1 X100.189 Y98.308 E3.62329
G1 X101.084 Y98.089 E3.66636
G1 X101.994 Y97.938 E3.70948
G1 X102.912 Y97.856 E3.75256
G1 X103.812 Y97.844 E3.79463
G1 X104.448 Y97.876 E3.82439
G1 X105.06 Y97.938 E3.85314
G1 X105.666 Y98.03 E3.88179
