; generated by PrusaSlicer 2.7.0+win64 on 2023-12-11 at 18:26:54 UTC
;FLAVOR:Marlin
;TIME:1436
;Filament used: 2.969370
;Layer height: 0.20
;MINX:0.000
;MINY:0.000
;MINZ:0.000
;MAXX:0.000
;MAXY:0.000
;MAXZ:0.000
;POSTPROCESSED
;Header generated for The Ender3v2 Professional Firmware
;https://github.com/mriscoc/Marlin_Ender3v2



;
;

;
;
; 

; external perimeters extrusion width = 0.42mm
; perimeters extrusion width = 0.44mm
; infill extrusion width = 0.44mm
; solid infill extrusion width = 0.44mm
; top infill extrusion width = 0.40mm
; support material extrusion width = 0.36mm
; first layer extrusion width = 0.42mm

M73 P0 R23

EXCLUDE_OBJECT_DEFINE NAME=Ender_3_Cellphone_Webcam_Mount_stl CENTER=139.381,120.899 POLYGON=[[166.514,91.308],[175.630,91.453],[175.631,91.353],[181.074,91.440],[180.883,103.438],[178.933,103.407],[178.359,139.502],[180.208,139.532],[180.018,151.530],[165.019,151.292],[165.334,131.540],[164.941,131.532],[162.394,128.957],[160.445,128.966],[160.447,126.989],[159.419,125.949],[92.430,124.884],[92.462,122.884],[40.469,122.057],[40.548,117.057],[68.545,117.503],[68.577,115.503],[159.588,116.951],[160.458,116.066],[160.460,114.082],[162.417,114.073],[164.916,111.532],[165.652,111.547],[165.974,91.299]]

M190 S60 ; set bed temperature and wait for it to be reached
M104 S205 ; set temperature
;TYPE:Custom
START_PRINT
M109 S205 ; set temperature and wait for it to be reached
G21 ; set units to millimeters
G90 ; use absolute coordinates
M82 ; use absolute distances for extrusion
G92 E0
; Filament gcode
M107
;LAYER_CHANGE
;Z:0.32
;HEIGHT:0.32
;BEFORE_LAYER_CHANGE
;0.32


G1 E-1 F4800
G92 E0
G1 Z.32 F9000
;AFTER_LAYER_CHANGE
;0.32
G1 X39.818 Y113.787
G1 E1 F4800
;TYPE:Skirt/Brim
;WIDTH:0.42
G1 F3000
G1 X167.256 Y85.327 E7.10328
G1 X178.961 Y83.599 E7.65631
G1 X180.568 Y83.545 E7.73146
G1 X181.883 Y83.759 E7.79373
G1 X182.73 Y84.036 E7.83538
G1 X184.206 Y84.826 E7.91363
G1 X185.466 Y85.931 E7.99196
G1 X185.949 Y86.522 E8.02764
G1 X186.77 Y87.956 E8.10487
G1 X187.245 Y89.479 E8.17944
G1 X188.759 Y99.683 E8.6616
G1 X188.899 Y101.164 E8.73113
G1 X187.704 Y151.89 E11.10276
G1 X187.578 Y153.1 E11.15962
G1 X187.086 Y154.737 E11.23952
G1 X186.262 Y156.168 E11.3167
G1 X185.778 Y156.759 E11.35241
G1 X185.133 Y157.385 E11.39442
G1 X184.078 Y158.132 E11.45484
G1 X183.02 Y158.658 E11.51007
G1 X182.165 Y158.935 E11.55208
G1 X181.416 Y159.086 E11.58779
G1 X179.808 Y159.151 E11.66301
G1 X171.731 Y158.151 E12.04342
G1 X168.813 Y157.473 E12.18344
G1 X39.659 Y125.309 E18.40458
G1 X38.224 Y124.545 E18.48057
G1 X37.317 Y123.197 E18.55651
G1 X37.118 Y122.003 E18.61309
G1 X37.197 Y117.004 E18.84678
G1 X37.616 Y115.434 E18.92273
G1 X38.725 Y114.245 E18.99873
G1 X39.763 Y113.81 E19.05134
EXCLUDE_OBJECT_START NAME=Ender_3_Cellphone_Webcam_Mount_stl
;WIPE_START
G1 F7200
G1 X39.818 Y113.787 E19.01358
G1 X41.301 Y113.456 E18.05134
;WIPE_END
G92 E0
G1 Z.52 F9000
G1 X180.363 Y86.89
G1 Z.32
G1 E1 F4800
;TYPE:Support material
G1 F3000
G1 X180.843 Y86.945 E1.02258
G1 X181.69 Y87.221 E1.06422
G1 X182.473 Y87.695 E1.107
G1 X183.128 Y88.333 E1.14974
G1 X183.62 Y89.099 E1.19229
G1 X183.93 Y89.971 E1.23555
G1 X184.034 Y90.875 E1.27808
G1 X183.929 Y91.784 E1.32085
G1 X183.702 Y92.422 E1.3525
G1 X184.149 Y93.501 E1.40709
G1 X184.254 Y94.411 E1.44991
G1 X184.149 Y95.321 E1.49273
G1 X183.842 Y96.183 E1.5355
G1 X183.501 Y96.714 E1.565
G1 X183.856 Y97.27 E1.59583
G1 X184.135 Y98.049 E1.63451
G1 X184.641 Y98.541 E1.6675
G1 X185.136 Y99.312 E1.71033
G1 X185.444 Y100.174 E1.75312
G1 X185.549 Y101.085 E1.79598
G1 X185.445 Y101.989 E1.83851
G1 X185.133 Y102.862 E1.88184
G1 X184.641 Y103.628 E1.92439
G1 X183.911 Y104.311 E1.97112
G1 X183.82 Y105.107 E2.00857
G1 X183.512 Y105.971 E2.05144
G1 X183.015 Y106.743 E2.09435
G1 X182.367 Y107.371 E2.13653
G1 X181.777 Y107.732 E2.16886
G1 X181.871 Y108.486 E2.20438
G1 X181.76 Y109.385 E2.24672
G1 X181.588 Y109.829 E2.26898
G1 X181.833 Y110.463 E2.30075
G1 X181.943 Y111.362 E2.34308
G1 X181.832 Y112.262 E2.38547
G1 X181.504 Y113.107 E2.42784
G1 X181.286 Y113.415 E2.44548
G1 X181.396 Y114.302 E2.48726
G1 X181.285 Y115.201 E2.5296
G1 X181.065 Y115.769 E2.55807
G1 X181.278 Y116.323 E2.58581
G1 X181.389 Y117.221 E2.6281
G1 X181.278 Y118.12 E2.67044
G1 X181.032 Y118.757 E2.70236
G1 X181.231 Y119.273 E2.72821
G1 X181.342 Y120.171 E2.7705
G1 X181.232 Y121.07 E2.81283
G1 X181.007 Y121.651 E2.84195
G1 X181.221 Y122.205 E2.86971
G1 X181.333 Y123.103 E2.91201
G1 X181.168 Y124.14 E2.96109
G1 X181.913 Y124.778 E3.00694
G1 X182.428 Y125.508 E3.0487
G1 X182.755 Y126.353 E3.09105
G1 X182.866 Y127.252 E3.13339
G1 X182.755 Y128.152 E3.17578
G1 X182.428 Y128.997 E3.21813
G1 X181.905 Y129.737 E3.26048
G1 X181.403 Y130.168 E3.29141
G1 X181.891 Y130.588 E3.3215
G1 X182.414 Y131.328 E3.36385
G1 X182.741 Y132.174 E3.40624
G1 X182.852 Y133.073 E3.44858
G1 X182.741 Y133.972 E3.49092
G1 X182.414 Y134.818 E3.53331
G1 X181.795 Y135.693 E3.58341
G1 X182.32 Y136.2 E3.61752
G1 X182.818 Y136.97 E3.66038
G1 X183.128 Y137.833 E3.70324
G1 X183.234 Y138.743 E3.74606
G1 X183.131 Y139.654 E3.78891
G1 X182.854 Y140.436 E3.82769
G1 X183.237 Y141.035 E3.86092
G1 X183.544 Y141.898 E3.90373
G1 X183.646 Y142.808 E3.94653
G1 X183.54 Y143.718 E3.98935
G1 X183.18 Y144.659 E4.03644
G1 X183.406 Y145.293 E4.0679
G1 X183.511 Y146.203 E4.11072
G1 X183.406 Y147.114 E4.15358
G1 X183.252 Y147.547 E4.17506
G1 X183.503 Y148.252 E4.21004
G1 X183.607 Y149.162 E4.25285
G1 X183.572 Y149.462 E4.26697
G1 X183.942 Y150.038 E4.29897
G1 X184.249 Y150.901 E4.34178
G1 X184.353 Y151.811 E4.38459
G1 X184.249 Y152.716 E4.42717
G1 X184.097 Y153.15 E4.44866
G1 X183.937 Y153.589 E4.4705
G1 X183.444 Y154.354 E4.51304
G1 X182.799 Y154.98 E4.55505
G1 X181.987 Y155.47 E4.59938
G1 X181.131 Y155.747 E4.64143
G1 X180.219 Y155.825 E4.68421
G1 X179.313 Y155.694 E4.727
G1 X178.337 Y155.278 E4.77659
G1 X177.807 Y155.384 E4.80185
G1 X176.929 Y155.359 E4.84291
G1 X176.056 Y155.113 E4.8853
G1 X175.746 Y154.935 E4.90201
G1 X175.351 Y155.042 E4.92114
G1 X174.425 Y155.016 E4.96444
G1 X173.494 Y154.709 E5.01026
G1 X173.114 Y154.817 E5.02872
G1 X172.142 Y154.825 E5.07415
G1 X171.526 Y154.669 E5.10385
G1 X170.779 Y154.221 E5.14456
G1 X169.622 Y154.221 E5.19864
G1 X169.206 Y153.836 E5.22513
G1 X168.16 Y153.648 E5.2748
G1 X167.207 Y153.008 E5.32846
G1 X166.869 Y152.331 E5.36383
G1 X168.175 Y152.352 E5.42488
G1 X169.162 Y90.34 E8.32374
G1 X166.536 Y90.298 E8.4465
G1 X167.053 Y89.264 E8.50053
G1 X167.986 Y88.598 E8.55411
G1 X169.23 Y88.522 E8.61236
G1 X169.411 Y88.435 E8.62175
G1 X170.198 Y88.435 E8.65853
G1 X171.084 Y88.23 E8.70104
G1 X171.413 Y88.287 E8.71665
G1 X171.647 Y88.147 E8.7294
G1 X172.539 Y87.968 E8.77192
G1 X173.377 Y88.074 E8.8114
G1 X174.357 Y87.699 E8.86044
G1 X175.349 Y87.666 E8.90683
G1 X175.613 Y87.737 E8.91961
G1 X176.465 Y87.43 E8.96194
G1 X177.362 Y87.349 E9.00404
G1 X177.953 Y87.448 E9.03205
G1 X179.008 Y86.991 E9.08579
G1 X179.913 Y86.863 E9.12851
G1 X180.31 Y86.887 E9.1471
G1 X185.052 Y102.624 F9000
G1 F3000
G1 X185.052 Y100.016 E9.269
G1 X184.851 Y99.452 E9.29699
G1 X184.55 Y98.984 E9.323
G1 X184.55 Y103.185 E9.51936
G1 X184.048 Y103.763 E9.55514
G1 X184.048 Y98.406 E9.80553
G1 X183.862 Y98.225 E9.81766
G1 X183.546 Y97.371 E9.86022
G1 X183.546 Y104.717 E10.20358
G1 X183.51 Y105.035 E10.21854
G1 X183.226 Y105.83 E10.258
G1 X183.044 Y106.113 E10.27373
G1 X183.044 Y88.787 E11.08356
G1 X182.542 Y88.204 E11.11952
G1 X182.542 Y106.761 E11.98689
G1 X182.04 Y107.203 E12.01815
M73 P1 R23
G1 X182.04 Y87.803 E12.92492
G1 X181.538 Y87.505 E12.95221
G1 X181.538 Y108.595 E13.93797
G1 X181.451 Y109.307 E13.9715
G1 X181.249 Y109.829 E13.99766
G1 X181.538 Y110.661 E14.03883
G1 X181.538 Y112.581 E14.12857
;WIPE_START
G1 F7200
G1 X181.538 Y111.002 E13.12857
;WIPE_END
G92 E0
G1 Z.52 F9000
G1 X183.546 Y153.904
G1 Z.32
G1 E1 F4800
G1 F3000
G1 X183.546 Y149.714 E1.19584
;WIPE_START
G1 F7200
G1 X183.546 Y151.293 E.19584
;WIPE_END
G92 E0
G1 Z.52 F9000
G1 X183.546 Y96.351
G1 Z.32
G1 E1 F4800
G1 F3000
G1 X183.546 Y92.764 E1.16766
G1 X183.352 Y92.462 E1.18444
G1 X183.546 Y91.918 E1.21144
G1 X183.546 Y89.359 E1.33105
;WIPE_START
G1 F7200
G1 X183.546 Y90.938 E.33105
;WIPE_END
G92 E0
G1 Z.52 F9000
G1 X183.044 Y154.522
G1 Z.32
G1 E1 F4800
G1 F3000
G1 X183.044 Y145.22 E1.43478
G1 X182.83 Y144.619 E1.4646
G1 X183.044 Y144.164 E1.4881
G1 X183.044 Y141.026 E1.63477
G1 X182.542 Y154.955 F9000
G1 F3000
G1 X182.542 Y137.138 E2.46755
G1 X182.04 Y136.369 E2.51047
G1 X182.04 Y155.074 E3.38476
G1 X181.538 Y155.283 E3.41018
G1 X181.538 Y130.702 E4.55912
G1 X182.04 Y131.347 E4.59732
G1 X182.04 Y135.072 E4.77143
;WIPE_START
G1 F7200
G1 X182.04 Y133.493 E3.77143
;WIPE_END
G92 E0
G1 Z.52 F9000
G1 X182.542 Y128.263
G1 Z.32
G1 E1 F4800
G1 F3000
G1 X182.542 Y127.209 E1.04926
G1 X182.446 Y126.43 E1.08595
G1 X182.04 Y125.506 E1.13312
G1 X182.04 Y128.998 E1.29634
G1 X181.538 Y129.635 E1.33425
G1 X181.538 Y124.869 E1.55702
G1 X181.037 Y124.442 E1.58779
G1 X181.037 Y155.438 E3.03657
G1 X180.535 Y155.481 E3.06012
G1 X180.535 Y87.228 E6.25032
G1 X180.033 Y87.187 E6.27386
G1 X180.033 Y155.479 E9.46588
G1 X179.531 Y155.406 E9.48959
G1 X179.531 Y87.223 E12.67652
G1 X179.029 Y87.318 E12.7004
G1 X179.029 Y155.244 E15.87531
G1 X178.527 Y155.024 E15.90093
G1 X178.527 Y87.505 E19.05682
G1 X178.025 Y87.776 E19.08348
G1 X178.025 Y155.021 E22.22656
G1 X177.523 Y155.059 E22.25009
G1 X177.523 Y87.697 E25.39864
G1 X177.35 Y87.668 E25.40684
M73 P2 R23
G1 X177.021 Y87.697 E25.42228
G1 X177.021 Y155.045 E28.57018
G1 X176.52 Y154.915 E28.59437
G1 X176.52 Y87.746 E31.7339
G1 X176.018 Y87.927 E31.75884
G1 X176.018 Y154.727 E34.88112
G1 X175.79 Y154.596 E34.89341
G1 X175.516 Y154.67 E34.90668
G1 X175.516 Y88.038 E38.02111
G1 X175.308 Y87.982 E38.03118
G1 X175.014 Y87.982 E38.04492
G1 X175.014 Y154.716 E41.16412
G1 X174.512 Y154.702 E41.18759
G1 X174.512 Y88.004 E44.30511
G1 X174.01 Y88.147 E44.32951
G1 X174.01 Y154.546 E47.43305
G1 X173.508 Y154.381 E47.45775
G1 X173.508 Y88.369 E50.5432
G1 X173.436 Y88.419 E50.5473
G1 X173.006 Y88.324 E50.56788
G1 X173.006 Y154.509 E53.66142
G1 X172.504 Y154.541 E53.68493
G1 X172.504 Y88.298 E56.78118
G1 X172.002 Y88.398 E56.8051
G1 X172.002 Y154.464 E59.89308
G1 X171.649 Y154.374 E59.91011
M73 P3 R23
G1 X171.501 Y154.285 E59.91818
G1 X171.501 Y88.604 E62.98816
G1 X170.999 Y88.574 E63.01167
G1 X170.999 Y153.984 E66.06898
G1 X170.867 Y153.905 E66.07617
G1 X170.497 Y153.905 E66.09346
G1 X170.497 Y88.69 E69.14166
G1 X169.995 Y88.751 E69.1653
G1 X169.995 Y153.905 E72.21065
G1 X169.746 Y153.905 E72.22229
G1 X169.493 Y153.67 E72.23843
G1 X169.493 Y88.751 E75.2728
G1 X169.244 Y88.866 E75.28562
G1 X168.991 Y88.813 E75.2977
G1 X168.991 Y90.021 E75.35416
G1 X168.489 Y90.013 E75.37763
G1 X168.489 Y88.864 E75.43134
G1 X168.102 Y88.904 E75.44953
G1 X167.987 Y88.986 E75.45613
G1 X167.987 Y90.005 E75.50376
G1 X167.485 Y89.997 E75.52723
G1 X167.485 Y89.15 E75.56682
;WIPE_START
G1 F7200
G1 X167.485 Y89.997 E75.03039
G1 X167.987 Y90.005 E74.71242
G1 X167.987 Y89.775 E74.56682
;WIPE_END
G92 E0
G1 Z.52 F9000
G1 X181.037 Y118.306
G1 Z.32
G1 E1 F4800
G1 F3000
G1 X181.037 Y116.945 E1.06361
G1 X180.969 Y116.4 E1.08928
G1 X180.726 Y115.769 E1.12088
G1 X180.976 Y115.123 E1.15326
G1 X181.037 Y114.63 E1.17648
G1 X181.037 Y87.174 E2.4598
G1 X168.991 Y153.59 F9000
G1 F3000
G1 X168.991 Y120.952 E3.98533
G1 X168.489 Y153.369 E5.50071
G1 X168.273 Y153.343 E5.51088
G1 X167.987 Y153.151 E5.52698
G1 X167.987 Y152.665 E5.5497
G1 X167.485 Y152.657 E5.57317
G1 X167.485 Y153.005 E5.58944
;WIPE_START
G1 F7200
G1 X167.485 Y152.657 E5.36904
G1 X167.987 Y152.665 E5.05107
G1 X167.987 Y153.151 E4.74327
G1 X168.189 Y153.287 E4.58944
;WIPE_END
G92 E0
G1 Z.52 F9000
G1 X164.723 Y151.396
G1 Z.32
G1 E1 F4800
;TYPE:Support material interface
;WIDTH:0.36
G1 F3000
G1 X164.715 Y151.928 E1.02062
G1 X165.428 Y151.94 E1.04826
G1 X164.726 Y151.238 E1.08674
G1 X164.737 Y150.518 E1.11465
G1 X166.171 Y151.952 E1.19325
G1 X166.914 Y151.963 E1.22205
G1 X164.749 Y149.798 E1.34072
G1 X164.76 Y149.078 E1.36863
G1 X167.657 Y151.975 E1.52742
G1 X167.813 Y151.978 E1.53347
G1 X167.822 Y151.409 E1.55553
G1 X164.772 Y148.359 E1.72271
G1 X164.783 Y147.639 E1.75062
G1 X167.833 Y150.689 E1.9178
G1 X167.845 Y149.969 E1.94571
G1 X164.794 Y146.919 E2.11292
G1 X164.806 Y146.199 E2.14083
G1 X167.856 Y149.249 E2.30801
G1 X167.867 Y148.529 E2.33592
G1 X164.817 Y145.479 E2.5031
G1 X164.829 Y144.76 E2.53097
G1 X167.879 Y147.81 E2.69815
G1 X167.89 Y147.09 E2.72606
G1 X164.84 Y144.04 E2.89324
G1 X164.852 Y143.32 E2.92115
G1 X167.902 Y146.37 E3.08833
G1 X167.913 Y145.65 E3.11624
G1 X164.863 Y142.6 E3.28342
G1 X164.875 Y141.88 E3.31133
G1 X167.925 Y144.93 E3.47851
G1 X167.936 Y144.211 E3.50638
G1 X164.886 Y141.161 E3.67356
G1 X164.898 Y140.441 E3.70147
G1 X167.948 Y143.491 E3.86865
G1 X167.959 Y142.771 E3.89656
G1 X164.909 Y139.721 E4.06374
G1 X164.92 Y139.001 E4.09165
G1 X167.97 Y142.051 E4.25883
G1 X167.982 Y141.331 E4.28674
G1 X164.932 Y138.281 E4.45392
G1 X164.943 Y137.561 E4.48183
G1 X167.993 Y140.612 E4.64904
G1 X168.005 Y139.892 E4.67695
G1 X164.955 Y136.842 E4.84413
G1 X164.966 Y136.122 E4.87204
G1 X168.016 Y139.172 E5.03922
G1 X168.028 Y138.452 E5.06713
G1 X164.978 Y135.402 E5.23431
G1 X164.989 Y134.682 E5.26222
G1 X168.039 Y137.732 E5.4294
G1 X168.051 Y137.012 E5.45731
G1 X165.001 Y133.962 E5.62449
G1 X165.012 Y133.243 E5.65236
G1 X168.062 Y136.293 E5.81954
G1 X168.074 Y135.573 E5.84745
G1 X165.024 Y132.523 E6.01463
G1 X165.035 Y131.803 E6.04254
G1 X168.085 Y134.853 E6.20972
G1 X168.096 Y134.133 E6.23763
G1 X165.212 Y131.248 E6.39574
G1 X165.731 Y131.036 E6.41747
G1 X168.108 Y133.413 E6.54776
G1 X168.119 Y132.694 E6.57563
G1 X165.95 Y130.525 E6.69452
G1 X165.963 Y129.806 E6.72239
G1 X168.131 Y131.974 E6.84122
G1 X168.142 Y131.254 E6.86913
G1 X165.975 Y129.087 E6.98791
G1 X165.987 Y128.368 E7.01578
G1 X168.154 Y130.534 E7.13453
G1 X168.165 Y129.814 E7.16244
G1 X165.999 Y127.649 E7.28114
G1 X166.012 Y126.93 E7.30901
G1 X168.177 Y129.095 E7.42768
G1 X168.188 Y128.375 E7.45559
G1 X166.024 Y126.21 E7.57423
G1 X166.036 Y125.491 E7.6021
G1 X168.2 Y127.655 E7.72071
G1 X168.211 Y126.935 E7.74862
G1 X166.048 Y124.772 E7.86718
G1 X166.06 Y124.053 E7.89505
G1 X168.222 Y126.215 E8.01355
G1 X168.234 Y125.496 E8.04142
G1 X166.073 Y123.334 E8.1599
G1 X166.085 Y122.615 E8.18777
G1 X168.245 Y124.776 E8.30619
G1 X168.257 Y124.056 E8.3341
G1 X166.097 Y121.896 E8.4525
G1 X166.109 Y121.177 E8.48037
G1 X168.268 Y123.336 E8.59871
M73 P3 R22
G1 X168.28 Y122.616 E8.62662
G1 X166.121 Y120.458 E8.74493
G1 X166.134 Y119.739 E8.7728
G1 X168.291 Y121.896 E8.89103
G1 X168.303 Y121.177 E8.9189
G1 X166.146 Y119.02 E9.03713
G1 X166.158 Y118.301 E9.065
G1 X168.314 Y120.457 E9.18318
G1 X168.325 Y119.737 E9.21109
G1 X166.17 Y117.582 E9.32921
G1 X166.183 Y116.863 E9.35708
G1 X168.337 Y119.017 E9.47515
G1 X168.348 Y118.297 E9.50306
M73 P4 R22
G1 X166.195 Y116.144 E9.62107
G1 X166.207 Y115.425 E9.64894
G1 X168.36 Y117.578 E9.76695
G1 X168.371 Y116.858 E9.79486
G1 X166.219 Y114.706 E9.91282
G1 X166.231 Y113.987 E9.94069
G1 X168.383 Y116.138 E10.05862
G1 X168.394 Y115.418 E10.08653
G1 X166.244 Y113.268 E10.20438
G1 X166.256 Y112.549 E10.23225
G1 X168.406 Y114.698 E10.35007
G1 X168.417 Y113.979 E10.37794
G1 X165.367 Y110.929 E10.54512
G1 X165.379 Y110.209 E10.57303
G1 X168.429 Y113.259 E10.74021
G1 X168.44 Y112.539 E10.76812
G1 X165.39 Y109.489 E10.9353
G1 X165.401 Y108.769 E10.96321
G1 X168.451 Y111.819 E11.13039
G1 X168.463 Y111.099 E11.1583
