; generated by PrusaSlicer 2.7.0+win64 on 2023-12-01 at 23:40:35 UTC
;FLAVOR:Marlin
;TIME:548
;Filament used: 1.173360
;Layer height: 0.20
;MINX:0.000
;MINY:0.000
;MINZ:0.000
;MAXX:0.000
;MAXY:0.000
;MAXZ:0.000
;POSTPROCESSED
;Header generated for The Ender3v2 Professional Firmware
;https://github.com/mriscoc/Marlin_Ender3v2



;
;

;
;
; 

; external perimeters extrusion width = 0.42mm
; perimeters extrusion width = 0.44mm
; infill extrusion width = 0.44mm
; solid infill extrusion width = 0.44mm
; top infill extrusion width = 0.40mm
; first layer extrusion width = 0.42mm

M73 P0 R9

EXCLUDE_OBJECT_DEFINE NAME=Erics_Rail_mount_2_stl CENTER=110.000,108.737 POLYGON=[[117.500,119.000],[113.000,119.000],[113.000,121.000],[115.500,121.000],[115.500,122.000],[112.500,125.000],[107.500,125.000],[104.500,122.000],[104.500,121.000],[107.000,121.000],[107.000,119.000],[102.500,119.000],[102.500,95.000],[117.500,95.000]]

M190 S60 ; set bed temperature and wait for it to be reached
M104 S202 ; set temperature
;TYPE:Custom
START_PRINT
M109 S202 ; set temperature and wait for it to be reached
G21 ; set units to millimeters
G90 ; use absolute coordinates
M82 ; use absolute distances for extrusion
G92 E0
; Filament gcode
M107
;LAYER_CHANGE
;Z:0.32
;HEIGHT:0.32
;BEFORE_LAYER_CHANGE
;0.32


G1 E-2 F4800
G92 E0
G1 Z.32 F9000
;AFTER_LAYER_CHANGE
;0.32
G1 X100.632 Y92.217
G1 E2 F4800
;TYPE:Skirt/Brim
;WIDTH:0.42
G1 F1800
G1 X102.5 Y91.649 E2.09126
G1 X117.5 Y91.649 E2.79237
G1 X119.077 Y92.043 E2.86835
G1 X120.283 Y93.132 E2.9443
G1 X120.851 Y95 E3.03556
G1 X120.851 Y119 E4.15734
G1 X120.288 Y120.859 E4.24813
G1 X118.288 Y123.859 E4.41666
G1 X117.87 Y124.37 E4.44752
G1 X114.87 Y127.37 E4.64582
G1 X113.476 Y128.206 E4.7218
G1 X112.5 Y128.351 E4.76792
G1 X107.5 Y128.351 E5.00162
G1 X105.923 Y127.957 E5.0776
G1 X105.13 Y127.37 E5.12372
G1 X102.13 Y124.37 E5.32202
G1 X101.712 Y123.859 E5.35288
G1 X99.712 Y120.859 E5.52141
G1 X99.149 Y119 E5.6122
G1 X99.149 Y95 E6.73398
G1 X99.543 Y93.423 E6.80996
G1 X100.592 Y92.262 E6.8831
EXCLUDE_OBJECT_START NAME=Erics_Rail_mount_2_stl
;WIPE_START
G1 F7200
G1 X100.632 Y92.217 E6.84497
G1 X102.5 Y91.649 E5.60842
G1 X103.645 Y91.649 E4.8831
;WIPE_END
G92 E0
G1 Z.52 F9000
G1 X116.013 Y95.774
G1 Z.32
G1 E2 F4800
;TYPE:Solid infill
;WIDTH:0.421455
G1 F1800
G1 X116.568 Y96.329 E2.03684
G1 X116.568 Y96.828 E2.06026
G1 X115.672 Y95.932 E2.11973
G1 X115.173 Y95.932 E2.14315
G1 X116.568 Y97.327 E2.23574
G1 X116.568 Y97.826 E2.25916
G1 X114.674 Y95.932 E2.38487
G1 X114.175 Y95.932 E2.40829
G1 X116.568 Y98.325 E2.56713
G1 X116.568 Y98.824 E2.59055
G1 X113.676 Y95.932 E2.78251
G1 X113.178 Y95.932 E2.80588
G1 X116.568 Y99.322 E3.03089
G1 X116.568 Y99.821 E3.05431
G1 X112.679 Y95.932 E3.31244
G1 X112.18 Y95.932 E3.33586
M73 P1 R9
G1 X116.568 Y100.32 E3.62711
G1 X116.568 Y100.819 E3.65053
G1 X111.681 Y95.932 E3.97491
G1 X111.182 Y95.932 E3.99833
G1 X116.568 Y101.318 E4.35583
G1 X116.568 Y101.817 E4.37925
G1 X110.683 Y95.932 E4.76987
G1 X110.184 Y95.932 E4.79329
G1 X116.568 Y102.316 E5.21703
G1 X116.568 Y102.815 E5.24045
G1 X109.685 Y95.932 E5.69731
G1 X109.186 Y95.932 E5.72073
G1 X116.568 Y103.314 E6.21071
G1 X116.568 Y103.813 E6.23413
G1 X108.687 Y95.932 E6.75723
G1 X108.188 Y95.932 E6.78065
G1 X116.568 Y104.312 E7.33687
G1 X116.568 Y104.81 E7.36024
G1 X107.69 Y95.932 E7.94952
G1 X107.191 Y95.932 E7.97294
G1 X116.568 Y105.309 E8.59534
G1 X116.568 Y105.808 E8.61876
M73 P1 R8
G1 X106.692 Y95.932 E9.27428
G1 X106.193 Y95.932 E9.2977
G1 X116.568 Y106.307 E9.98634
G1 X116.568 Y106.806 E10.00976
G1 X105.694 Y95.932 E10.73152
G1 X105.195 Y95.932 E10.75494
G1 X116.568 Y107.305 E11.50982
G1 X116.568 Y107.804 E11.53324
M73 P2 R8
G1 X104.696 Y95.932 E12.32125
G1 X104.197 Y95.932 E12.34467
G1 X116.568 Y108.303 E13.1658
G1 X116.568 Y108.802 E13.18922
G1 X103.698 Y95.932 E14.04347
G1 X103.432 Y95.932 E14.05595
G1 X103.432 Y96.164 E14.06684
G1 X116.568 Y109.301 E14.93878
G1 X116.568 Y109.8 E14.9622
G1 X103.432 Y96.663 E15.83414
G1 X103.432 Y97.162 E15.85756
G1 X116.568 Y110.298 E16.72946
G1 X116.568 Y110.797 E16.75288
G1 X103.432 Y97.661 E17.62478
G1 X103.432 Y98.16 E17.6482
G1 X116.568 Y111.296 E18.5201
G1 X116.568 Y111.795 E18.54352
G1 X103.432 Y98.659 E19.41542
G1 X103.432 Y99.158 E19.43884
M73 P3 R8
G1 X116.568 Y112.294 E20.31074
G1 X116.568 Y112.793 E20.33416
G1 X103.432 Y99.657 E21.20606
G1 X103.432 Y100.156 E21.22948
G1 X116.568 Y113.292 E22.10138
G1 X116.568 Y113.791 E22.1248
G1 X103.432 Y100.654 E22.99674
G1 X103.432 Y101.153 E23.02016
G1 X116.568 Y114.29 E23.8921
G1 X116.568 Y114.789 E23.91552
G1 X103.432 Y101.652 E24.78746
G1 X103.432 Y102.151 E24.81088
G1 X116.568 Y115.288 E25.68282
G1 X116.568 Y115.786 E25.70619
G1 X103.432 Y102.65 E26.57809
G1 X103.432 Y103.149 E26.60151
M73 P4 R8
G1 X116.568 Y116.285 E27.47341
G1 X116.568 Y116.784 E27.49683
G1 X103.432 Y103.648 E28.36873
G1 X103.432 Y104.147 E28.39215
G1 X116.568 Y117.283 E29.26405
G1 X116.568 Y117.782 E29.28747
G1 X103.432 Y104.646 E30.15937
G1 X103.432 Y105.145 E30.18279
G1 X116.355 Y118.068 E31.04056
G1 X115.856 Y118.068 E31.06398
G1 X103.432 Y105.644 E31.88862
G1 X103.432 Y106.142 E31.91199
G1 X115.358 Y118.068 E32.70358
G1 X114.859 Y118.068 E32.727
G1 X103.432 Y106.641 E33.48547
G1 X103.432 Y107.14 E33.50889
G1 X114.36 Y118.068 E34.23424
G1 X113.861 Y118.068 E34.25766
M73 P5 R8
G1 X103.432 Y107.639 E34.94989
G1 X103.432 Y108.138 E34.97331
G1 X113.362 Y118.068 E35.63242
G1 X112.863 Y118.068 E35.65584
G1 X103.432 Y108.637 E36.28182
G1 X103.432 Y109.136 E36.30524
G1 X112.472 Y118.176 E36.90527
G1 X112.27 Y118.335 E36.91734
G1 X112.212 Y118.415 E36.92198
G1 X103.432 Y109.635 E37.50475
G1 X103.432 Y110.134 E37.52817
G1 X112.079 Y118.781 E38.10212
G1 X112.068 Y119.269 E38.12503
G1 X103.432 Y110.633 E38.69825
G1 X103.432 Y111.132 E38.72167
G1 X112.068 Y119.768 E39.29489
G1 X112.068 Y120.267 E39.31831
G1 X103.432 Y111.63 E39.89156
G1 X103.432 Y112.129 E39.91498
G1 X112.226 Y120.924 E40.49872
;WIPE_START
G1 F7200
G1 X109.993 Y118.691 E38.49872
;WIPE_END
G92 E0
G1 Z.52 F9000
G1 X114.074 Y121.774
G1 Z.32
G1 E2 F4800
G1 F1800
G1 X114.241 Y121.941 E2.01108
G1 X113.992 Y122.19 E2.02761
G1 X113.733 Y121.932 E2.04477
G1 X113.234 Y121.932 E2.06819
G1 X113.742 Y122.44 E2.10191
G1 X113.493 Y122.689 E2.11844
G1 X103.432 Y112.628 E2.78624
G1 X103.432 Y113.127 E2.80966
G1 X113.243 Y122.939 E3.4609
G1 X112.994 Y123.188 E3.47743
M73 P6 R8
G1 X103.432 Y113.626 E4.11211
G1 X103.432 Y114.125 E4.13553
G1 X112.745 Y123.438 E4.75368
G1 X112.495 Y123.687 E4.77024
G1 X107.932 Y119.124 E5.07311
G1 X107.932 Y119.623 E5.09653
G1 X112.246 Y123.937 E5.38287
G1 X112.114 Y124.068 E5.3916
G1 X111.878 Y124.068 E5.40268
G1 X107.932 Y120.122 E5.6646
G1 X107.932 Y120.621 E5.68802
G1 X111.379 Y124.068 E5.91682
G1 X110.88 Y124.068 E5.94024
G1 X107.932 Y121.12 E6.13591
G1 X107.906 Y121.341 E6.14635
G1 X107.83 Y121.516 E6.1553
G1 X110.382 Y124.068 E6.32469
G1 X109.883 Y124.068 E6.34811
G1 X107.594 Y121.779 E6.50004
G1 X107.223 Y121.907 E6.51846
G1 X109.384 Y124.068 E6.6619
G1 X108.885 Y124.068 E6.68532
G1 X106.749 Y121.932 E6.8271
G1 X106.25 Y121.932 E6.85052
G1 X108.386 Y124.068 E6.9923
G1 X107.887 Y124.068 E7.01572
G1 X105.593 Y121.774 E7.16798
;WIPE_START
G1 F7200
G1 X107.826 Y124.007 E5.16798
;WIPE_END
G92 E0
G1 Z.52 F9000
G1 X107.042 Y118.234
G1 Z.32
G1 E2 F4800
G1 F1800
G1 X103.432 Y114.624 E2.23961
G1 X103.432 Y115.123 E2.26303
G1 X106.384 Y118.075 E2.45897
G1 X105.884 Y118.074 E2.48244
G1 X103.432 Y115.622 E2.64519
G1 X103.432 Y116.121 E2.66861
G1 X105.384 Y118.073 E2.79817
G1 X104.884 Y118.072 E2.82164
G1 X103.432 Y116.62 E2.91802
G1 X103.432 Y117.118 E2.94139
G1 X104.384 Y118.07 E3.00458
G1 X103.884 Y118.069 E3.02805
G1 X103.274 Y117.459 E3.06854
;WIPE_START
G1 F7200
G1 X103.884 Y118.069 E2.52218
G1 X104.384 Y118.07 E2.20551
G1 X103.432 Y117.118 E1.35283
G1 X103.432 Y116.669 E1.06854
;WIPE_END
G92 E0
G1 Z.52 F9000
G1 X107.774 Y124.339
G1 Z.32
G1 E2 F4800
;TYPE:Perimeter
;WIDTH:0.42
G1 F1800
G1 X105.175 Y121.739 E2.17183
G1 X105.161 Y121.661 E2.17553
G1 X107.134 Y121.661 E2.26775
G1 X107.459 Y121.549 E2.28382
G1 X107.582 Y121.412 E2.29243
G1 X107.661 Y121.134 E2.30594
G1 X107.661 Y118.866 E2.41195
G1 X107.588 Y118.597 E2.42498
G1 X107.393 Y118.406 E2.43774
G1 X107.134 Y118.339 E2.45024
G1 X103.161 Y118.339 E2.63594
G1 X103.161 Y95.661 E3.69593
G1 X116.839 Y95.661 E4.33525
G1 X116.839 Y102.5 E4.65491
G1 X116.839 Y118.339 E5.39524
M73 P7 R8
G1 X112.866 Y118.339 E5.58094
G1 X112.607 Y118.406 E5.59344
G1 X112.412 Y118.597 E5.6062
G1 X112.339 Y118.866 E5.61923
G1 X112.339 Y121.134 E5.72524
G1 X112.418 Y121.412 E5.73875
G1 X112.541 Y121.549 E5.74736
G1 X112.866 Y121.661 E5.76343
G1 X114.839 Y121.661 E5.85565
G1 X114.839 Y121.726 E5.85869
G1 X112.226 Y124.339 E6.03141
G1 X107.834 Y124.339 E6.2367
;WIPE_START
G1 F7200
G1 X107.774 Y124.339 E6.1987
G1 X105.584 Y122.148 E4.2367
;WIPE_END
G92 E0
G1 Z.52 F9000
G1 X107.628 Y124.69
G1 Z.32
G1 E2 F4800
;TYPE:External perimeter
G1 F1800
G1 X104.81 Y121.872 E2.18627
G1 X104.81 Y121.31 E2.21254
G1 X107.134 Y121.31 E2.32117
G1 X107.243 Y121.273 E2.32655
G1 X107.31 Y121.134 E2.33376
G1 X107.31 Y118.866 E2.43977
G1 X107.266 Y118.749 E2.44561
G1 X107.134 Y118.69 E2.45237
G1 X102.81 Y118.69 E2.65448
G1 X102.81 Y95.31 E3.74728
G1 X117.19 Y95.31 E4.41941
G1 X117.19 Y102.5 E4.75548
G1 X117.19 Y118.69 E5.51221
G1 X112.866 Y118.69 E5.71432
G1 X112.752 Y118.731 E5.71998
G1 X112.69 Y118.866 E5.72692
G1 X112.69 Y121.134 E5.83293
G1 X112.716 Y121.227 E5.83744
G1 X112.866 Y121.31 E5.84545
G1 X115.19 Y121.31 E5.95408
G1 X115.19 Y121.872 E5.98035
G1 X112.372 Y124.69 E6.16662
G1 X107.688 Y124.69 E6.38555
EXCLUDE_OBJECT_END NAME=Erics_Rail_mount_2_stl
M106 S255
;LAYER_CHANGE
;Z:0.52
;HEIGHT:0.2
;BEFORE_LAYER_CHANGE
;0.52


;WIPE_START
G1 F7200
G1 X107.628 Y124.69 E6.34755
G1 X105.437 Y122.499 E4.38555
;WIPE_END
G92 E0
G1 Z.52 F9000
;AFTER_LAYER_CHANGE
;0.52
M104 S205 ; set temperature
EXCLUDE_OBJECT_START NAME=Erics_Rail_mount_2_stl
G1 Z.72
G1 X103.511 Y95.935
G1 Z.52
G1 E2 F4800
;TYPE:Solid infill
;WIDTH:0.53634
G1 F7200
G1 X103.467 Y95.891 E2.00255
G1 X103.407 Y95.907 E2.0051
G1 X103.391 Y95.967 E2.00765
G1 X103.435 Y96.011 E2.0102
G1 X103.495 Y95.995 E2.01275
;WIDTH:0.439999
G1 X104.129 Y95.903 E2.0339
G1 X103.403 Y96.629 E2.0678
G1 X103.403 Y97.19 E2.08632
G1 X104.69 Y95.903 E2.14641
G1 X105.252 Y95.903 E2.16497
G1 X103.403 Y97.752 E2.25131
G1 X103.403 Y98.314 E2.26987
G1 X105.814 Y95.903 E2.38245
G1 X106.375 Y95.903 E2.40097
G1 X103.403 Y98.875 E2.53974
G1 X103.403 Y99.437 E2.5583
G1 X106.937 Y95.903 E2.72331
G1 X107.498 Y95.903 E2.74183
G1 X103.403 Y99.998 E2.93304
G1 X103.403 Y100.56 E2.9516
G1 X108.06 Y95.903 E3.16905
G1 X108.621 Y95.903 E3.18757
G1 X103.403 Y101.121 E3.43122
G1 X103.403 Y101.683 E3.44978
G1 X109.183 Y95.903 E3.71967
G1 X109.744 Y95.903 E3.73819
G1 X103.403 Y102.244 E4.03427
G1 X103.403 Y102.806 E4.05283
G1 X110.306 Y95.903 E4.37515
G1 X110.868 Y95.903 E4.39371
G1 X103.403 Y103.368 E4.74228
G1 X103.403 Y103.929 E4.7608
G1 X111.429 Y95.903 E5.13556
G1 X111.991 Y95.903 E5.15412
M73 P8 R8
G1 X103.403 Y104.491 E5.55512
G1 X103.403 Y105.052 E5.57364
G1 X112.552 Y95.903 E6.00084
G1 X113.114 Y95.903 E6.0194
G1 X103.403 Y105.614 E6.47284
G1 X103.403 Y106.175 E6.49136
G1 X113.675 Y95.903 E6.971
G1 X114.237 Y95.903 E6.98956
G1 X103.403 Y106.737 E7.49544
G1 X103.403 Y107.298 E7.51396
G1 X114.798 Y95.903 E8.04603
G1 X115.36 Y95.903 E8.06459
G1 X103.403 Y107.86 E8.6229
G1 X103.403 Y108.422 E8.64146
G1 X115.922 Y95.903 E9.22602
;WIPE_START
G1 X113.689 Y98.136 E7.22602
;WIPE_END
G92 E0
G1 Z.72 F9000
G1 X116.755 Y95.775
G1 Z.52
G1 E2 F4800
;WIDTH:0.38292
G1 F7200
G1 X116.684 Y95.756 E2.00208
G1 X116.703 Y95.827 E2.00416
G1 X116.744 Y95.816 E2.00536
;WIDTH:0.41146
G1 X116.614 Y95.859 E2.00956
;WIDTH:0.439999
G1 X116.483 Y95.903 E2.01412
G1 X103.403 Y108.983 E2.62487
G1 X103.403 Y109.545 E2.64343
G1 X116.597 Y96.35 E3.25953
G1 X116.597 Y96.912 E3.27809
G1 X103.403 Y110.106 E3.89416
G1 X103.403 Y110.668 E3.91272
G1 X116.597 Y97.473 E4.52882
G1 X116.597 Y98.035 E4.54738
G1 X103.403 Y111.229 E5.16345
G1 X103.403 Y111.791 E5.18201
G1 X116.597 Y98.596 E5.79811
G1 X116.597 Y99.158 E5.81667
G1 X103.403 Y112.352 E6.43274
G1 X103.403 Y112.914 E6.4513
G1 X116.597 Y99.72 E7.06737
G1 X116.597 Y100.281 E7.08589
G1 X103.403 Y113.475 E7.70196
G1 X103.403 Y114.037 E7.72052
G1 X116.597 Y100.843 E8.33659
G1 X116.597 Y101.404 E8.35511
G1 X103.403 Y114.599 E8.97121
G1 X103.403 Y115.16 E8.98973
G1 X116.597 Y101.966 E9.6058
G1 X116.597 Y102.527 E9.62432
G1 X103.403 Y115.722 E10.24042
G1 X103.403 Y116.283 E10.25894
G1 X116.597 Y103.089 E10.87501
G1 X116.597 Y103.65 E10.89353
G1 X103.403 Y116.845 E11.50963
G1 X103.403 Y117.406 E11.52815
G1 X116.597 Y104.212 E12.14422
G1 X116.597 Y104.774 E12.16278
G1 X103.403 Y117.968 E12.77885
G1 X103.368 Y118.083 E12.78282
;WIDTH:0.41146
G1 X103.333 Y118.197 E12.78647
;WIDTH:0.38292
G1 X103.262 Y118.178 E12.78855
G1 X103.281 Y118.249 E12.79063
G1 X103.322 Y118.238 E12.79183
;WIDTH:0.439999
G1 X103.834 Y118.099 E12.80935
G1 X116.597 Y105.335 E13.40532
G1 X116.597 Y105.897 E13.42388
G1 X104.394 Y118.1 E13.99368
G1 X104.954 Y118.101 E14.01217
G1 X116.597 Y106.458 E14.55582
G1 X116.597 Y107.02 E14.57438
G1 X105.514 Y118.103 E15.09188
G1 X106.074 Y118.104 E15.11037
G1 X116.597 Y107.581 E15.60173
G1 X116.597 Y108.143 E15.62029
G1 X106.634 Y118.106 E16.0855
G1 X107.186 Y118.115 E16.10373
G1 X116.597 Y108.704 E16.54316
G1 X116.597 Y109.266 E16.56172
G1 X107.565 Y118.298 E16.98346
G1 X107.82 Y118.605 E16.99664
G1 X116.597 Y109.828 E17.40647
G1 X116.597 Y110.389 E17.42499
G1 X107.903 Y119.084 E17.83097
G1 X107.902 Y119.646 E17.84953
G1 X116.597 Y110.951 E18.25553
G1 X116.597 Y111.512 E18.27405
G1 X107.901 Y120.208 E18.6801
G1 X107.9 Y120.771 E18.69869
G1 X116.597 Y112.074 E19.10478
G1 X116.597 Y112.635 E19.1233
G1 X107.791 Y121.441 E19.53448
G1 X107.699 Y121.493 E19.53797
M73 P9 R8
;WIDTH:0.41146
G1 X107.607 Y121.544 E19.54119
;WIDTH:0.38292
G1 X107.535 Y121.525 E19.5433
G1 X107.555 Y121.596 E19.54539
G1 X107.596 Y121.585 E19.54659
G1 X107.744 Y121.681 E19.55158
G1 X107.692 Y121.733 E19.55366
G1 X107.763 Y121.752 E19.55574
;WIPE_START
G1 X107.692 Y121.733 E19.50919
G1 X107.744 Y121.681 E19.46262
G1 X107.596 Y121.585 E19.35089
G1 X107.555 Y121.596 E19.32401
G1 X107.535 Y121.525 E19.27729
G1 X107.607 Y121.544 E19.23013
;WIPE_END
G1 E17.55574 F4800
G92 E0
G1 Z.72 F9000
G1 X106.314 Y121.858
G1 Z.52
G1 E2 F4800
;WIDTH:0.350594
G1 F7200
G1 X105.572 Y121.858 E2.01898
G1 X105.943 Y122.23 E2.03242
G1 X106.174 Y121.999 E2.04078
;WIDTH:0.439999
G1 X106.224 Y122.447 E2.05566
G1 X106.768 Y121.903 E2.08106
G1 X107.452 Y121.78 E2.10401
G1 X106.505 Y122.728 E2.14825
G1 X106.785 Y123.009 E2.16135
G1 X116.597 Y113.197 E2.61951
G1 X116.597 Y113.758 E2.63803
G1 X107.066 Y123.289 E3.08307
;WIPE_START
G1 X109.299 Y121.056 E1.08307
;WIPE_END
G92 E0
G1 Z.72 F9000
G1 X112.794 Y118.123
G1 Z.52
G1 E2 F4800
G1 F7200
G1 X116.597 Y114.32 E2.17758
G1 X116.597 Y114.882 E2.19614
G1 X113.382 Y118.097 E2.34626
G1 X113.943 Y118.097 E2.36478
G1 X116.597 Y115.443 E2.4887
G1 X116.597 Y116.005 E2.50726
G1 X114.505 Y118.097 E2.60494
G1 X115.066 Y118.097 E2.62346
G1 X116.597 Y116.566 E2.69495
G1 X116.597 Y117.128 E2.71351
G1 X115.628 Y118.097 E2.75876
G1 X116.189 Y118.097 E2.77728
G1 X116.597 Y117.689 E2.79633
;WIPE_START
G1 X116.189 Y118.097 E2.4309
G1 X115.628 Y118.097 E2.0756
