; generated by PrusaSlicer 2.7.0+win64 on 2023-12-01 at 00:03:09 UTC
;FLAVOR:Marlin
;TIME:415
;Filament used: 0.569920
;Layer height: 0.20
;MINX:0.000
;MINY:0.000
;MINZ:0.000
;MAXX:0.000
;MAXY:0.000
;MAXZ:0.000
;POSTPROCESSED
;Header generated for The Ender3v2 Professional Firmware
;https://github.com/mriscoc/Marlin_Ender3v2



;
;

;
;
; 

; external perimeters extrusion width = 0.42mm
; perimeters extrusion width = 0.44mm
; infill extrusion width = 0.44mm
; solid infill extrusion width = 0.44mm
; top infill extrusion width = 0.40mm
; first layer extrusion width = 0.42mm

M73 P0 R6

EXCLUDE_OBJECT_DEFINE NAME=GS_Wings_stl CENTER=109.727,110.199 POLYGON=[[110.958,100.927],[114.484,101.219],[117.978,101.795],[121.424,102.654],[122.240,104.868],[123.241,106.962],[124.419,108.914],[125.762,110.706],[127.255,112.318],[128.883,113.733],[130.627,114.936],[131.957,115.648],[132.126,115.662],[132.659,115.081],[133.430,114.590],[134.301,114.315],[135.214,114.275],[136.106,114.473],[136.917,114.895],[137.590,115.512],[138.081,116.283],[138.356,117.154],[138.396,118.067],[138.198,118.959],[137.776,119.769],[137.159,120.443],[136.388,120.934],[135.517,121.209],[134.604,121.249],[133.712,121.051],[132.902,120.629],[132.228,120.012],[131.677,119.051],[120.194,117.978],[115.722,117.391],[111.268,116.673],[106.833,115.824],[100.001,114.341],[97.436,113.922],[94.855,113.626],[92.263,113.453],[89.664,113.401],[87.063,113.473],[84.547,113.660],[82.676,113.168],[81.604,112.047],[81.840,110.514],[83.025,109.114],[86.727,106.836],[90.028,105.163],[93.410,103.759],[96.854,102.628],[100.348,101.776],[103.874,101.207],[107.416,100.924]]

M190 S60 ; set bed temperature and wait for it to be reached
M104 S202 ; set temperature
;TYPE:Custom
START_PRINT
M109 S202 ; set temperature and wait for it to be reached
G21 ; set units to millimeters
G90 ; use absolute coordinates
M82 ; use absolute distances for extrusion
G92 E0
; Filament gcode
M107
;LAYER_CHANGE
;Z:0.32
;HEIGHT:0.32
;BEFORE_LAYER_CHANGE
;0.32


G1 E-2 F4800
G92 E0
G1 Z.32 F9000
;AFTER_LAYER_CHANGE
;0.32
G1 X80.34 Y107.587
G1 E2 F4800
;TYPE:Skirt/Brim
;WIDTH:0.42
G1 F1800
G1 X82.313 Y106.262 E2.11109
G1 X85.155 Y104.56 E2.26593
G1 X88.598 Y102.799 E2.44669
G1 X91.048 Y101.734 E2.57156
G1 X93.934 Y100.669 E2.71535
G1 X96.805 Y99.805 E2.85549
G1 X99.673 Y99.127 E2.99324
G1 X102.514 Y98.636 E3.128
G1 X105.347 Y98.321 E3.26123
G1 X108.172 Y98.177 E3.39344
G1 X110.431 Y98.195 E3.49903
G1 X113.769 Y98.4 E3.65534
G1 X117.081 Y98.854 E3.81159
G1 X119.74 Y99.395 E3.93842
G1 X121.963 Y99.974 E4.04579
G1 X123.109 Y100.522 E4.10516
G1 X138.909 Y112.2 E5.02349
G1 X139.854 Y113.041 E5.08262
G1 X140.417 Y113.712 E5.12356
G1 X140.908 Y114.483 E5.16628
G1 X141.277 Y115.274 E5.20708
G1 X141.552 Y116.145 E5.24977
G1 X141.704 Y117.009 E5.29077
G1 X141.744 Y117.922 E5.33349
G1 X141.668 Y118.791 E5.37426
G1 X141.47 Y119.684 E5.41701
G1 X141.17 Y120.508 E5.458
G1 X140.748 Y121.318 E5.50069
G1 X140.247 Y122.033 E5.5415
G1 X139.63 Y122.707 E5.58421
G1 X138.959 Y123.27 E5.62515
G1 X138.188 Y123.761 E5.66787
G1 X137.397 Y124.13 E5.70867
G1 X136.526 Y124.405 E5.75136
G1 X135.662 Y124.557 E5.79236
G1 X134.078 Y124.558 E5.8664
G1 X81.964 Y116.283 E8.33277
G1 X80.067 Y115.289 E8.43287
M73 P1 R6
G1 X79.182 Y114.363 E8.49274
G1 X78.377 Y112.951 E8.56871
G1 X78.292 Y111.539 E8.63483
G1 X78.374 Y111.003 E8.66017
G1 X78.664 Y110.063 E8.70615
G1 X79.224 Y108.896 E8.76665
G1 X80.301 Y107.633 E8.84423
EXCLUDE_OBJECT_START NAME=GS_Wings_stl
;WIPE_START
G1 F7200
G1 X80.34 Y107.587 E8.80604
G1 X82.313 Y106.262 E7.30084
G1 X82.932 Y105.892 E6.84423
;WIPE_END
G92 E0
G1 Z.52 F9000
G1 X90.897 Y106.296
G1 Z.32
G1 E2 F4800
;TYPE:Solid infill
;WIDTH:0.440428
G1 F1800
G1 X91.359 Y106.758 E2.03231
;WIPE_START
G1 F7200
G1 X90.897 Y106.296 E1.61851
;WIPE_END
G1 E.03231 F4800
G92 E0
G1 Z.52 F9000
G1 X94.048 Y105.749
G1 Z.32
G1 E2 F4800
;WIDTH:0.476856
G1 F1800
G1 X93.633 Y105.334 E2.03187
G1 X93.615 Y105.341 E2.03292
G1 X93.569 Y105.848 E2.06057
G1 X93.857 Y106.136 E2.08269
G1 X93.812 Y106.669 E2.11174
G1 X93.377 Y106.233 E2.14519
;WIPE_START
G1 F7200
G1 X93.812 Y106.669 E1.75513
G1 X93.857 Y106.136 E1.41636
G1 X93.569 Y105.848 E1.15841
G1 X93.615 Y105.341 E.83599
G1 X93.633 Y105.334 E.82376
G1 X94.048 Y105.749 E.45206
;WIPE_END
G1 E.14519 F4800
G92 E0
G1 Z.52 F9000
G1 X96.734 Y104.78
G1 Z.32
G1 E2 F4800
;WIDTH:0.433417
G1 F1800
G1 X96.357 Y104.403 E2.02587
G1 X96.304 Y104.418 E2.02854
G1 X96.267 Y104.829 E2.04856
G1 X96.547 Y105.109 E2.06778
G1 X96.505 Y105.583 E2.09087
G1 X96.225 Y105.303 E2.11009
G1 X96.183 Y105.777 E2.13318
G1 X96.464 Y106.058 E2.15246
G1 X96.423 Y106.532 E2.17555
G1 X96.141 Y106.25 E2.1949
G1 X96.099 Y106.724 E2.21799
G1 X96.538 Y107.163 E2.24812
;WIPE_START
G1 F7200
G1 X96.099 Y106.724 E1.85492
G1 X96.141 Y106.25 E1.55354
G1 X96.423 Y106.532 E1.30096
G1 X96.464 Y106.058 E.99964
G1 X96.183 Y105.777 E.74796
G1 X96.225 Y105.303 E.44658
G1 X96.447 Y105.525 E.24812
;WIPE_END
G92 E0
G1 Z.52 F9000
G1 X99.401 Y104.101
G1 Z.32
G1 E2 F4800
;WIDTH:0.443753
G1 F1800
G1 X98.976 Y103.683 E2.02975
G1 X98.933 Y104.164 E2.05385
G1 X99.213 Y104.443 E2.07357
G1 X99.17 Y104.931 E2.09802
G1 X98.89 Y104.651 E2.11778
G1 X98.847 Y105.138 E2.14218
G1 X99.128 Y105.419 E2.16201
G1 X99.085 Y105.907 E2.18646
G1 X98.804 Y105.625 E2.20633
G1 X98.76 Y106.112 E2.23073
G1 X99.042 Y106.395 E2.25067
G1 X99 Y106.882 E2.27506
G1 X98.717 Y106.6 E2.295
G1 X98.674 Y107.087 E2.3194
G1 X99.113 Y107.526 E2.35038
;WIPE_START
G1 F7200
G1 X98.674 Y107.087 E1.95718
G1 X98.717 Y106.6 E1.64755
G1 X99 Y106.882 E1.39452
G1 X99.042 Y106.395 E1.08494
G1 X98.76 Y106.112 E.83191
G1 X98.804 Y105.625 E.52222
G1 X98.996 Y105.817 E.35038
;WIPE_END
G92 E0
G1 Z.52 F9000
G1 X102.054 Y103.585
G1 Z.32
G1 E2 F4800
;WIDTH:0.446863
G1 F1800
G1 X101.63 Y103.16 E2.03021
G1 X101.586 Y103.652 E2.05506
G1 X101.865 Y103.931 E2.07491
G1 X101.822 Y104.423 E2.09976
G1 X101.543 Y104.143 E2.11965
G1 X101.499 Y104.634 E2.14445
G1 X101.78 Y104.915 E2.16444
G1 X101.737 Y105.407 E2.18929
G1 X101.456 Y105.126 E2.20928
G1 X101.412 Y105.617 E2.23408
G1 X101.694 Y105.899 E2.25415
G1 X101.651 Y106.391 E2.279
G1 X101.369 Y106.108 E2.2991
G1 X101.325 Y106.6 E2.32395
G1 X101.608 Y106.882 E2.34405
G1 X101.565 Y107.374 E2.3689
G1 X101.282 Y107.091 E2.38904
G1 X101.238 Y107.582 E2.41384
G1 X101.677 Y108.022 E2.44511
;WIPE_START
G1 F7200
G1 X101.238 Y107.582 E2.05146
G1 X101.282 Y107.091 E1.73925
G1 X101.565 Y107.374 E1.48578
G1 X101.608 Y106.882 E1.17299
G1 X101.325 Y106.6 E.91996
G1 X101.369 Y106.108 E.60712
G1 X101.549 Y106.289 E.44511
;WIPE_END
G92 E0
G1 Z.52 F9000
G1 X104.693 Y103.228
G1 Z.32
G1 E2 F4800
;WIDTH:0.444465
G1 F1800
G1 X104.269 Y102.803 E2.03001
G1 X104.226 Y103.291 E2.0545
G1 X104.505 Y103.57 E2.07423
G1 X104.462 Y104.059 E2.09877
G1 X104.183 Y103.78 E2.1185
G1 X104.139 Y104.268 E2.143
G1 X104.42 Y104.548 E2.16283
G1 X104.377 Y105.037 E2.18737
G1 X104.096 Y104.756 E2.20724
G1 X104.053 Y105.245 E2.23178
G1 X104.334 Y105.526 E2.25165
G1 X104.292 Y106.015 E2.27619
G1 X104.01 Y105.733 E2.29613
G1 X103.967 Y106.221 E2.32062
G1 X104.249 Y106.503 E2.34056
G1 X104.206 Y106.992 E2.3651
G1 X103.924 Y106.709 E2.38507
G1 X103.881 Y107.198 E2.40961
G1 X104.164 Y107.481 E2.42962
G1 X104.121 Y107.97 E2.45416
G1 X103.837 Y107.686 E2.47424
G1 X103.794 Y108.174 E2.49873
G1 X104.233 Y108.613 E2.52977
;WIPE_START
G1 F7200
G1 X103.794 Y108.174 E2.13657
G1 X103.837 Y107.686 E1.82631
G1 X104.121 Y107.97 E1.57194
G1 X104.164 Y107.481 E1.26104
G1 X103.881 Y107.198 E1.00757
G1 X103.924 Y106.709 E.69667
G1 X104.11 Y106.896 E.52977
;WIPE_END
G92 E0
G1 Z.52 F9000
G1 X107.32 Y103.017
G1 Z.32
G1 E2 F4800
;WIDTH:0.433099
G1 F1800
G1 X106.895 Y102.593 E2.02911
G1 X106.853 Y103.067 E2.05218
G1 X107.132 Y103.345 E2.07128
G1 X107.091 Y103.819 E2.09435
G1 X106.812 Y103.54 E2.11348
G1 X106.77 Y104.014 E2.13655
G1 X107.049 Y104.293 E2.15568
G1 X107.008 Y104.767 E2.17875
G1 X106.728 Y104.487 E2.19795
G1 X106.686 Y104.961 E2.22102
G1 X106.967 Y105.241 E2.24025
G1 X106.925 Y105.715 E2.26332
G1 X106.644 Y105.435 E2.28255
G1 X106.603 Y105.908 E2.30557
G1 X106.884 Y106.189 E2.32484
G1 X106.842 Y106.663 E2.34791
G1 X106.561 Y106.382 E2.36718
G1 X106.519 Y106.855 E2.3902
G1 X106.801 Y107.137 E2.40954
G1 X106.76 Y107.611 E2.43261
G1 X106.477 Y107.329 E2.45198
G1 X106.435 Y107.802 E2.475
G1 X106.718 Y108.085 E2.4944
G1 X106.677 Y108.559 E2.51747
G1 X106.394 Y108.276 E2.53687
G1 X106.352 Y108.75 E2.55994
G1 X106.792 Y109.19 E2.59011
;WIPE_START
G1 F7200
G1 X106.352 Y108.75 E2.19602
G1 X106.394 Y108.276 E1.89464
G1 X106.677 Y108.559 E1.64117
G1 X106.718 Y108.085 E1.33985
G1 X106.435 Y107.802 E1.08638
G1 X106.477 Y107.329 E.78563
G1 X106.695 Y107.547 E.59011
;WIPE_END
G92 E0
G1 Z.52 F9000
G1 X109.359 Y102.426
G1 Z.32
G1 E2 F4800
;WIDTH:0.435579
G1 F1800
G1 X109.783 Y102.851 E2.0293
G1 X109.742 Y103.328 E2.05267
G1 X109.463 Y103.049 E2.07193
G1 X109.421 Y103.526 E2.0953
G1 X109.7 Y103.805 E2.11456
G1 X109.658 Y104.282 E2.13793
G1 X109.379 Y104.003 E2.15719
G1 X109.337 Y104.48 E2.18056
G1 X109.617 Y104.759 E2.19985
G1 X109.575 Y105.236 E2.22322
G1 X109.295 Y104.957 E2.24251
G1 X109.253 Y105.433 E2.26584
G1 X109.533 Y105.714 E2.2852
G1 X109.492 Y106.191 E2.30857
G1 X109.211 Y105.91 E2.32797
G1 X109.169 Y106.387 E2.35134
G1 X109.45 Y106.668 E2.37074
M73 P2 R6
G1 X109.408 Y107.145 E2.39411
G1 X109.127 Y106.864 E2.41351
G1 X109.085 Y107.341 E2.43688
G1 X109.366 Y107.622 E2.45628
G1 X109.325 Y108.1 E2.4797
G1 X109.043 Y107.818 E2.49917
G1 X109.001 Y108.295 E2.52254
G1 X109.283 Y108.577 E2.54201
G1 X109.241 Y109.054 E2.56538
G1 X108.959 Y108.772 E2.58485
G1 X108.917 Y109.249 E2.60822
G1 X109.356 Y109.688 E2.63853
;WIPE_START
G1 F7200
G1 X108.917 Y109.249 E2.24533
G1 X108.959 Y108.772 E1.94206
G1 X109.241 Y109.054 E1.68948
G1 X109.283 Y108.577 E1.38621
G1 X109.001 Y108.295 E1.13363
G1 X109.043 Y107.818 E.83036
G1 X109.257 Y108.032 E.63853
;WIPE_END
G92 E0
G1 Z.52 F9000
G1 X112.526 Y103.117
G1 Z.32
G1 E2 F4800
;WIDTH:0.429057
G1 F1800
G1 X112.102 Y102.694 E2.02872
G1 X112.061 Y103.162 E2.05124
G1 X112.339 Y103.44 E2.07009
G1 X112.298 Y103.909 E2.09266
G1 X112.02 Y103.631 E2.11151
G1 X111.979 Y104.099 E2.13403
G1 X112.257 Y104.377 E2.15288
G1 X112.216 Y104.846 E2.17545
G1 X111.938 Y104.568 E2.1943
G1 X111.896 Y105.036 E2.21683
G1 X112.175 Y105.315 E2.23575
G1 X112.134 Y105.784 E2.25832
G1 X111.855 Y105.505 E2.27724
G1 X111.814 Y105.973 E2.29976
G1 X112.093 Y106.252 E2.31868
G1 X112.053 Y106.721 E2.34125
G1 X111.773 Y106.442 E2.3602
G1 X111.732 Y106.91 E2.38272
G1 X112.012 Y107.19 E2.40171
G1 X111.971 Y107.659 E2.42428
G1 X111.691 Y107.379 E2.44327
G1 X111.649 Y107.847 E2.4658
G1 X111.93 Y108.127 E2.48482
G1 X111.889 Y108.596 E2.50739
G1 X111.608 Y108.316 E2.52641
G1 X111.567 Y108.784 E2.54893
G1 X111.848 Y109.065 E2.56798
G1 X111.807 Y109.534 E2.59055
G1 X111.526 Y109.253 E2.6096
G1 X111.485 Y109.721 E2.63212
G1 X111.922 Y110.158 E2.66175
;WIPE_START
G1 F7200
G1 X111.485 Y109.721 E2.27034
G1 X111.526 Y109.253 E1.9728
G1 X111.807 Y109.534 E1.72112
G1 X111.848 Y109.065 E1.42295
G1 X111.567 Y108.784 E1.17127
G1 X111.608 Y108.316 E.87373
G1 X111.845 Y108.552 E.66175
;WIPE_END
G92 E0
G1 Z.52 F9000
G1 X115.107 Y103.42
G1 Z.32
G1 E2 F4800
;WIDTH:0.434629
G1 F1800
G1 X114.683 Y102.996 E2.02919
G1 X114.641 Y103.472 E2.05246
G1 X114.92 Y103.75 E2.07164
G1 X114.878 Y104.226 E2.09491
G1 X114.599 Y103.947 E2.11412
G1 X114.557 Y104.423 E2.13739
G1 X114.836 Y104.702 E2.1566
G1 X114.795 Y105.178 E2.17986
G1 X114.515 Y104.899 E2.1991
G1 X114.474 Y105.374 E2.22231
G1 X114.753 Y105.654 E2.24155
G1 X114.712 Y106.13 E2.26481
G1 X114.432 Y105.85 E2.28409
G1 X114.39 Y106.326 E2.30736
G1 X114.67 Y106.606 E2.32664
G1 X114.629 Y107.082 E2.3499
G1 X114.348 Y106.802 E2.36921
G1 X114.306 Y107.277 E2.39243
G1 X114.587 Y107.558 E2.41178
G1 X114.546 Y108.034 E2.43504
G1 X114.265 Y107.753 E2.45439
G1 X114.223 Y108.229 E2.47766
G1 X114.504 Y108.51 E2.49701
G1 X114.462 Y108.986 E2.52028
G1 X114.181 Y108.705 E2.53963
G1 X114.139 Y109.18 E2.56285
G1 X114.421 Y109.462 E2.58227
G1 X114.379 Y109.938 E2.60554
G1 X114.097 Y109.656 E2.62496
G1 X114.055 Y110.132 E2.64823
G1 X114.494 Y110.57 E2.67842
;WIPE_START
G1 F7200
G1 X114.055 Y110.132 E2.28567
G1 X114.097 Y109.656 E1.98303
G1 X114.379 Y109.938 E1.73045
G1 X114.421 Y109.462 E1.42781
G1 X114.139 Y109.18 E1.17523
G1 X114.181 Y108.705 E.87322
G1 X114.399 Y108.923 E.67842
;WIPE_END
G92 E0
G1 Z.52 F9000
G1 X117.676 Y103.866
G1 Z.32
G1 E2 F4800
;WIDTH:0.43102
G1 F1800
G1 X117.252 Y103.441 E2.02894
G1 X117.21 Y103.912 E2.05174
G1 X117.489 Y104.191 E2.07076
G1 X117.448 Y104.662 E2.09355
G1 X117.169 Y104.383 E2.11257
G1 X117.128 Y104.854 E2.13536
G1 X117.407 Y105.134 E2.15441
G1 X117.366 Y105.605 E2.1772
G1 X117.086 Y105.326 E2.19625
G1 X117.045 Y105.797 E2.21904
G1 X117.325 Y106.076 E2.23809
G1 X117.283 Y106.547 E2.26089
G1 X117.004 Y106.268 E2.27991
G1 X116.962 Y106.739 E2.30271
G1 X117.242 Y107.019 E2.3218
G1 X117.201 Y107.49 E2.34459
G1 X116.921 Y107.21 E2.36368
G1 X116.88 Y107.681 E2.38647
G1 X117.16 Y107.961 E2.40556
G1 X117.119 Y108.433 E2.4284
G1 X116.838 Y108.152 E2.44756
G1 X116.797 Y108.623 E2.47035
G1 X117.078 Y108.904 E2.48951
G1 X117.037 Y109.375 E2.5123
G1 X116.756 Y109.094 E2.53146
G1 X116.714 Y109.565 E2.55426
G1 X116.995 Y109.847 E2.57345
G1 X116.954 Y110.318 E2.59624
G1 X116.673 Y110.037 E2.6154
G1 X116.632 Y110.508 E2.63819
G1 X117.068 Y110.944 E2.66791
;WIPE_START
G1 F7200
G1 X116.632 Y110.508 E2.2774
G1 X116.673 Y110.037 E1.97797
G1 X116.954 Y110.318 E1.72629
G1 X116.995 Y109.847 E1.42686
G1 X116.714 Y109.565 E1.17473
G1 X116.756 Y109.094 E.87525
G1 X116.987 Y109.326 E.66791
;WIPE_END
G92 E0
G1 Z.52 F9000
G1 X121.902 Y108.069
G1 Z.32
G1 E2 F4800
;WIDTH:0.440308
G1 F1800
G1 X122.328 Y108.495 E2.02979
G1 X122.286 Y108.979 E2.05381
G1 X122.005 Y108.698 E2.07346
G1 X121.963 Y109.181 E2.09743
G1 X122.244 Y109.462 E2.11708
G1 X122.202 Y109.946 E2.1411
G1 X121.921 Y109.664 E2.16078
G1 X121.878 Y110.147 E2.18476
G1 X122.16 Y110.429 E2.20448
G1 X122.118 Y110.913 E2.2285
G1 X121.836 Y110.631 E2.24822
G1 X121.793 Y111.114 E2.2722
G1 X122.234 Y111.554 E2.303
;WIPE_START
G1 F7200
G1 X121.793 Y111.114 E1.90846
G1 X121.836 Y110.631 E1.60135
G1 X122.118 Y110.913 E1.34877
G1 X122.16 Y110.429 E1.04108
G1 X121.878 Y110.147 E.7885
G1 X121.921 Y109.664 E.48139
G1 X122.12 Y109.863 E.303
;WIPE_END
G92 E0
G1 Z.52 F9000
G1 X119.659 Y103.925
G1 Z.32
G1 E2 F4800
;WIDTH:0.439766
G1 F1800
G1 X120.083 Y104.349 E2.0296
G1 X120.041 Y104.832 E2.05354
G1 X119.762 Y104.553 E2.07302
G1 X119.72 Y105.035 E2.09691
G1 X119.999 Y105.314 E2.11639
G1 X119.957 Y105.797 E2.14033
G1 X119.677 Y105.518 E2.15984
G1 X119.635 Y106 E2.18373
G1 X119.914 Y106.28 E2.20324
G1 X119.872 Y106.762 E2.22713
G1 X119.592 Y106.482 E2.24668
G1 X119.55 Y106.965 E2.27062
G1 X119.83 Y107.245 E2.29017
G1 X119.788 Y107.728 E2.31411
G1 X119.508 Y107.447 E2.33369
G1 X119.465 Y107.93 E2.35763
G1 X119.746 Y108.21 E2.37721
G1 X119.704 Y108.693 E2.40115
G1 X119.423 Y108.412 E2.42077
G1 X119.38 Y108.894 E2.44466
G1 X119.662 Y109.175 E2.46431
G1 X119.619 Y109.658 E2.48825
G1 X119.338 Y109.377 E2.50787
G1 X119.295 Y109.859 E2.53176
G1 X119.577 Y110.141 E2.55145
G1 X119.535 Y110.623 E2.57534
G1 X119.253 Y110.341 E2.59503
G1 X119.211 Y110.824 E2.61897
G1 X119.649 Y111.262 E2.64955
;WIPE_START
G1 F7200
G1 X119.211 Y110.824 E2.25725
G1 X119.253 Y110.341 E1.9502
G1 X119.535 Y110.623 E1.69762
