; generated by PrusaSlicer 2.7.0+win64 on 2023-11-24 at 20:06:29 UTC
;FLAVOR:Marlin
;TIME:2013
;Filament used: 4.797480
;Layer height: 0.20
;MINX:0.000
;MINY:0.000
;MINZ:0.000
;MAXX:0.000
;MAXY:0.000
;MAXZ:0.000
;POSTPROCESSED
;Header generated for The Ender3v2 Professional Firmware
;https://github.com/mriscoc/Marlin_Ender3v2



;
;

;
;
; 

; external perimeters extrusion width = 0.42mm
; perimeters extrusion width = 0.44mm
; infill extrusion width = 0.44mm
; solid infill extrusion width = 0.44mm
; top infill extrusion width = 0.40mm
; first layer extrusion width = 0.42mm

M73 P0 R33

; printing object LED_light_holder (2).stl id:0 copy 0
; stop printing object LED_light_holder (2).stl id:0 copy 0

M190 S60 ; set bed temperature and wait for it to be reached
M104 S205 ; set temperature
;TYPE:Custom
START_PRINT
M109 S205 ; set temperature and wait for it to be reached
G21 ; set units to millimeters
G90 ; use absolute coordinates
M82 ; use absolute distances for extrusion
G92 E0
; Filament gcode
M107
;LAYER_CHANGE
;Z:0.32
;HEIGHT:0.32
;BEFORE_LAYER_CHANGE
;0.32


G1 E-2 F4800
G92 E0
G1 Z.32 F9000
;AFTER_LAYER_CHANGE
;0.32
G1 X96.151 Y92.957
G1 E2 F4800
;TYPE:Skirt/Brim
;WIDTH:0.42
G1 F1800
G1 X98.002 Y92.388 E2.09051
G1 X99.502 Y92.381 E2.16062
G1 X101.081 Y92.768 E2.23661
G1 X102.1 Y93.595 E2.29795
G1 X124.563 Y120.721 E3.94413
G1 X125.265 Y122.186 E4.02006
G1 X125.131 Y124.004 E4.10527
G1 X124.618 Y125.413 E4.17536
G1 X123.709 Y126.759 E4.25128
G1 X122.272 Y127.52 E4.32728
G1 X120.323 Y127.416 E4.41851
G1 X96.872 Y118.882 E5.58495
G1 X95.525 Y117.972 E5.66093
G1 X94.667 Y115.732 E5.77305
G1 X94.667 Y95.74 E6.70749
G1 X95.061 Y94.163 E6.78347
G1 X96.11 Y93.002 E6.85661
; printing object LED_light_holder (2).stl id:0 copy 0
;WIPE_START
G1 F7200
G1 X96.151 Y92.957 E6.81805
G1 X98.002 Y92.388 E5.59161
G1 X99.163 Y92.383 E4.85661
;WIPE_END
G92 E0
G1 Z.52 F9000
G1 X100.287 Y109.129
G1 Z.32
G1 E2 F4800
;TYPE:Solid infill
;WIDTH:0.43864
G1 F1800
G1 X98.942 Y107.783 E2.09366
G1 X98.942 Y108.307 E2.11945
G1 X100.865 Y110.23 E2.25331
G1 X102.087 Y111.975 E2.35817
G1 X98.943 Y108.831 E2.57702
G1 X98.943 Y109.355 E2.60281
G1 X103.309 Y113.721 E2.90672
G1 X104.531 Y115.466 E3.01158
G1 X98.944 Y109.879 E3.40048
G1 X98.945 Y110.402 E3.42622
G1 X105.852 Y117.309 E3.90701
G1 X106.254 Y117.732 E3.93573
G1 X106.245 Y117.746 E3.93655
G1 X105.489 Y117.47 E3.97616
G1 X98.945 Y110.926 E4.43168
G1 X98.946 Y111.45 E4.45747
G1 X104.664 Y117.168 E4.85549
G1 X103.84 Y116.867 E4.89867
G1 X98.947 Y111.974 E5.23926
G1 X98.947 Y112.498 E5.26505
G1 X103.015 Y116.566 E5.54822
G1 X102.191 Y116.264 E5.59142
G1 X98.948 Y113.022 E5.81713
G1 X98.948 Y113.545 E5.84287
G1 X101.366 Y115.963 E6.01118
G1 X100.541 Y115.662 E6.05441
G1 X98.949 Y114.069 E6.16526
G1 X98.95 Y114.593 E6.19105
G1 X99.982 Y115.625 E6.26289
;WIPE_START
G1 F7200
G1 X98.95 Y114.593 E5.33856
G1 X98.949 Y114.069 E5.00669
G1 X99.779 Y114.899 E4.26289
;WIPE_END
G92 E0
G1 Z.52 F9000
G1 X107.514 Y118.381
G1 Z.32
G1 E2 F4800
;TYPE:Perimeter
;WIDTH:0.614241
G1 F1800
G1 X107.43 Y118.377 E2.0061
;WIDTH:0.565786
G1 X107.347 Y118.372 E2.0116
;WIDTH:0.517332
G1 X107.264 Y118.368 E2.01656
;WIDTH:0.468878
G1 X107.181 Y118.363 E2.02099
;WIDTH:0.420424
G1 X107.097 Y118.359 E2.02493
;WIDTH:0.414908
G1 X106.45 Y118.1 E2.05703
;WIDTH:0.42
G1 X98.68 Y115.269 E2.44356
G1 X98.677 Y107 E2.83006
;WIDTH:0.415085
G1 X98.656 Y106.303 E2.8622
;WIDTH:0.420422
G1 X98.68 Y106.223 E2.86611
;WIDTH:0.468876
G1 X98.704 Y106.143 E2.87056
;WIDTH:0.517329
G1 X98.728 Y106.064 E2.87549
;WIDTH:0.565783
G1 X98.753 Y105.984 E2.88103
;WIDTH:0.614237
G1 X98.777 Y105.904 E2.88709
G1 X98.813 Y105.979 E2.89313
;WIDTH:0.565783
G1 X98.849 Y106.054 E2.89863
;WIDTH:0.517329
G1 X98.885 Y106.129 E2.9036
;WIDTH:0.468876
G1 X98.921 Y106.205 E2.90808
;WIDTH:0.420422
G1 X98.957 Y106.28 E2.91197
;WIDTH:0.415085
G1 X99.057 Y106.911 E2.94141
;WIDTH:0.42
G1 X99.513 Y107.828 E2.98928
G1 X105.958 Y117.031 E3.51443
G1 X106.663 Y117.773 E3.56227
;WIDTH:0.414908
G1 X107.222 Y118.083 E3.59171
;WIDTH:0.420424
G1 X107.28 Y118.143 E3.59562
;WIDTH:0.468878
G1 X107.339 Y118.202 E3.60006
;WIDTH:0.517332
G1 X107.397 Y118.262 E3.60504
;WIDTH:0.565786
G1 X107.455 Y118.322 E3.61056
;WIDTH:0.614241
G1 X107.472 Y118.338 E3.61225
;WIPE_START
G1 F7200
G1 X107.514 Y118.381 E3.57418
G1 X107.43 Y118.377 E3.52092
;WIPE_END
G1 E1.61225 F4800
G92 E0
G1 Z.52 F9000
G1 X121.283 Y123.87
G1 Z.32
G1 E2 F4800
;TYPE:External perimeter
;WIDTH:0.42
G1 F1800
G1 X98.328 Y115.515 E3.14179
G1 X98.328 Y96.042 E4.05197
G1 X99.208 Y96.042 E4.0931
G1 X99.208 Y105.747 E4.54672
G1 X99.37 Y106.757 E4.59453
G1 X99.801 Y107.626 E4.63987
G1 X106.262 Y116.85 E5.16625
G1 X106.957 Y117.565 E5.21286
G1 X107.809 Y118.03 E5.25823
G1 X121.584 Y123.043 E5.94339
G1 X121.434 Y123.457 E5.96397
G1 X121.304 Y123.814 E5.98173
;WIPE_START
G1 F7200
G1 X121.283 Y123.87 E5.94385
G1 X118.372 Y122.81 E3.98173
;WIPE_END
G92 E0
G1 Z.52 F9000
G1 X107.514 Y118.381
G1 Z.32
G1 E2 F4800
;TYPE:Perimeter
;WIDTH:0.614241
G1 F1800
G1 X107.659 Y118.443 E2.01145
;WIDTH:0.597347
G1 X121.02 Y123.306 E3.01151
;WIPE_START
G1 F7200
G1 X118.052 Y122.226 E1.01151
;WIPE_END
G92 E0
G1 Z.52 F9000
G1 X98.768 Y96.482
G1 Z.32
G1 E2 F4800
G1 F1800
G1 X98.768 Y105.747 E2.65165
;WIDTH:0.614237
G1 X98.777 Y105.904 E2.66306
; stop printing object LED_light_holder (2).stl id:0 copy 0
M106 S255
;LAYER_CHANGE
;Z:0.52
;HEIGHT:0.2
;BEFORE_LAYER_CHANGE
;0.52


;WIPE_START
G1 F7200
G1 X98.768 Y105.747 E2.56346
;WIPE_END
G1 E.66306 F4800
G92 E0
G1 Z.52 F9000
;AFTER_LAYER_CHANGE
;0.52
M104 S207 ; set temperature
; printing object LED_light_holder (2).stl id:0 copy 0
G1 Z.72
G1 X98.961 Y107.283
G1 Z.52
G1 E2 F4800
;TYPE:Solid infill
;WIDTH:0.439999
G1 F7200
G1 X98.921 Y107.934 E2.02153
G1 X98.921 Y114.243 E2.22984
G1 X101.738 Y111.426 E2.36138
G1 X99.324 Y107.978 E2.50035
G1 X99.053 Y107.459 E2.51968
;WIPE_START
G1 X99.324 Y107.978 E2.14887
G1 X100.799 Y110.085 E.51968
;WIPE_END
G92 E0
G1 Z.72 F9000
G1 X99.318 Y108.663
G1 Z.52
G1 E2 F4800
G1 F7200
G1 X99.318 Y113.284 E2.15257
G1 X101.222 Y111.381 E2.24145
G1 X99.432 Y108.825 E2.34448
;WIPE_START
G1 X101.222 Y111.381 E.36819
G1 X101.196 Y111.407 E.34448
;WIPE_END
G92 E0
G1 Z.72 F9000
G1 X99.715 Y109.922
G1 Z.52
G1 E2 F4800
G1 F7200
G1 X99.715 Y112.325 E2.07934
G1 X100.705 Y111.336 E2.12554
G1 X99.829 Y110.085 E2.17596
;WIPE_START
G1 X100.705 Y111.336 E1.20873
G1 X99.715 Y112.325 E.32247
G1 X99.715 Y112.094 E.17596
;WIPE_END
G92 E0
G1 Z.72 F9000
G1 X100.202 Y111.272
G1 Z.52
G1 E2 F4800
;WIDTH:0.50631
G1 F7200
G1 X100.161 Y111.231 E2.00223
G1 X100.105 Y111.246 E2.00446
G1 X100.09 Y111.302 E2.00669
G1 X100.131 Y111.343 E2.00892
G1 X100.187 Y111.328 E2.01115
;WIPE_START
G1 X100.131 Y111.343 E1.97443
G1 X100.09 Y111.302 E1.93771
G1 X100.105 Y111.246 E1.90099
G1 X100.161 Y111.231 E1.86427
G1 X100.202 Y111.272 E1.82755
;WIPE_END
G1 E.01115 F4800
G92 E0
G1 Z.72 F9000
G1 X101.969 Y111.756
G1 Z.52
G1 E2 F4800
;WIDTH:0.439999
G1 F7200
G1 X98.921 Y114.804 E2.14232
G1 X98.883 Y114.988 E2.14852
;WIDTH:0.41146
G1 X98.845 Y115.172 E2.15428
;WIDTH:0.38292
G1 X98.774 Y115.153 E2.15636
G1 X98.793 Y115.224 E2.15844
G1 X98.834 Y115.213 E2.15964
;WIDTH:0.439999
G1 X99.116 Y115.171 E2.16905
G1 X102.201 Y112.086 E2.3131
G1 X102.432 Y112.417 E2.32643
G1 X99.528 Y115.321 E2.46203
;WIPE_START
G1 X101.761 Y113.088 E.46203
;WIPE_END
G92 E0
G1 Z.72 F9000
G1 X102.777 Y112.91
G1 Z.52
G1 E2 F4800
G1 F7200
G1 X105.751 Y117.158 E2.17121
G1 X106.281 Y117.762 E2.19774
G1 X105.653 Y117.551 E2.21961
G1 X99.939 Y115.471 E2.42038
G1 X102.663 Y112.747 E2.54757
G1 X102.609 Y113.362 E2.56795
G1 X100.661 Y115.311 E2.65893
G1 X105.106 Y116.929 E2.81511
G1 X102.723 Y113.525 E2.9523
G1 X102.555 Y113.978 E2.96825
G1 X101.382 Y115.151 E3.02302
G1 X104.059 Y116.125 E3.11708
G1 X102.669 Y114.14 E3.19709
G1 X102.501 Y114.597 E3.21317
;WIDTH:0.445125
G1 X102.108 Y114.99 E3.23176
G1 X103.004 Y115.316 E3.26365
G1 X102.615 Y114.76 E3.28634
;WIPE_START
G1 X103.004 Y115.316 E2.85658
G1 X102.108 Y114.99 E2.25272
G1 X102.501 Y114.597 E1.90072
;WIPE_END
G1 E1.28634 F4800
G92 E0
G1 Z.72 F9000
G1 X121.125 Y123.532
G1 Z.52
G1 E2 F4800
;TYPE:Perimeter
;WIDTH:0.39438
G1 F7200
G1 X107.607 Y118.611 E2.42041
;WIDTH:0.398645
G1 X107.503 Y118.571 E2.42371
;WIDTH:0.42462
G1 X106.958 Y118.359 E2.44227
;WIDTH:0.450594
G1 X105.55 Y117.838 E2.49316
;WIDTH:0.439999
G1 X98.616 Y115.314 E2.7368
G1 X98.616 Y107.935 E2.98043
;WIDTH:0.468854
G1 X98.63 Y106.767 E3.0218
G1 X98.611 Y106.252 E3.04005
;WIDTH:0.431618
G1 X98.593 Y105.738 E3.05667
;WIDTH:0.394381
G1 X98.593 Y96.307 E3.33228
G1 X98.944 Y96.307 E3.34254
G1 X98.944 Y105.738 E3.61815
;WIDTH:0.398646
G1 X98.949 Y105.822 E3.62064
;WIDTH:0.43375
G1 X99.001 Y106.278 E3.63555
;WIDTH:0.468854
G1 X99.053 Y106.735 E3.65184
G1 X99.115 Y106.902 E3.65815
;WIDTH:0.452372
G1 X99.571 Y107.798 E3.69238
;WIDTH:0.439999
G1 X106.061 Y117.055 E4.06565
;WIDTH:0.468853
G1 X106.828 Y117.837 E4.10444
G1 X107.277 Y118.059 E4.12218
;WIDTH:0.431617
G1 X107.727 Y118.281 E4.1384
;WIDTH:0.39438
G1 X121.245 Y123.201 E4.5588
G1 X121.185 Y123.366 E4.56393
G1 X121.146 Y123.475 E4.56731
;WIPE_START
G1 X121.125 Y123.532 E4.52884
G1 X118.215 Y122.473 E2.56731
;WIPE_END
G92 E0
G1 Z.72 F9000
G1 X121.343 Y123.998
G1 Z.52
G1 E2 F4800
;TYPE:External perimeter
;WIDTH:0.419999
G1 F4200
G1 X98.228 Y115.585 E2.77126
G1 X98.228 Y95.942 E3.38715
G1 X99.308 Y95.942 E3.42101
G1 X99.308 Y105.738 E3.72816
G1 X99.468 Y106.728 E3.7596
G1 X99.888 Y107.576 E3.78927
G1 X106.341 Y116.787 E4.1419
G1 X107.021 Y117.485 E4.17245
G1 X107.852 Y117.939 E4.20214
G1 X121.712 Y122.984 E4.6646
G1 X121.528 Y123.491 E4.68151
G1 X121.363 Y123.942 E4.69657
; stop printing object LED_light_holder (2).stl id:0 copy 0
;LAYER_CHANGE
;Z:0.72
;HEIGHT:0.2
;BEFORE_LAYER_CHANGE
;0.72


;WIPE_START
G1 F7200
G1 X121.343 Y123.998 E4.65891
G1 X118.431 Y122.938 E2.69657
;WIPE_END
G92 E0
G1 Z.72 F9000
;AFTER_LAYER_CHANGE
;0.72
; printing object LED_light_holder (2).stl id:0 copy 0
G1 Z.92
G1 X98.801 Y115.133
G1 Z.72
G1 E2 F4800
;TYPE:Solid infill
;WIDTH:0.38292
G1 F7200
G1 X98.782 Y115.204 E2.00208
G1 X98.853 Y115.185 E2.00416
G1 X98.842 Y115.144 E2.00536
;WIDTH:0.41146
G1 X98.882 Y115.01 E2.00965
;WIDTH:0.439999
G1 X98.921 Y114.876 E2.01426
G1 X99.273 Y115.228 E2.0307
G1 X99.429 Y115.301 E2.03639
;WIDTH:0.41146
G1 X99.584 Y115.374 E2.04164
;WIDTH:0.38292
G1 X99.595 Y115.415 E2.04284
G1 X99.524 Y115.434 E2.04492
G1 X99.543 Y115.363 E2.047
;WIPE_START
G1 X99.524 Y115.434 E2.00045
G1 X99.595 Y115.415 E1.9539
G1 X99.584 Y115.374 E1.92702
;WIPE_END
G1 E.047 F4800
G92 E0
G1 Z.92 F9000
G1 X100.467 Y115.695
G1 Z.72
G1 E2 F4800
G1 F7200
G1 X100.478 Y115.736 E2.0012
G1 X100.407 Y115.755 E2.00328
G1 X100.426 Y115.684 E2.00536
;WIDTH:0.41146
G1 X100.291 Y115.617 E2.00998
;WIDTH:0.439999
G1 X100.156 Y115.55 E2.01496
G1 X98.921 Y114.315 E2.07263
G1 X98.921 Y113.753 E2.09119
G1 X101.039 Y115.871 E2.19009
G1 X101.174 Y115.938 E2.19507
;WIDTH:0.41146
G1 X101.309 Y116.006 E2.1997
;WIDTH:0.38292
G1 X101.29 Y116.077 E2.20178
G1 X101.361 Y116.058 E2.20386
G1 X101.35 Y116.017 E2.20506
;WIPE_START
G1 X101.361 Y116.058 E2.17818
G1 X101.29 Y116.077 E2.13163
G1 X101.309 Y116.006 E2.08508
;WIPE_END
G1 E.20506 F4800
G92 E0
G1 Z.92 F9000
G1 X102.192 Y116.327
G1 Z.72
G1 E2 F4800
G1 F7200
G1 X102.173 Y116.398 E2.00208
G1 X102.244 Y116.379 E2.00416
G1 X102.233 Y116.338 E2.00536
;WIDTH:0.41146
G1 X102.078 Y116.265 E2.01061
;WIDTH:0.439999
G1 X101.922 Y116.193 E2.01628
G1 X98.921 Y113.192 E2.15641
G1 X98.921 Y112.63 E2.17497
G1 X102.805 Y116.514 E2.35633
G1 X102.961 Y116.587 E2.36202
;WIDTH:0.41146
G1 X103.116 Y116.659 E2.36726
;WIDTH:0.38292
G1 X103.127 Y116.7 E2.36846
G1 X103.056 Y116.72 E2.37055
G1 X103.075 Y116.648 E2.37266
;WIPE_START
G1 X103.056 Y116.72 E2.3255
G1 X103.127 Y116.7 E2.27878
G1 X103.116 Y116.659 E2.2519
;WIPE_END
G1 E.37266 F4800
G92 E0
G1 Z.92 F9000
G1 X103.999 Y116.981
G1 Z.72
G1 E2 F4800
G1 F7200
G1 X104.01 Y117.022 E2.0012
G1 X103.939 Y117.041 E2.00328
G1 X103.958 Y116.97 E2.00536
;WIDTH:0.41146
G1 X103.823 Y116.903 E2.00998
;WIDTH:0.439999
G1 X103.688 Y116.835 E2.01497
G1 X98.921 Y112.069 E2.23753
G1 X98.921 Y111.507 E2.25609
G1 X104.571 Y117.157 E2.51991
G1 X104.651 Y117.259 E2.52419
;WIDTH:0.41146
G1 X104.732 Y117.362 E2.52821
;WIDTH:0.38292
G1 X105.376 Y117.536 E2.54707
;WIDTH:0.439999
G1 X105.434 Y117.535 E2.54899
;WIDTH:0.3882
G1 X106.264 Y117.783 E2.57386
G1 X106.324 Y117.743 E2.57593
G1 X105.815 Y117.191 E2.59749
G1 X105.59 Y117.42 E2.60671
;WIDTH:0.439999
G1 X105.256 Y117.28 E2.61867
G1 X98.921 Y110.945 E2.91447
G1 X98.921 Y110.384 E2.93299
G1 X105.5 Y116.962 E3.24016
G1 X105.581 Y116.867 E3.24428
;WIDTH:0.41146
G1 X105.662 Y116.772 E3.24811
;WIDTH:0.38292
G1 X104.807 Y115.753 E3.28572
;WIDTH:0.439999
G1 X104.571 Y115.472 E3.29784
G1 X98.921 Y109.822 E3.56166
G1 X98.921 Y109.261 E3.58018
G1 X103.26 Y113.599 E3.78276
G1 X103.377 Y113.739 E3.78878
;WIDTH:0.41146
G1 X103.495 Y113.88 E3.79441
;WIDTH:0.38292
G1 X104.35 Y114.899 E3.83202
;WIPE_START
G1 X103.495 Y113.88 E2.98957
;WIPE_END
G1 E1.83202 F4800
G92 E0
G1 Z.92 F9000
G1 X103.038 Y113.025
G1 Z.72
G1 E2 F4800
G1 F7200
G1 X102.184 Y112.007 E2.03757
;WIDTH:0.41146
G1 X102.066 Y111.866 E2.0432
;WIDTH:0.439999
G1 X101.948 Y111.726 E2.04925
G1 X98.921 Y108.699 E2.19059
G1 X99.151 Y108.367 E2.20393
G1 X100.636 Y109.853 E2.27329
G1 X100.754 Y109.993 E2.27934
;WIDTH:0.41146
G1 X100.872 Y110.133 E2.28495
;WIDTH:0.38292
G1 X101.727 Y111.152 E2.32256
;WIPE_START
G1 X100.872 Y110.133 E1.48011
;WIPE_END
G1 E.32256 F4800
G92 E0
G1 Z.92 F9000
G1 X100.415 Y109.279
G1 Z.72
G1 E2 F4800
;WIDTH:0.411575
G1 F7200
G1 X99.87 Y108.629 E2.026
;WIDTH:0.44023
G1 X99.324 Y107.978 E2.05407
;WIDTH:0.484993
G1 X99.28 Y107.943 E2.05614
;WIDTH:0.529755
G1 X99.236 Y107.908 E2.05842
;WIDTH:0.574517
G1 X99.192 Y107.872 E2.06093
;WIDTH:0.61928
G1 X99.148 Y107.837 E2.06362
;WIDTH:0.664042
G1 X99.104 Y107.801 E2.06656
;WIDTH:0.708804
G1 F6757.934
G1 X99.06 Y107.766 E2.06967
;WIPE_START
G1 F7200
G1 X99.104 Y107.801 E2.03406
;WIPE_END
G1 E.06967 F4800
G92 E0
G1 Z.92 F9000
G1 X121.125 Y123.532
G1 Z.72
G1 E2 F4800
;TYPE:Perimeter
;WIDTH:0.39438
G1 F7200
G1 X107.607 Y118.611 E2.42041
;WIDTH:0.398645
G1 X107.503 Y118.571 E2.42371
;WIDTH:0.42462
G1 X106.958 Y118.359 E2.44227
;WIDTH:0.450594
G1 X105.55 Y117.838 E2.49316
;WIDTH:0.439999
G1 X98.616 Y115.314 E2.7368
G1 X98.616 Y107.935 E2.98043
;WIDTH:0.468854
G1 X98.63 Y106.767 E3.0218
G1 X98.611 Y106.252 E3.04005
;WIDTH:0.431618
G1 X98.593 Y105.738 E3.05667
;WIDTH:0.394381
G1 X98.593 Y96.307 E3.33228
G1 X98.944 Y96.307 E3.34254
G1 X98.944 Y105.738 E3.61815
;WIDTH:0.398646
G1 X98.949 Y105.822 E3.62064
;WIDTH:0.43375
G1 X99.001 Y106.278 E3.63555
;WIDTH:0.468854
G1 X99.053 Y106.735 E3.65184
G1 X99.115 Y106.902 E3.65815
;WIDTH:0.452372
G1 X99.571 Y107.798 E3.69238
;WIDTH:0.439999
G1 X106.061 Y117.055 E4.06565
;WIDTH:0.468853
G1 X106.828 Y117.837 E4.10444
G1 X107.277 Y118.059 E4.12218
;WIDTH:0.431617
G1 X107.727 Y118.281 E4.1384
;WIDTH:0.39438
G1 X121.245 Y123.201 E4.5588
G1 X121.185 Y123.366 E4.56393
G1 X121.146 Y123.475 E4.56731
;WIPE_START
G1 X121.125 Y123.532 E4.52884
G1 X118.215 Y122.473 E2.56731
;WIPE_END
G92 E0
G1 Z.92 F9000
G1 X121.343 Y123.998
G1 Z.72
G1 E2 F4800
;TYPE:External perimeter
;WIDTH:0.419999
G1 F4200
