; generated by PrusaSlicer 2.7.0+win64 on 2023-12-01 at 00:00:07 UTC
;FLAVOR:Marlin
;TIME:493
;Filament used: 1.437790
;Layer height: 0.20
;MINX:0.000
;MINY:0.000
;MINZ:0.000
;MAXX:0.000
;MAXY:0.000
;MAXZ:0.000
;POSTPROCESSED
;Header generated for The Ender3v2 Professional Firmware
;https://github.com/mriscoc/Marlin_Ender3v2



;
;

;
;
; 

; external perimeters extrusion width = 0.42mm
; perimeters extrusion width = 0.44mm
; infill extrusion width = 0.44mm
; solid infill extrusion width = 0.44mm
; top infill extrusion width = 0.40mm
; first layer extrusion width = 0.42mm

M73 P0 R8

EXCLUDE_OBJECT_DEFINE NAME=snitch_top_stl CENTER=109.992,110.007 POLYGON=[[111.142,95.678],[113.260,96.046],[114.508,96.366],[115.295,96.657],[115.522,96.500],[115.938,96.460],[116.082,96.568],[116.192,96.816],[116.163,97.031],[116.982,97.458],[119.199,99.002],[119.762,99.116],[119.776,99.438],[119.702,99.476],[121.170,101.027],[121.450,101.026],[121.602,101.110],[121.628,101.462],[121.558,101.532],[122.504,103.054],[122.798,103.084],[122.938,103.322],[122.768,103.574],[123.222,104.606],[123.433,105.066],[123.686,105.100],[123.810,105.292],[123.618,105.608],[123.942,106.932],[124.206,106.990],[124.428,107.156],[124.472,107.298],[124.408,107.592],[124.122,107.780],[124.190,108.290],[124.452,108.334],[124.668,108.498],[124.806,108.940],[124.536,109.352],[124.270,109.436],[124.226,111.068],[123.972,112.778],[123.456,114.664],[123.624,114.738],[123.744,115.100],[123.288,115.904],[122.424,116.880],[121.734,118.036],[121.025,119.001],[120.916,119.994],[120.788,120.168],[120.044,120.640],[119.306,120.719],[119.234,120.786],[119.380,121.094],[119.366,121.246],[119.290,121.454],[119.070,121.664],[118.466,121.878],[117.721,121.922],[115.582,123.066],[114.398,123.496],[114.340,123.936],[114.080,124.132],[113.466,124.344],[112.998,124.368],[112.344,124.276],[111.859,124.035],[111.090,124.162],[109.992,124.210],[108.135,124.042],[107.642,124.276],[106.988,124.368],[106.520,124.344],[105.780,124.098],[105.612,123.798],[105.590,123.500],[104.398,123.066],[102.266,121.923],[101.440,121.860],[100.966,121.708],[100.742,121.522],[100.656,121.296],[100.656,120.960],[100.743,120.789],[100.670,120.721],[99.994,120.640],[99.432,120.364],[99.208,120.168],[99.030,119.896],[98.952,118.981],[98.242,118.036],[97.509,116.816],[96.892,116.148],[96.376,115.436],[96.258,115.146],[96.336,114.764],[96.508,114.647],[96.004,112.778],[95.728,110.496],[95.720,109.437],[95.292,109.182],[95.206,109.024],[95.194,108.718],[95.492,108.376],[95.796,108.290],[95.882,107.776],[95.624,107.642],[95.514,107.284],[95.730,106.982],[96.030,106.931],[96.412,105.608],[96.218,105.496],[96.216,105.182],[96.576,105.068],[97.212,103.574],[97.044,103.334],[97.082,103.166],[97.476,103.036],[98.448,101.532],[98.342,101.360],[98.380,101.112],[98.859,101.022],[99.298,100.444],[100.240,99.476],[100.212,99.126],[100.296,99.042],[100.785,99.005],[102.206,97.950],[103.791,97.055],[103.776,96.858],[104.136,96.434],[104.318,96.436],[104.702,96.693],[106.594,96.046],[107.774,95.818],[109.992,95.632]]

M190 S60 ; set bed temperature and wait for it to be reached
M104 S202 ; set temperature
;TYPE:Custom
START_PRINT
M109 S202 ; set temperature and wait for it to be reached
G21 ; set units to millimeters
G90 ; use absolute coordinates
M82 ; use absolute distances for extrusion
G92 E0
; Filament gcode
M107
;LAYER_CHANGE
;Z:0.32
;HEIGHT:0.32
;BEFORE_LAYER_CHANGE
;0.32


G1 E-2 F4800
G92 E0
G1 Z.32 F9000
;AFTER_LAYER_CHANGE
;0.32
G1 X97.896 Y96.705
G1 E2 F4800
;TYPE:Skirt/Brim
;WIDTH:0.42
G1 F1800
G1 X98.415 Y96.27 E2.03165
G1 X102.195 Y93.703 E2.24522
G1 X102.976 Y93.309 E2.28611
G1 X103.59 Y93.142 E2.31585
G1 X107.339 Y92.498 E2.49365
G1 X110.108 Y92.283 E2.62346
G1 X111.597 Y92.359 E2.69315
G1 X116.552 Y93.177 E2.92789
G1 X117.827 Y93.701 E2.99232
G1 X121.67 Y96.362 E3.2108
G1 X122.225 Y96.846 E3.24522
G1 X124.07 Y98.851 E3.37258
G1 X124.47 Y99.384 E3.40373
G1 X126.004 Y101.976 E3.54451
G1 X126.911 Y104.03 E3.64946
G1 X127.673 Y106.307 E3.76169
G1 X128.09 Y108.268 E3.8554
G1 X128.108 Y109.511 E3.9135
G1 X127.036 Y115.687 E4.20649
G1 X126.76 Y116.555 E4.24906
G1 X126.3 Y117.365 E4.2926
G1 X124.452 Y119.988 E4.44257
G1 X122.027 Y123.373 E4.6372
G1 X121.407 Y124.054 E4.68025
G1 X120.576 Y124.654 E4.72816
G1 X114.929 Y127.389 E5.02143
G1 X113.749 Y127.607 E5.07752
G1 X106.23 Y127.625 E5.42896
G1 X104.94 Y127.369 E5.49043
G1 X104.587 Y127.223 E5.50829
G1 X99.281 Y124.567 E5.78563
G1 X98.373 Y123.899 E5.83832
G1 X98.036 Y123.496 E5.86287
G1 X93.603 Y117.263 E6.22037
G1 X93.175 Y116.458 E6.26298
G1 X92.959 Y115.718 E6.29901
G1 X91.91 Y109.596 E6.58933
G1 X91.85 Y108.939 E6.62017
G1 X91.922 Y108.006 E6.66391
G1 X92.33 Y106.239 E6.74867
G1 X93.047 Y104.108 E6.85376
G1 X94.257 Y101.371 E6.99363
G1 X95.921 Y98.84 E7.13521
G1 X97.855 Y96.749 E7.26834
EXCLUDE_OBJECT_START NAME=snitch_top_stl
;WIPE_START
G1 F7200
G1 X97.896 Y96.705 E7.23025
G1 X98.415 Y96.27 E6.80136
G1 X100.417 Y94.91 E5.26834
;WIPE_END
G92 E0
G1 Z.52 F9000
G1 X121.766 Y103.331
G1 Z.32
G1 E2 F4800
;TYPE:Solid infill
;WIDTH:0.422197
G1 F1800
M73 P1 R8
G1 X117.094 Y98.659 E2.31076
G1 X116.612 Y98.335 E2.33808
G1 X115.858 Y97.923 E2.37849
G1 X121.93 Y103.995 E2.78237
G1 X122.341 Y104.906 E2.82938
G1 X114.971 Y97.536 E3.31959
G1 X114.186 Y97.25 E3.35888
G1 X122.705 Y105.77 E3.92555
G1 X122.86 Y106.425 E3.95721
G1 X113.518 Y97.082 E4.57862
G1 X112.861 Y96.926 E4.61038
G1 X123.015 Y107.08 E5.28577
G1 X123.066 Y107.292 E5.29603
G1 X123.172 Y107.506 E5.30726
G1 X123.22 Y107.545 E5.31017
G1 X123.194 Y107.599 E5.31299
G1 X123.186 Y107.75 E5.3201
G1 X112.225 Y96.789 E6.04917
G1 X111.622 Y96.687 E6.07793
G1 X123.256 Y108.321 E6.85176
G1 X123.292 Y108.585 E6.86429
G1 X123.399 Y108.845 E6.87751
G1 X123.49 Y108.905 E6.88264
G1 X123.411 Y108.976 E6.88764
G1 X111.042 Y96.607 E7.71036
G1 X110.522 Y96.586 E7.73484
G1 X123.339 Y109.403 E8.58736
G1 X123.325 Y109.89 E8.61027
G1 X110.001 Y96.566 E9.49651
G1 X109.53 Y96.594 E9.5187
M73 P2 R8
G1 X123.312 Y110.376 E10.43541
G1 X123.298 Y110.863 E10.45832
G1 X109.059 Y96.623 E11.40546
G1 X108.602 Y96.666 E11.42705
G1 X123.24 Y111.304 E12.40069
G1 X123.167 Y111.732 E12.42111
G1 X108.149 Y96.713 E13.42006
G1 X107.723 Y96.787 E13.4404
G1 X123.095 Y112.159 E14.46286
G1 X123.022 Y112.586 E14.48323
G1 X107.302 Y96.866 E15.52884
G1 X106.88 Y96.944 E15.54902
M73 P2 R7
G1 X122.945 Y113.009 E16.61758
G1 X122.84 Y113.404 E16.6368
M73 P3 R7
G1 X106.502 Y97.066 E17.72352
G1 X106.127 Y97.191 E17.74211
G1 X122.735 Y113.799 E18.84679
G1 X122.628 Y114.191 E18.8659
G1 X105.752 Y97.316 E19.98837
G1 X105.377 Y97.441 E20.00696
G1 X122.507 Y114.571 E21.14636
G1 X122.476 Y114.752 E21.155
G1 X122.515 Y114.83 E21.1591
G1 X122.433 Y114.868 E21.16335
G1 X122.388 Y114.952 E21.16783
G1 X105.012 Y97.576 E22.32359
G1 X104.769 Y97.671 E22.33586
G1 X104.627 Y97.691 E22.3426
G1 X122.216 Y115.28 E23.51253
G1 X122.043 Y115.607 E23.52993
M73 P4 R7
G1 X104.298 Y97.862 E24.71023
G1 X103.961 Y98.024 E24.72782
G1 X121.87 Y115.934 E25.91907
G1 X121.698 Y116.261 E25.93645
G1 X103.64 Y98.204 E27.13754
G1 X103.32 Y98.384 E27.15481
G1 X121.525 Y116.589 E28.36571
G1 X121.335 Y116.899 E28.38281
G1 X103 Y98.564 E29.60236
G1 X102.967 Y98.583 E29.60415
G1 X102.696 Y98.759 E29.61935
G1 X121.144 Y117.208 E30.84645
G1 X120.953 Y117.517 E30.86354
M73 P5 R7
G1 X102.405 Y98.969 E32.09726
G1 X102.116 Y99.179 E32.11406
G1 X120.744 Y117.807 E33.3531
G1 X120.534 Y118.098 E33.36998
G1 X101.826 Y99.39 E34.61434
G1 X101.537 Y99.601 E34.63117
G1 X120.323 Y118.387 E35.88072
G1 X120.084 Y118.648 E35.89736
G1 X101.248 Y99.811 E37.15026
G1 X101.069 Y99.941 E37.16066
M73 P6 R7
G1 X100.976 Y100.039 E37.16701
G1 X119.845 Y118.909 E38.42211
G1 X119.606 Y119.169 E38.43872
G1 X100.731 Y100.295 E39.69415
G1 X100.487 Y100.551 E39.71078
G1 X119.347 Y119.41 E40.96521
G1 X119.088 Y119.651 E40.98185
G1 X100.243 Y100.806 E42.23532
G1 X99.999 Y101.062 E42.25195
G1 X118.829 Y119.893 E43.50446
G1 X118.571 Y120.134 E43.52107
G1 X99.783 Y101.346 E44.77075
G1 X99.567 Y101.63 E44.78753
M73 P7 R7
G1 X118.342 Y120.405 E46.03634
G1 X118.323 Y120.434 E46.03797
G1 X118.319 Y120.615 E46.04649
G1 X118.142 Y120.581 E46.05497
G1 X118.051 Y120.614 E46.05952
G1 X99.323 Y101.886 E47.30521
G1 X99.123 Y102.186 E47.32217
G1 X117.73 Y120.793 E48.55981
G1 X117.42 Y120.983 E48.57691
G1 X98.923 Y102.486 E49.80723
G1 X98.726 Y102.789 E49.82423
G1 X117.111 Y121.174 E51.0471
G1 X116.801 Y121.364 E51.0642
M73 P8 R7
G1 X98.536 Y103.099 E52.27909
G1 X98.346 Y103.409 E52.29619
G1 X116.476 Y121.539 E53.5021
G1 X116.151 Y121.713 E53.51944
G1 X98.175 Y103.738 E54.71508
G1 X98.148 Y103.833 E54.71973
G1 X98.02 Y104.083 E54.73294
G1 X115.825 Y121.888 E55.91723
G1 X115.499 Y122.062 E55.93461
G1 X97.854 Y104.416 E57.1083
G1 X97.709 Y104.771 E57.12634
G1 X115.161 Y122.224 E58.28719
G1 X114.796 Y122.358 E58.30548
M73 P9 R7
G1 X97.564 Y105.126 E59.45166
G1 X97.419 Y105.481 E59.4697
G1 X114.43 Y122.492 E60.60118
G1 X114.064 Y122.626 E60.61951
G1 X97.308 Y105.871 E61.734
G1 X97.177 Y106.239 E61.75237
G1 X113.726 Y122.788 E62.85312
G1 X113.665 Y122.829 E62.85658
G1 X113.567 Y123.013 E62.86639
G1 X113.391 Y122.9 E62.87623
G1 X113.333 Y122.895 E62.87897
G1 X97.061 Y106.623 E63.9613
G1 X96.972 Y107.034 E63.98108
G1 X112.865 Y122.927 E65.0382
G1 X112.43 Y122.993 E65.05889
M73 P10 R7
G1 X96.859 Y107.422 E66.09459
G1 X96.804 Y107.528 E66.10021
G1 X96.823 Y107.665 E66.10672
G1 X96.81 Y107.873 E66.11652
G1 X111.996 Y123.058 E67.12658
G1 X111.565 Y123.128 E67.14712
G1 X96.746 Y108.308 E68.13284
G1 X96.643 Y108.706 E68.15218
G1 X111.142 Y123.204 E69.11654
G1 X110.98 Y123.234 E69.12429
G1 X110.685 Y123.247 E69.13818
G1 X96.645 Y109.207 E70.07205
G1 X96.653 Y109.715 E70.09595
G1 X110.206 Y123.268 E70.99742
G1 X109.701 Y123.264 E71.02117
G1 X96.657 Y110.22 E71.88879
G1 X96.659 Y110.429 E71.89862
M73 P11 R7
G1 X96.705 Y110.767 E71.91466
G1 X109.178 Y123.24 E72.7443
G1 X109.024 Y123.234 E72.75155
G1 X108.602 Y123.164 E72.77167
G1 X96.784 Y111.346 E73.55774
G1 X96.849 Y111.911 E73.58449
G1 X108.004 Y123.066 E74.32646
G1 X107.411 Y122.973 E74.35469
G1 X96.908 Y112.47 E75.05329
G1 X96.923 Y112.606 E75.05973
G1 X97.061 Y113.123 E75.0849
G1 X106.852 Y122.914 E75.73615
G1 X106.579 Y122.938 E75.74904
G1 X106.458 Y123.02 E75.75591
G1 X97.244 Y113.806 E76.36878
G1 X97.445 Y114.506 E76.40303
G1 X105.351 Y122.413 E76.92893
G1 X104.799 Y122.213 E76.95654
G1 X104.501 Y122.063 E76.97223
G1 X97.834 Y115.396 E77.41568
G1 X98.368 Y116.43 E77.47041
G1 X103.488 Y121.549 E77.81093
G1 X103.195 Y121.396 E77.82648
G1 X102.12 Y120.682 E77.88718
G1 X98.619 Y117.18 E78.12008
;WIPE_START
G1 F7200
G1 X100.851 Y119.413 E76.12008
;WIPE_END
G92 E0
G1 Z.52 F9000
G1 X113.668 Y123.443
G1 Z.32
G1 E2 F4800
;TYPE:Perimeter
;WIDTH:0.42
G1 F1800
G1 X113.632 Y123.364 E2.00406
G1 X113.322 Y123.164 E2.0213
G1 X113.13 Y123.158 E2.03028
G1 X111.725 Y123.373 E2.09672
G1 X111.011 Y123.503 E2.13064
G1 X110.001 Y123.548 E2.17789
G1 X108.996 Y123.503 E2.22491
G1 X107.439 Y123.248 E2.29865
G1 X106.848 Y123.185 E2.32643
M73 P12 R7
G1 X106.658 Y123.199 E2.33533
G1 X106.33 Y123.45 E2.35463
G1 X106.185 Y123.061 E2.37403
G1 X105.97 Y122.92 E2.38605
G1 X105.209 Y122.661 E2.42362
G1 X104.69 Y122.461 E2.44962
G1 X103.582 Y121.904 E2.50758
G1 X103.056 Y121.629 E2.53532
G1 X101.982 Y120.907 E2.59581
G1 X101.779 Y120.825 E2.60604
G1 X101.426 Y120.887 E2.62279
G1 X101.367 Y120.514 E2.64044
G1 X101.252 Y120.358 E2.6495
G1 X100.177 Y119.353 E2.71828
G1 X99.839 Y118.983 E2.7417
G1 X99.305 Y118.325 E2.78131
G1 X98.802 Y117.653 E2.82054
G1 X98.495 Y117.198 E2.8462
G1 X98.225 Y116.743 E2.87093
G1 X97.575 Y115.484 E2.93716
G1 X97.311 Y115.014 E2.96236
G1 X97.117 Y114.926 E2.97232
G1 X97.205 Y114.731 E2.98232
G1 X96.656 Y112.656 E3.08264
G1 X96.54 Y111.56 E3.13415
G1 X96.389 Y110.448 E3.1866
G1 X96.384 Y109.327 E3.239
G1 X96.312 Y109.063 E3.25179
G1 X96.085 Y108.876 E3.26554
G1 X96.33 Y108.715 E3.27924
G1 X96.391 Y108.608 E3.285
G1 X96.526 Y108.077 E3.31061
G1 X96.539 Y107.577 E3.33399
G1 X96.446 Y107.456 E3.34112
G1 X96.579 Y107.379 E3.3483
G1 X96.667 Y107.183 E3.35834
G1 X96.833 Y106.4 E3.39575
G1 X97.098 Y105.628 E3.4339
G1 X97.071 Y105.493 E3.44033
G1 X97.164 Y105.391 E3.44678
G1 X97.622 Y104.269 E3.50342
G1 X97.899 Y103.727 E3.53187
G1 X97.936 Y103.524 E3.54151
G1 X98.021 Y103.443 E3.547
G1 X98.57 Y102.527 E3.59692
G1 X99.046 Y101.837 E3.6361
G1 X99.101 Y101.689 E3.64348
G1 X99.14 Y101.684 E3.64532
G1 X99.287 Y101.552 E3.65455
G1 X99.793 Y100.886 E3.69364
G1 X100.861 Y99.772 E3.76577
G1 X102.373 Y98.659 E3.85352
G1 X102.826 Y98.351 E3.87912
G1 X103.735 Y97.841 E3.92784
G1 X104.212 Y97.6 E3.95282
G1 X104.384 Y97.362 E3.96655
G1 X104.598 Y97.423 E3.97695
G1 X104.703 Y97.408 E3.98191
G1 X105.173 Y97.223 E4.00552
G1 X106.78 Y96.688 E4.08469
G1 X108.043 Y96.452 E4.14475
G1 X108.929 Y96.36 E4.18638
G1 X110.004 Y96.295 E4.23672
G1 X111.075 Y96.337 E4.28682
G1 X112.024 Y96.47 E4.33161
G1 X113.054 Y96.691 E4.38085
G1 X114.222 Y96.976 E4.43704
G1 X114.875 Y97.215 E4.46954
G1 X115.378 Y97.374 E4.4942
G1 X115.574 Y97.3 E4.50399
G1 X115.658 Y97.492 E4.51379
G1 X115.762 Y97.566 E4.51976
G1 X116.753 Y98.103 E4.57244
G1 X118.155 Y99.047 E4.65144
G1 X118.998 Y99.68 E4.70071
G1 X119.102 Y99.812 E4.70856
G1 X119.88 Y100.596 E4.76019
G1 X120.801 Y101.608 E4.82415
G1 X121.607 Y102.812 E4.89187
G1 X121.961 Y103.453 E4.9261
G1 X122.094 Y103.573 E4.93447
G1 X122.109 Y103.733 E4.94198
G1 X122.617 Y104.859 E4.99972
G1 X122.83 Y105.382 E5.02611
G1 X122.947 Y105.55 E5.03568
G1 X122.948 Y105.67 E5.04129
G1 X123.351 Y107.276 E5.11868
G1 X123.547 Y107.471 E5.1316
G1 X123.461 Y107.651 E5.14092
G1 X123.459 Y107.808 E5.14826
G1 X123.547 Y108.476 E5.17975
G1 X123.624 Y108.688 E5.19029
G1 X123.905 Y108.875 E5.20607
G1 X123.655 Y109.1 E5.22179
G1 X123.61 Y109.3 E5.23137
G1 X123.565 Y111.009 E5.31128
G1 X123.222 Y113.021 E5.40668
G1 X122.749 Y114.744 E5.49019
G1 X122.852 Y114.947 E5.50083
G1 X122.645 Y115.042 E5.51148
G1 X121.753 Y116.737 E5.60101
G1 X121.18 Y117.665 E5.65199
G1 X120.548 Y118.542 E5.70252
G1 X119.806 Y119.352 E5.75386
G1 X118.688 Y120.39 E5.82517
G1 X118.575 Y120.542 E5.83402
G1 X118.565 Y120.92 E5.85169
G1 X118.193 Y120.85 E5.86938
G1 X118.046 Y120.912 E5.87684
G1 X116.917 Y121.61 E5.93888
G1 X115.318 Y122.455 E6.02341
G1 X114.022 Y122.926 E6.08786
G1 X113.854 Y123.026 E6.097
G1 X113.68 Y123.351 E6.11423
G1 X113.676 Y123.383 E6.11574
;WIPE_START
G1 F7200
G1 X113.668 Y123.443 E6.0774
G1 X113.632 Y123.364 E6.02242
G1 X113.322 Y123.164 E5.78877
G1 X113.13 Y123.158 E5.66711
G1 X111.725 Y123.373 E4.76692
G1 X111.011 Y123.503 E4.30729
G1 X110.709 Y123.516 E4.11574
;WIPE_END
G92 E0
G1 Z.52 F9000
G1 X113.554 Y123.921
G1 Z.32
G1 E2 F4800
;TYPE:External perimeter
G1 F1800
G1 X113.463 Y123.821 E2.00632
G1 X113.35 Y123.574 E2.01902
G1 X113.183 Y123.505 E2.02747
G1 X111.788 Y123.719 E2.09344
G1 X111.05 Y123.853 E2.1285
G1 X110.001 Y123.899 E2.17758
G1 X108.96 Y123.853 E2.22628
G1 X107.4 Y123.597 E2.30017
G1 X106.811 Y123.534 E2.32786
G1 X106.65 Y123.606 E2.3361
G1 X106.48 Y123.891 E2.35161
G1 X106.265 Y123.953 E2.36207
G1 X106.055 Y123.858 E2.37284
G1 X106.018 Y123.789 E2.3765
G1 X105.976 Y123.471 E2.39149
G1 X105.927 Y123.299 E2.39985
G1 X105.855 Y123.252 E2.40387
G1 X105.089 Y122.991 E2.44169
G1 X104.548 Y122.782 E2.4688
G1 X103.422 Y122.217 E2.52768
G1 X102.876 Y121.931 E2.55649
G1 X101.779 Y121.194 E2.61826
G1 X101.601 Y121.192 E2.62658
G1 X101.426 Y121.332 E2.63706
G1 X101.222 Y121.419 E2.64743
G1 X101.017 Y121.328 E2.65791
G1 X100.966 Y121.174 E2.66549
